chenziming123/SO101-AI-CAE-Portfolio/data/simulation/upper_arm_v3_urdf_smoke_motion.csv
sample_id,shoulder_pan,shoulder_lift,elbow_flex,wrist_flex,wrist_roll,official_x,official_y,official_z,improved_x,improved_y,improved_z,ee_diff_m
0,0.0,0.0,0.0,0.0,0.0,0.3913614749908447,-9.212063559971284e-06,0.2264697104692459,0.3913614749908447,-9.212063559971284e-06,0.2264697104692459,0.0
1,0.06425740280217762,0.39187638844232,-0.2873654115893265,1.6315858502188767,-2.0336223380394567,0.25023943185806274,-0.006769442465156317,0.043379589915275574,0.25023943185806274,-0.006769442465156317,0.043379589915275574,0.0
2,-0.9919781352879967,-1.2869528855599754,0.6045708536666239,-1.3507292902444012,1.635750007587487,0.023853007704019547,-0.037685949355363846,0.40647056698799133,0.023853007704019547,-0.037685949355363846,0.40647056698799133,0.0
3,1.1483441663256109,0.39850381833477355,-1.401571640133147,-0.07951843873391629,-0.1494280156235721,0.14223472774028778,-0.22718298435211182,0.46299028396606445,0.14223472774028778,-0.22718298435211182,0.46299028396606445,0.0
4,-1.0818721832944533,-1.4086098875516888,1.6654687603630078,-0.4639821529587673,-1.2491174229831716,0.1318642497062683,0.19056066870689392,0.16362416744232178,0.1318642497062683,0.19056066870689392,0.16362416744232178,0.0
5,0.7402204131600039,0.4583425609109071,-0.5580127317829302,-0.2312549210581325,-1.8689032070378118,0.3308457136154175,-0.2568240165710449,0.2778414189815521,0.3308457136154175,-0.2568240165710449,0.2778414189815521,0.0
6,-1.1878500557294664,-0.18982759671345795,-0.03892074209288943,-0.5867428382624214,2.7224883901113834,0.14331068098545074,0.24986781179904938,0.38891538977622986,0.14331068098545074,0.24986781179904938,0.38891538977622986,0.0
7,1.223311136379964,-1.12446235510378,-1.6401932923872253,1.522953124818138,-0.8188539644679769,-5.162017259863205e-05,0.12412437051534653,0.3842453360557556,-5.162017259863205e-05,0.12412437051534653,0.3842453360557556,0.0
8,1.7145018033142314,-0.028455173775498332,1.1853920284190864,-0.02723567869748833,-1.0352251417028133,0.01988382078707218,-0.17777617275714874,-0.03714616969227791,0.01988382078707218,-0.17777617275714874,-0.03714616969227791,0.0
9,-0.04235659658814339,0.8803761590207055,-0.19358935432633206,-1.1680257181099378,2.012968800558684,0.4210859537124634,0.008805874735116959,0.16175857186317444,0.4210859537124634,0.008805874735116959,0.16175857186317444,0.0
10,-0.25509049218835655,1.2752234307150832,-0.5108710810808212,0.8171638923036177,-1.2664859245398432,0.2723946273326874,0.06856608390808105,-0.12619614601135254,0.2723946273326874,0.06856608390808105,-0.12619614601135254,0.0
11,-1.6116659543901959,1.1350994160040724,0.3111355279923278,1.0003893609086807,1.8341214634013498,0.04483533650636673,0.045388784259557724,-0.09790291637182236,0.04483533650636673,0.045388784259557724,-0.09790291637182236,0.0
12,1.1219957615281277,1.4589444893953143,0.2589760156871366,1.0683445305736246,0.07312183765114488,0.029077373445034027,0.018905749544501305,-0.0808609127998352,0.029077373445034027,0.018905749544501305,-0.0808609127998352,0.0
13,1.3441765354299644,-1.5863300080303797,0.7332118099294052,1.0237133602618511,-1.597433457333834,0.08212209492921829,-0.15338200330734253,0.22123226523399353,0.08212209492921829,-0.15338200330734253,0.22123226523399353,0.0
14,1.112138061958528,0.07986934683729352,0.15541912115487566,1.5005860392707249,-2.2816482338599364,0.12308081984519958,-0.15773391723632812,0.042254459112882614,0.12308081984519958,-0.15773391723632812,0.042254459112882614,0.0
15,-1.7391021783156397,1.266541310707947,0.2811190427703343,-0.7095261273180791,-0.8555162777138505,-0.010071591474115849,0.25262540578842163,-0.13288280367851257,-0.010071591474115849,0.25262540578842163,-0.13288280367851257,0.0
16,0.5058571646116246,-1.5178498298626744,-0.8880456346636852,0.21896089938915897,1.7734522260965022,-0.20751191675662994,0.12736789882183075,0.3663178086280823,-0.20751191675662994,0.12736789882183075,0.3663178086280823,0.0
17,0.17513315290732567,1.3240660458549876,-0.0072725015671253335,0.33056854500983723,-0.6425867478425551,0.2040427178144455,-0.024467477574944496,-0.17060799896717072,0.2040427178144455,-0.024467477574944496,-0.17060799896717072,0.0
18,1.6055061184112116,-1.14143895454444,-0.5464711560318272,1.2220102916997042,-0.9778485707105673,0.04311515763401985,-0.06314054131507874,0.3899964690208435,0.04311515763401985,-0.06314054131507874,0.3899964690208435,0.0
19,-0.8989461777739254,0.046158183213290016,-1.543320575608702,-0.24692689626808084,2.180307692420212,0.06685339659452438,0.024383384734392166,0.5187613368034363,0.06685339659452438,0.024383384734392166,0.5187613368034363,0.0
20,0.8027635405366809,0.29109993955479885,1.4920953144526647,0.4640479417653778,-0.7259474837711992,0.01615152694284916,0.030959313735365868,-0.03710290044546127,0.01615152694284916,0.030959313735365868,-0.03710290044546127,0.0
21,-0.047191016661551455,0.18413945634853035,1.3384975468024098,0.007580872392941362,1.8668528783041856,0.13792206346988678,-0.0031118744518607855,-0.07136224955320358,0.13792206346988678,-0.0031118744518607855,-0.07136224955320358,0.0
22,0.38512014209599954,0.5216934061454253,-1.2023381466085366,0.09728131503452442,-1.5271151551608422,0.36177536845207214,-0.12257221341133118,0.37673431634902954,0.36177536845207214,-0.12257221341133118,0.37673431634902954,0.0
23,-0.6661953192827674,0.5625277963245634,-0.4687558790354094,-1.3498794494080018,1.6736584646257944,0.2777661979198456,0.17757576704025269,0.3410458564758301,0.2777661979198456,0.17757576704025269,0.3410458564758301,0.0
24,-1.230351998689586,-0.2661384111506644,0.743994395696431,0.30425966982703256,-1.2898125918545182,0.11912338435649872,0.24899747967720032,0.06149107590317726,0.11912338435649872,0.24899747967720032,0.06149107590317726,0.0
25,1.2728266597135334,-1.1085962030213832,0.5988875173869648,-1.166739256294198,-0.15257607272523455,0.054148122668266296,-0.04581407830119133,0.42137888073921204,0.054148122668266296,-0.04581407830119133,0.42137888073921204,0.0
26,-0.4721644456374139,-0.4798889753852156,-1.1035357603126035,0.7521878969071143,-0.6331144376192395,0.13318537175655365,0.05338405445218086,0.47761112451553345,0.13318537175655365,0.05338405445218086,0.47761112451553345,0.0
27,-1.1647250803253189,0.588390840349204,1.3540949207227282,-0.7186276865441497,-1.436269445794708,0.08128567785024643,0.11816084384918213,-0.08292155712842941,0.08128567785024643,0.11816084384918213,-0.08292155712842941,0.0
28,1.5401954759336172,-0.8160468219425985,1.2912538178089261,-1.613180636656157,-1.5947251385875425,0.05133458599448204,-0.15606601536273956,0.30171599984169006,0.05133458599448204,-0.15606601536273956,0.30171599984169006,0.0
29,1.1912399613762799,-1.7323218598613797,0.6002389751230242,-0.8136160798705866,-1.2718683815594756,0.012789214961230755,0.08532550185918808,0.3994264602661133,0.012789214961230755,0.08532550185918808,0.3994264602661133,0.0
30,-1.0264486957655994,-1.162752991602822,-0.34078484648560936,0.578777136392403,-1.4276714113166686,0.05231064185500145,0.037064194679260254,0.4484753906726837,0.05231064185500145,0.037064194679260254,0.4484753906726837,0.0
31,-1.4231265821203771,1.6896929209722842,-1.293228504230161,-1.5134138359441478,2.095152492427278,0.09465792030096054,0.327025830745697,0.17292986810207367,0.09465792030096054,0.327025830745697,0.17292986810207367,0.0
32,1.0900402798896196,1.3905658960401754,0.3159914279597156,0.21046756632032348,-1.1139199627480192,0.08012469112873077,-0.06405346840620041,-0.1737767457962036,0.08012469112873077,-0.06405346840620041,-0.1737767457962036,0.0
33,-1.4991545754394242,1.3915126376880402,-0.3092618092940749,1.465933419665287,-2.313253165352055,0.03940991684794426,0.08529247343540192,-0.10112442076206207,0.03940991684794426,0.08529247343540192,-0.10112442076206207,0.0
34,1.6364716819391183,1.2759009632281955,1.0712490654733822,1.5601760502528308,-0.9904372568276334,0.04904637858271599,0.055891938507556915,0.1360127031803131,0.04904637858271599,0.055891938507556915,0.1360127031803131,0.0
35,-0.22090750579709773,1.3180911383638811,-0.5269537718799968,-0.17295782989193964,0.40190080357000424,0.4009559154510498,0.0781325101852417,-0.07290266454219818,0.4009559154510498,0.0781325101852417,-0.07290266454219818,0.0
36,-0.6637937303046619,-0.23504886532160962,-0.5832983288865372,1.346432823791485,0.5624451894100635,0.24146729707717896,0.15310485661029816,0.2485480010509491,0.24146729707717896,0.15310485661029816,0.2485480010509491,0.0
37,-1.2984008959311162,0.8280579957281078,0.7895150590351636,-0.9554352215617781,-1.1983644347701383,0.10047685354948044,0.24759623408317566,-0.06292616575956345,0.10047685354948044,0.24759623408317566,-0.06292616575956345,0.0
38,-1.418381899101851,1.0036389705220827,0.5095423374018906,-0.5198081304213447,2.129298231477147,0.08271219581365585,0.2397720068693161,-0.11211831122636795,0.08271219581365585,0.2397720068693161,-0.11211831122636795,0.0
39,-0.9900328995116623,-1.5959528507863605,0.1395866839541553,-0.9180718281923644,-0.6214883056072136,-0.06529097259044647,-0.1503610610961914,0.39144235849380493,-0.06529097259044647,-0.1503610610961914,0.39144235849380493,0.0
40,-1.659975360883182,0.7525845493375183,1.5329133741446204,0.6305211216440705,2.1857718143943643,0.05541407689452171,-0.10986753553152084,0.034407440572977066,0.05541407689452171,-0.10986753553152084,0.034407440572977066,0.0
41,-0.4218307707872482,-1.578152736979177,0.8524283930829544,0.3704613145725173,0.6921592419883873,0.1928424835205078,0.0635332390666008,0.2867739498615265,0.1928424835205078,0.0635332390666008,0.2867739498615265,0.0
42,-1.8356770896162233,-0.9784101842128644,-0.34679446192152774,0.513792610361828,-0.35498815283913077,0.011242201551795006,0.09131200611591339,0.44521915912628174,0.011242201551795006,0.09131200611591339,0.44521915912628174,0.0
43,1.6556300799785246,-0.8388964131816072,-1.007747731466885,1.4625268646142577,1.9825293212799453,0.02543606609106064,-0.06923503428697586,0.40350142121315,0.02543606609106064,-0.06923503428697586,0.40350142121315,0.0
44,1.5718261713537762,-0.00899797525874324,1.4116035503265412,-0.7423061165934576,0.2022943304729039,0.03702247515320778,-0.2060832977294922,-0.006510723382234573,0.03702247515320778,-0.2060832977294922,-0.006510723382234573,0.0
45,0.9100243382080184,-1.3714707704096076,0.6272986270149561,0.48088907792909663,-0.12065457490209575,0.14826546609401703,-0.13924381136894226,0.29542219638824463,0.14826546609401703,-0.13924381136894226,0.29542219638824463,0.0
46,1.7337571264890688,1.4456166210587753,0.6241329287623483,1.1813118776108353,1.7568106204604002,0.04278094321489334,0.07314551621675491,-0.0019623972475528717,0.04278094321489334,0.07314551621675491,-0.0019623972475528717,0.0
47,-0.26962478555314795,-0.8340737582255037,-1.045805042683632,0.8256245772575725,2.308682370316043,0.03465591371059418,-0.007521810010075569,0.4809141457080841,0.03465591371059418,-0.007521810010075569,0.4809141457080841,0.0
48,1.5572219076286307,-0.014801527881048493,-0.5808522089912038,0.5363823726700632,0.10934519737969683,0.04237331077456474,-0.3248765170574188,0.3111359775066376,0.04237331077456474,-0.3248765170574188,0.3111359775066376,0.0
49,-1.6784513714608091,0.5939718331654085,0.1326125909137017,0.01328708874611828,-0.6530460740471828,-0.001817168085835874,0.33187851309776306,-0.00341922789812088,-0.001817168085835874,0.33187851309776306,-0.00341922789812088,0.0
50,0.7511711332235649,-0.8865015072922264,0.6448345214852753,0.039621875547876106,-2.1292278336597796,0.22282765805721283,-0.16300347447395325,0.28298068046569824,0.22282765805721283,-0.16300347447395325,0.28298068046569824,0.0
51,-0.38444544456008756,1.4988397798004667,0.6373087171337657,-1.3214678755832585,2.141475922222238,0.21669255197048187,0.06449734419584274,-0.13293512165546417,0.21669255197048187,0.06449734419584274,-0.13293512165546417,0.0
52,-0.9365010055649508,-0.2738615387764125,-0.015718500749716924,0.9514240794897508,2.4409898676881667,0.21146222949028015,0.22553133964538574,0.1828763335943222,0.21146222949028015,0.22553133964538574,0.1828763335943222,0.0
53,-1.4610673730936434,0.499253038872292,-1.5970874614396957,-1.4474886469555739,-2.159128337036062,0.03600945323705673,0.031906627118587494,0.41015636920928955,0.03600945323705673,0.031906627118587494,0.41015636920928955,0.0
54,-0.2105370759604679,1.3733180154158897,0.7189561802807729,-0.41265061766516453,1.796658034738428,0.1068764328956604,0.006447544787079096,-0.16678959131240845,0.1068764328956604,0.006447544787079096,-0.16678959131240845,0.0
55,0.9971672369413631,-0.4368424211829274,0.6588925995123911,0.6082470760392209,-0.6301868299836646,0.17494235932826996,-0.20215579867362976,0.08403697609901428,0.17494235932826996,-0.20215579867362976,0.08403697609901428,0.0
56,-1.6864549258133363,0.2751970018313341,-1.2521992539678861,1.5764112312916898,-2.1940371366978613,-0.0011078300885856152,0.29058152437210083,0.2461356222629547,-0.0011078300885856152,0.29058152437210083,0.2461356222629547,0.0
57,-0.8031894288342201,-0.1614423170439565,0.6179976514808736,-1.2607618032659365,-1.8072143826522669,0.22256457805633545,0.2011377364397049,0.293488085269928,0.22256457805633545,0.2011377364397049,0.293488085269928,0.0
58,0.9499762994092809,-1.1428347910717978,1.5977481591165232,-0.7038750476316002,2.2727187074904265,0.15943729877471924,-0.17949935793876648,0.1782459169626236,0.15943729877471924,-0.17949935793876648,0.1782459169626236,0.0
59,0.7244768236539691,-1.498326675654123,-0.3260411997044925,0.07994122842533957,1.0687059687043856,-0.07241301238536835,0.08907569944858551,0.4394741952419281,-0.07241301238536835,0.08907569944858551,0.4394741952419281,0.0
60,0.2941968559560526,0.04686385432077267,1.6720499504265853,0.773387702611428,1.0034657162951115,-0.04026130214333534,0.016910454258322716,0.0007653083303011954,-0.04026130214333534,0.016910454258322716,0.0007653083303011954,0.0
61,-0.8000740307997314,0.28765031096058813,-1.1049893768703432,0.9871556830221568,0.16376106767836784,0.2719626724720001,0.2382068783044815,0.2839270830154419,0.2719626724720001,0.2382068783044815,0.2839270830154419,0.0
62,1.1245504892363116,0.705560905145159,-0.1140059800775386,0.057856972845881094,-0.38090687652717703,0.19770142436027527,-0.3252965211868286,0.011145774275064468,0.19770142436027527,-0.3252965211868286,0.011145774275064468,0.0
63,-1.1935237239544427,-1.4115546701359039,0.13687867498680784,0.9600990924183053,0.11217011991743142,0.0809028372168541,0.10373084247112274,0.33442580699920654,0.0809028372168541,0.10373084247112274,0.33442580699920654,0.0
64,-1.7691132100503937,-0.746198752047915,1.1640722884697254,-0.15858968321452704,2.539695544568338,-0.006808764301240444,0.2514286935329437,0.13365399837493896,-0.006808764301240444,0.2514286935329437,0.13365399837493896,0.0
65,-0.12002313402661513,0.46911780699172967,-0.7072132923387816,-1.360725914742873,2.7071769192744446,0.26223456859588623,0.02326250821352005,0.40018603205680847,0.26223456859588623,0.02326250821352005,0.40018603205680847,0.0
66,-1.6920831495223478,-1.6623229171870189,0.830717705275549,-1.1477082299533743,-1.6333013710924698,0.03858443722128868,-0.061563652008771896,0.3832518458366394,0.03858443722128868,-0.061563652008771896,0.3832518458366394,0.0
67,-0.45557636472568075,0.8530814345578861,1.4212600024432223,-1.625417853494044,-2.0464884287069873,0.19700121879577637,0.08503422886133194,-0.02991538867354393,0.19700121879577637,0.08503422886133194,-0.02991538867354393,0.0
68,1.471380623528979,0.7662457748318832,0.4065462898057324,1.3085848538102087,-0.5267928434611107,0.0482940599322319,-0.05514036864042282,-0.03637165576219559,0.0482940599322319,-0.05514036864042282,-0.03637165576219559,0.0
69,0.17318940596882948,1.1983837585126933,0.10924615507487356,1.3458476646286546,-0.18339495518820836,0.07975690811872482,-0.005709489807486534,-0.0652606338262558,0.07975690811872482,-0.005709489807486534,-0.0652606338262558,0.0
70,-0.8276741061424207,-0.05323330785387825,1.0742991621346336,-0.020051616785143,-0.19094152398469033,0.17757344245910645,0.15319186449050903,-0.02004672773182392,0.17757344245910645,0.15319186449050903,-0.02004672773182392,0.0
71,-1.024242524209165,-1.5330990988852686,-0.9701090543890227,0.18179418033643735,-2.1225775839201777,-0.12479604780673981,-0.25653326511383057,0.33854779601097107,-0.12479604780673981,-0.25653326511383057,0.33854779601097107,0.0
72,-0.6463261370862399,0.39510391707147496,0.3866965910481466,-0.4086999109483158,1.5781656592038047,0.3208696246147156,0.20265480875968933,0.06022677198052406,0.3208696246147156,0.20265480875968933,0.06022677198052406,0.0
73,1.7525297576903225,0.12916973912618834,0.2380919860180568,0.20864012489912342,2.2777961653403054,-0.02820691652595997,-0.330025851726532,0.09852578490972519,-0.02820691652595997,-0.330025851726532,0.09852578490972519,0.0
74,1.6670484142742779,-1.123780583666519,-0.9993960932060612,1.3149468876821178,-2.337448825308849,0.04692532867193222,0.02762630768120289,0.42162036895751953,0.04692532867193222,0.02762630768120289,0.42162036895751953,0.0
75,0.627215964959098,0.6046042163966487,0.6773417523983909,-1.1656297120758272,2.414326916531982,0.2943926751613617,-0.19210143387317657,0.052742037922143936,0.2943926751613617,-0.19210143387317657,0.052742037922143936,0.0
76,0.8577786696698819,-0.9126698864295777,0.6527101800645085,-0.8933072559279303,0.14871142348482902,0.14209535717964172,-0.12121353298425674,0.3896738588809967,0.14209535717964172,-0.12121353298425674,0.3896738588809967,0.0
77,1.672235666321917,0.9123218015754109,-1.055122441767438,-0.18141003498785668,-0.9309850136812152,0.0023578235413879156,-0.4202125668525696,0.23406104743480682,0.0023578235413879156,-0.4202125668525696,0.23406104743480682,0.0
78,-1.3318071601197823,0.5373500172887078,-0.8675207747569272,0.2366565003654888,-0.6753060637250297,0.12808150053024292,0.3869701325893402,0.25646159052848816,0.12808150053024292,0.3869701325893402,0.25646159052848816,0.0
79,0.18083207922395594,-0.5579786050360322,-0.20955746494370997,1.2532913744434186,-2.691667228546953,0.2677888572216034,-0.03869820386171341,0.25635015964508057,0.2677888572216034,-0.03869820386171341,0.25635015964508057,0.0
80,0.8845012143659821,-0.8235385831978749,-0.5488952209015197,-1.0350997458434916,-0.7438387840797023,-0.036952316761016846,0.1008763238787651,0.45782214403152466,-0.036952316761016846,0.1008763238787651,0.45782214403152466,0.0
81,-0.4007287292722379,1.5257752395490254,0.043186455467366436,1.3815898591878397,0.8533806010033147,0.034022677689790726,-0.008578410372138023,-0.06620698422193527,0.034022677689790726,-0.008578410372138023,-0.06620698422193527,0.0
82,1.8920890138429218,0.5785486407759586,0.9186686273353626,-1.371063553449882,-1.3174635765511145,-0.04505605250597,-0.2758561074733734,0.03954857960343361,-0.04505605250597,-0.2758561074733734,0.03954857960343361,0.0
83,1.8452736242567163,0.4704407023806527,1.265127781029709,-0.28281203817555434,-2.11489967536129,0.014640072360634804,-0.10989592969417572,-0.08729707449674606,0.014640072360634804,-0.10989592969417572,-0.08729707449674606,0.0
84,1.7372427566315705,-0.11610249414943286,-1.2680091923362042,0.031191924320414177,0.8072431365510666,0.01575472019612789,-0.10256190598011017,0.5194330215454102,0.01575472019612789,-0.10256190598011017,0.5194330215454102,0.0
85,0.019316144717561157,-0.5421633832813684,-0.8777256072126979,-1.1281534292228317,-1.0341441729404457,-0.07938998937606812,0.008981531485915184,0.4539094567298889,-0.07938998937606812,0.008981531485915184,0.4539094567298889,0.0
86,-0.9059125358036857,0.5147348400853793,-0.6525386342314903,-0.5389002588769007,0.27226734271857156,0.27004939317703247,0.29146233201026917,0.31822678446769714,0.27004939317703247,0.29146233201026917,0.31822678446769714,0.0
87,-0.8143264238555394,-0.1852875738047357,-1.2076885585316792,-0.12017602132575478,0.618690730052307,0.09135475009679794,0.04891136661171913,0.524681031703949,0.09135475009679794,0.04891136661171913,0.524681031703949,0.0
88,1.8896336572928494,-0.6610014919430722,0.8919417151667042,1.2015065944423944,-2.193659848114861,-1.8364929928793572e-05,-0.1373022049665451,0.039781950414180756,-1.8364929928793572e-05,-0.1373022049665451,0.039781950414180756,0.0
89,1.1981940482562918,-1.6403648981114585,-0.7773828892485564,1.414296175484653,-2.7038717030290464,0.0020069973543286324,0.10251893848180771,0.3603167235851288,0.0020069973543286324,0.10251893848180771,0.3603167235851288,0.0
90,-1.6562482386528694,1.6383773531595294,1.6288223741616839,1.2189158811012428,-1.1192615800871422,0.034090638160705566,-0.026679381728172302,0.2487115114927292,0.034090638160705566,-0.026679381728172302,0.2487115114927292,0.0
91,-0.23359022706442212,-0.41138116473498965,-0.027399127231577225,-1.0149913306578469,-1.9981864003704068,0.179406076669693,0.04058422893285751,0.45153099298477173,0.179406076669693,0.04058422893285751,0.45153099298477173,0.0
92,0.39313640430663144,-0.4346753515011692,-1.2901591039480267,-0.49241435250496934,-0.5716672255615478,-0.05941959097981453,0.04533429816365242,0.4940451979637146,-0.05941959097981453,0.04533429816365242,0.4940451979637146,0.0
93,-0.4795768144149892,1.2364610324073815,0.7551370247227651,-0.7261006743989149,0.20410362409268945,0.1602509319782257,0.06132509931921959,-0.15236572921276093,0.1602509319782257,0.06132509931921959,-0.15236572921276093,0.0
94,0.7589436816144537,-0.44314615217680653,-1.5641019052738896,0.46080297119414326,0.15761356323717868,0.007057051174342632,0.028410999104380608,0.5093480348587036,0.007057051174342632,0.028410999104380608,0.5093480348587036,0.0
95,1.4717652887992272,1.660503796085393,0.7161749572426386,-0.9574941437087756,2.3642727380466715,0.04051946476101875,-0.0759928822517395,-0.17510618269443512,0.04051946476101875,-0.0759928822517395,-0.17510618269443512,0.0
96,-1.2629045595221222,-0.16754294757035448,1.1262435216504545,-0.7007069353825046,0.41702986640137363,0.12467040121555328,0.2592795789241791,0.07716840505599976,0.12467040121555328,0.2592795789241791,0.07716840505599976,0.0
97,1.845639020283242,-0.4145392101418748,-0.33990299026446014,0.6287547508546216,-2.588820053319672,-0.028729433193802834,-0.25372564792633057,0.35381126403808594,-0.028729433193802834,-0.25372564792633057,0.35381126403808594,0.0
98,1.4854358702370907,0.19530985838435466,-0.4331216729413163,-0.4109554504852855,0.5034263189590589,0.06405482441186905,-0.3397858738899231,0.34905579686164856,0.06405482441186905,-0.3397858738899231,0.34905579686164856,0.0
99,0.058956044351077486,0.6142854855285211,-1.4856335801676255,0.8245922449902496,-0.7077364963507549,0.39886942505836487,-0.016154590994119644,0.3005792796611786,0.39886942505836487,-0.016154590994119644,0.3005792796611786,0.0
100,0.7149070914867295,-1.2147246087321137,1.6217956300265466,1.6230126133778435,-1.4196900146683076,0.03561057150363922,0.012941425666213036,-0.008822573348879814,0.03561057150363922,0.012941425666213036,-0.008822573348879814,0.0
101,-0.959008630781159,-0.27258988343589863,1.5710020198217696,-1.2171985003537247,1.717274121503027,0.17585265636444092,0.1813383400440216,0.09209361672401428,0.17585265636444092,0.1813383400440216,0.09209361672401428,0.0
102,-0.01800947907897288,-0.6559743011570509,-1.5990472650507797,-0.6236211252766288,-2.08714434124908,-0.2214164137840271,0.001922491006553173,0.361613392829895,-0.2214164137840271,0.001922491006553173,0.361613392829895,0.0
103,-1.284524293975779,1.0052795486530188,-1.3237547891554113,-1.2495909286964402,0.9196649099892458,0.12182483077049255,0.2594124972820282,0.3596729040145874,0.12182483077049255,0.2594124972820282,0.3596729040145874,0.0
104,1.385037326029623,0.1317154159672156,-0.026322528521415478,-0.1621701857000657,-1.0372893014438949,0.11318320035934448,-0.3592795431613922,0.2206646353006363,0.11318320035934448,-0.3592795431613922,0.2206646353006363,0.0
105,0.6132829083327294,-0.9204872339276776,1.4517778726423605,-1.1815017011873978,1.5038599649444375,0.20090711116790771,-0.12391163408756256,0.23901142179965973,0.20090711116790771,-0.12391163408756256,0.23901142179965973,0.0
106,0.5316536339488169,1.3839296160093042,1.1579075610714518,-1.375934744387343,1.7754207998724025,0.12258920073509216,-0.05847836658358574,-0.11621882021427155,0.12258920073509216,-0.05847836658358574,-0.11621882021427155,0.0
107,-0.352160045135508,0.35261716528358145,-0.1512192381962596,0.829587018116466,1.7785228623057128,0.33429914712905884,0.10011601448059082,0.05485200509428978,0.33429914712905884,0.10011601448059082,0.05485200509428978,0.0
108,0.07502639405872369,0.3668456335042305,1.3812274465012218,-0.11909632784525637,2.828177285791221,0.1148475781083107,-0.008492637425661087,-0.08145752549171448,0.1148475781083107,-0.008492637425661087,-0.08145752549171448,0.0
109,-0.2693693297063877,1.0011931829384348,0.4555624244855525,-0.12938602605014005,-1.4184380636521083,0.22783875465393066,0.06012566760182381,-0.13448405265808105,0.22783875465393066,0.06012566760182381,-0.13448405265808105,0.0
110,1.1622401192376302,0.9327042472248683,1.6587428344931743,0.565441654149921,2.209907899027752,-0.02049853652715683,0.12039440125226974,0.084059938788414,-0.02049853652715683,0.12039440125226974,0.084059938788414,0.0
111,0.14572001562128234,0.32399777119286943,1.2123962860328206,-1.063762744331883,2.621887267132773,0.2830692231655121,-0.04013368859887123,0.01330589409917593,0.2830692231655121,-0.04013368859887123,0.01330589409917593,0.0
112,1.0399157164350612,1.6285909663213087,-1.4249644526440028,-0.8013026097148374,-1.3865362280527462,0.25130578875541687,-0.34684163331985474,0.14849695563316345,0.25130578875541687,-0.34684163331985474,0.14849695563316345,0.0
113,1.6880819615882614,-0.9315089166505163,-0.38741281498071145,0.19961611835002468,1.501955522543966,0.02435275726020336,-0.05413655564188957,0.4811347723007202,0.02435275726020336,-0.05413655564188957,0.4811347723007202,0.0
114,-1.8292887176488726,-0.7770961203944432,0.6724159447015081,-1.639327987749934,0.812089012934134,0.023203475400805473,0.08179551362991333,0.393560528755188,0.023203475400805473,0.08179551362991333,0.393560528755188,0.0
115,0.957055458684354,-0.46763550036014445,1.5004187648450604,1.610088786417222,-1.838764574856162,0.010030722245573997,0.053730495274066925,0.03839022293686867,0.010030722245573997,0.053730495274066925,0.03839022293686867,0.0
116,0.15251332082515612,-0.6144406049427025,-0.7517355021996874,-0.9084213873933864,0.9641269988716128,-0.049933791160583496,0.006991647649556398,0.48226097226142883,-0.049933791160583496,0.006991647649556398,0.48226097226142883,0.0
117,0.30252843055219136,0.480577055843614,-0.994646019801696,-0.6583964880369131,-0.15673953633208804,0.3170837461948395,-0.08556441962718964,0.4180811643600464,0.3170837461948395,-0.08556441962718964,0.4180811643600464,0.0
118,0.9008186670664746,0.8360582733666888,-0.10975821591803192,-0.5239663765723768,0.917785598089139,0.27727505564689636,-0.31120267510414124,0.04875987023115158,0.27727505564689636,-0.31120267510414124,0.04875987023115158,0.0
119,0.9620224536835718,-0.23413955772833805,1.24853881619374,-1.0289093918761143,-0.5411641776763974,0.19454026222229004,-0.21630309522151947,0.11641363799571991,0.19454026222229004,-0.21630309522151947,0.11641363799571991,0.0
120,1.3677996495836977,-1.652118111958133,0.7143691585833429,0.6425255202688496,0.00197470375110953,0.0682806596159935,-0.14318343997001648,0.2859678268432617,0.0682806596159935,-0.14318343997001648,0.2859678268432617,0.0
121,1.601665665704172,-0.1542197341925493,0.7580710147947225,-0.9474274362894295,-1.7109126827236052,0.03706564009189606,-0.30435553193092346,0.21464800834655762,0.03706564009189606,-0.30435553193092346,0.21464800834655762,0.0
122,-0.38136601204108733,-0.7389073160890898,-0.3828378357814781,0.0010844075906581985,1.3094439458034968,0.13493168354034424,0.030165277421474457,0.4848615527153015,0.13493168354034424,0.030165277421474457,0.4848615527153015,0.0
123,-1.087361917073249,0.1369561616342707,1.0727407291334967,0.25270946198000743,0.29822688230051053,0.10398264974355698,0.11906208842992783,-0.05918464437127113,0.10398264974355698,0.11906208842992783,-0.05918464437127113,0.0
124,-1.352410914286543,-0.41654382036994186,-0.019376519200710707,0.5240660807251107,1.6812686042412164,0.10935162752866745,0.2806052565574646,0.2792351543903351,0.10935162752866745,0.2806052565574646,0.2792351543903351,0.0
125,-1.8547558996929607,1.5395555884389185,-0.7745489592110122,0.34702817238396233,0.670227612628552,-0.04313938692212105,0.2985631227493286,-0.14309276640415192,-0.04313938692212105,0.2985631227493286,-0.14309276640415192,0.0
126,-1.6519388115075,-1.036341133615849,-1.4811786290063325,-0.37832458711370776,2.119119654846495,0.07176938652992249,-0.31851136684417725,0.30752190947532654,0.07176938652992249,-0.31851136684417725,0.30752190947532654,0.0
127,-1.3784462942232145,-1.3661123368391683,1.0676247338703795,1.6041307166731074,-0.05571206785775784,0.05512169003486633,0.08586928248405457,0.05580933019518852,0.05512169003486633,0.08586928248405457,0.05580933019518852,0.0
128,0.5974847576205518,1.6864400748812822,1.4719176688247595,-1.655105138689323,-2.6286055058734217,0.05878907069563866,-0.009276899509131908,-0.08553345501422882,0.05878907069563866,-0.009276899509131908,-0.08553345501422882,0.0
129,-0.9677537774698145,0.0607529218179248,-0.7259048463365767,-1.2440526722435505,2.251769064314889,0.10689732432365417,0.08751734346151352,0.46319952607154846,0.10689732432365417,0.08751734346151352,0.46319952607154846,0.0
130,-1.3754742643203866,-0.7798258408628348,1.0735290796983628,1.2266832821283031,0.4491586206162439,0.06214505434036255,0.10000329464673996,0.022866224870085716,0.06214505434036255,0.10000329464673996,0.022866224870085716,0.0
131,1.8189147771011553,-1.430396556081472,0.3877923396404137,1.6106250148530414,2.0057192739922227,0.0016193115152418613,-0.11671841144561768,0.19623415172100067,0.0016193115152418613,-0.11671841144561768,0.19623415172100067,0.0
132,-1.761565810893938,-1.5768687376617307,0.3060117944220706,-0.3569040519075779,-0.20068883257769787,0.046559832990169525,-0.04822947829961777,0.4337371289730072,0.046559832990169525,-0.04822947829961777,0.4337371289730072,0.0
133,-0.4777914261946603,1.1921472564759248,-0.9921903458546276,-0.9047284442771434,0.8914215167624229,0.39972615242004395,0.17987005412578583,0.20977646112442017,0.39972615242004395,0.17987005412578583,0.20977646112442017,0.0
134,0.3765991753498814,1.3253284042174602,-0.48527669331459355,-0.9521165385729031,-1.4446961548103288,0.4123537242412567,-0.1394534856081009,0.03679268807172775,0.4123537242412567,-0.1394534856081009,0.03679268807172775,0.0
135,0.6077080006002373,0.27094549147329694,1.6867356655530945,-0.39657886945540644,-0.8622307413262085,0.07337881624698639,-0.016801288351416588,-0.06859049201011658,0.07337881624698639,-0.016801288351416588,-0.06859049201011658,0.0
136,-1.2038717034741433,1.602561263025235,1.0685904207793744,0.848722744284488,-2.12582621916377,-0.012180536054074764,-0.11476333439350128,0.07406137883663177,-0.012180536054074764,-0.11476333439350128,0.07406137883663177,0.0
137,-0.3638642319233316,-0.7396490995576268,0.12827765164546578,1.4058600262690872,-0.22759920525942334,0.21463046967983246,0.06883881986141205,0.18134234845638275,0.21463046967983246,0.06883881986141205,0.18134234845638275,0.0
138,-0.02200502300717444,1.0718719829973682,-0.25855097725244236,-1.1351881521045404,1.1774622492675024,0.43007105588912964,0.0011995137901976705,0.09878631681203842,0.43007105588912964,0.0011995137901976705,0.09878631681203842,0.0
139,-1.4016151279755116,0.5905136157001936,-1.562528936732749,0.7137163697933955,2.6188208909596993,0.10033576190471649,0.33471423387527466,0.35609114170074463,0.10033576190471649,0.33471423387527466,0.35609114170074463,0.0
140,1.2328195903044583,-1.7419065940791574,1.383227709396584,-0.43013858516346026,0.8813798944570808,0.08443040400743484,-0.148330420255661,0.2865898013114929,0.08443040400743484,-0.148330420255661,0.2865898013114929,0.0
141,-0.025145757960024273,1.6920543211644263,0.9439532720905226,1.1911954081487781,-0.24513447381607723,-0.05635129287838936,-0.0004926323308609426,0.11202047765254974,-0.05635129287838936,-0.0004926323308609426,0.11202047765254974,0.0
142,-1.6022299164962202,-0.9946353744005069,-1.6692501005962275,0.038082355551235736,2.474116428258271,0.053853947669267654,-0.3121376931667328,0.3320344388484955,0.053853947669267654,-0.3121376931667328,0.3320344388484955,0.0
143,-1.017087337733037,0.4229201318016451,0.214245210683899,-0.32402140079740405,0.855615950422278,0.23511409759521484,0.30602043867111206,0.07758785039186478,0.23511409759521484,0.30602043867111206,0.07758785039186478,0.0
144,1.5696596440115411,0.5073784212186472,0.11494998215255214,-1.1944222051044533,0.28880263697466324,0.03697881102561951,-0.36021044850349426,0.2067686766386032,0.03697881102561951,-0.36021044850349426,0.2067686766386032,0.0
145,-1.2616286696425751,0.13531630613475976,0.4695342443031709,-1.2030322930270367,0.8048975719564244,0.1422860473394394,0.3049659729003906,0.23697565495967865,0.1422860473394394,0.3049659729003906,0.23697565495967865,0.0
146,0.5800736488667404,1.716129641771889,0.24422070126643414,0.3001546712577816,2.2547445289632,0.030087947845458984,-0.001927421661093831,-0.18010318279266357,0.030087947845458984,-0.001927421661093831,-0.18010318279266357,0.0
147,-1.9080491468935024,-0.9351622115509033,0.30146771720583265,-0.4748927958862379,-0.9898346001464398,-0.012592480517923832,0.12696054577827454,0.4306795299053192,-0.012592480517923832,0.12696054577827454,0.4306795299053192,0.0
148,-0.0439070641746202,-1.1842192314021291,-1.4422636913349418,0.6727928762385187,-0.018123840730683405,-0.196371927857399,-0.010203993879258633,0.3975525498390198,-0.196371927857399,-0.010203993879258633,0.3975525498390198,0.0
149,-0.9625116706827301,-0.2735875412660609,1.1769884407268498,0.5559715381048747,-1.8531428466634514,0.10969513654708862,0.11464498937129974,-0.028165355324745178,0.10969513654708862,0.11464498937129974,-0.028165355324745178,0.0
150,-1.7217369554143438,1.7049508961383562,-0.777486358150479,0.3920663868367147,-0.5921245670748241,-0.004075264558196068,0.25304970145225525,-0.18685245513916016,-0.004075264558196068,0.25304970145225525,-0.18685245513916016,0.0
151,-0.7328049954352063,-0.35989192509784296,-0.4230521382956165,-1.583946855254062,-0.9108837834738162,0.03353721648454666,0.0035274324472993612,0.4454062283039093,0.03353721648454666,0.0035274324472993612,0.4454062283039093,0.0
152,0.8435028674615599,0.07854988083200531,1.3252138186158633,-0.7296368513549744,-1.5778975038684142,0.19036491215229034,-0.15863005816936493,-0.004750064108520746,0.19036491215229034,-0.15863005816936493,-0.004750064108520746,0.0
153,-0.3835320621871101,-0.3659569775567899,-1.2097902881829725,-0.3627424886535231,-1.197121674869067,-0.004951528739184141,-0.00986371748149395,0.5161731243133545,-0.004951528739184141,-0.00986371748149395,0.5161731243133545,0.0
154,0.2975753357068718,0.9079153204884731,0.11949565538939155,0.8479158966856442,-0.9011842283383131,0.19193726778030396,-0.04054979979991913,-0.09944625198841095,0.19193726778030396,-0.04054979979991913,-0.09944625198841095,0.0
155,-0.17801437326654246,0.7471960247625806,-0.7427301137078667,1.256457753699958,1.0895832745849887,0.34253090620040894,0.04742414876818657,0.031946878880262375,0.34253090620040894,0.04742414876818657,0.031946878880262375,0.0
156,-0.5877875675023103,1.1316152019660795,1.2214704514108194,-0.7916824749727971,2.6258248679813114,0.09200030565261841,0.030357448384165764,-0.11938456445932388,0.09200030565261841,0.030357448384165764,-0.11938456445932388,0.0
157,-1.6803233565814417,0.4918406598197129,1.581029433509463,-1.2242217067967929,-1.7838696279011337,0.014480887912213802,0.15275825560092926,-0.036419399082660675,0.014480887912213802,0.15275825560092926,-0.036419399082660675,0.0
158,-1.6285000206594802,-0.6781224521629432,-1.035906254569356,-1.1409088888671026,-1.2017785162835701,0.042830366641283035,-0.1948811411857605,0.40220969915390015,0.042830366641283035,-0.1948811411857605,0.40220969915390015,0.0
159,1.6773429330053427,1.4713159635803215,0.9011816654792377,0.44537731947515513,-0.13796732309673754,0.05070306733250618,0.10087024420499802,-0.04089025408029556,0.05070306733250618,0.10087024420499802,-0.04089025408029556,0.0
160,1.5148890589838837,-0.7766742847751668,1.2573092062244484,1.60881811088735,0.889137845918829,0.03320249170064926,-0.010452842339873314,0.023001305758953094,0.03320249170064926,-0.010452842339873314,0.023001305758953094,0.0
161,-1.3018945100513104,-1.3226598668621585,0.2362299328219002,-0.9507185304124741,0.4965231563687631,0.021519390866160393,-0.07712281495332718,0.4385758340358734,0.021519390866160393,-0.07712281495332718,0.4385758340358734,0.0
162,-0.8698538668746925,-1.2556874498413866,0.9369056537120057,1.5401392272002712,2.781667253806039,0.11856476217508316,0.08964650332927704,0.0782335177063942,0.11856476217508316,0.08964650332927704,0.0782335177063942,0.0
163,1.4186244825663956,1.380832386065153,-0.6800988164820123,-0.032684216904133034,2.590414293485228,0.09230902045965195,-0.37807497382164,-0.06606490164995193,0.09230902045965195,-0.37807497382164,-0.06606490164995193,0.0
164,-0.8086626770917238,0.951776019142824,0.3713417561994632,-0.3736049819845093,2.5114724118676506,0.23177795112133026,0.1949435919523239,-0.09620846062898636,0.23177795112133026,0.1949435919523239,-0.09620846062898636,0.0
165,-1.6896595655492161,0.7785551203807795,-1.6391520711364713,-0.38767501531597603,-1.6333163819893628,-2.5545079552102834e-05,0.26046618819236755,0.4339824318885803,-2.5545079552102834e-05,0.26046618819236755,0.4339824318885803,0.0
166,-1.5979598479206836,1.3234651887305078,-0.012796458234551222,0.6028030212554072,-0.28632289961941204,0.03321230039000511,0.12541888654232025,-0.15945133566856384,0.03321230039000511,0.12541888654232025,-0.15945133566856384,0.0
167,1.1516307406372852,-1.2516283275631932,1.1232008231491677,-0.5148479845325771,-2.0297624402848884,0.12266591936349869,-0.1713523417711258,0.29937005043029785,0.12266591936349869,-0.1713523417711258,0.29937005043029785,0.0
168,-0.4219603682097919,-0.4523050674755298,-1.5278847712015227,0.4704513949867206,-2.2790564237653976,-0.006951556075364351,-0.014291893690824509,0.5110215544700623,-0.006951556075364351,-0.014291893690824509,0.5110215544700623,0.0
169,-1.621785741878251,0.6737309325709289,1.2371560747988268,-1.1311540381675036,-2.3439752627447925,0.023306502029299736,0.19907578825950623,-0.04974482208490372,0.023306502029299736,0.19907578825950623,-0.04974482208490372,0.0
170,-0.5671922968099994,-1.7012812974645686,1.3085530494056865,-1.407476717128093,-2.589587470486184,0.03251029923558235,0.0005040796822868288,0.33965203166007996,0.03251029923558235,0.0005040796822868288,0.33965203166007996,0.0
171,0.2839078713366363,-0.39104977428079235,-1.038355614920786,0.8754413031446135,0.6277823034615828,0.1969449520111084,-0.05101363733410835,0.44387367367744446,0.1969449520111084,-0.05101363733410835,0.44387367367744446,0.0
172,-0.15629111588586397,-0.4270232609665179,0.9234022243993949,-1.2924340881727452,-2.692508160058035,0.27207183837890625,0.03989439085125923,0.28979963064193726,0.27207183837890625,0.03989439085125923,0.28979963064193726,0.0
173,-1.4895993253892088,0.6227251825840603,-1.428060040258756,-1.6045214766744496,1.2586102046522614,0.053899135440588,0.09085404127836227,0.40089619159698486,0.053899135440588,0.09085404127836227,0.40089619159698486,0.0
174,-1.1535947774872843,-0.130108407595231,-0.8818550368259952,-0.4929006070435129,0.18705790094635733,0.09243712574243546,0.11727745085954666,0.5073549747467041,0.09243712574243546,0.11727745085954666,0.5073549747467041,0.0
175,0.962058514997707,0.5894569010479795,0.7609369893566238,1.0341923550587746,1.426345032147843,0.051842257380485535,-0.03260166570544243,-0.04429538920521736,0.051842257380485535,-0.03260166570544243,-0.04429538920521736,0.0
176,0.7136681892200007,1.313139442285303,0.9538901066821106,-0.7858664015250331,-0.9913836836224503,0.09900763630867004,-0.04347195848822594,-0.1475924849510193,0.09900763630867004,-0.04347195848822594,-0.1475924849510193,0.0
177,0.3499435366722534,-1.590435296075585,0.8458990289908024,0.6535285765683534,1.2259127580505926,0.19764022529125214,-0.06600231677293777,0.2492753118276596,0.19764022529125214,-0.06600231677293777,0.2492753118276596,0.0
178,0.7723825281880385,0.9389608162756717,0.16371626391244454,0.4073389030164638,-0.5768487004546028,0.18967661261558533,-0.14099927246570587,-0.11687864363193512,0.18967661261558533,-0.14099927246570587,-0.11687864363193512,0.0
179,0.8187156176505961,0.04582707608430803,0.2777245297278639,0.15798253122870443,0.302159028870415,0.2630167007446289,-0.24310646951198578,0.10933602601289749,0.2630167007446289,-0.24310646951198578,0.10933602601289749,0.0
180,1.125514379316399,0.9206011039509736,-0.7663142489844363,-0.571219103364988,-1.9562083149195733,0.2241329848766327,-0.3718148171901703,0.21420125663280487,0.2241329848766327,-0.3718148171901703,0.21420125663280487,0.0
181,1.2630910932663744,1.226728117412152,-0.5266942274611082,1.127196879649736,2.061615208006325,0.09719512611627579,-0.20748594403266907,-0.10964667052030563,0.09719512611627579,-0.20748594403266907,-0.10964667052030563,0.0
182,0.43743275220895494,-1.513004023165991,-1.1612627251720764,0.632266647808293,-2.183045818965253,-0.21181096136569977,0.12404800951480865,0.34693679213523865,-0.21181096136569977,0.12404800951480865,0.34693679213523865,0.0
183,0.0034864246636481244,0.8468837594975129,1.628754215688355,0.7856969591570511,-2.123035390392376,-0.0893201231956482,0.006907757371664047,0.09751203656196594,-0.0893201231956482,0.006907757371664047,0.09751203656196594,0.0
184,-0.6398351024504876,-1.2384898670953377,-1.5227142800133235,-0.24529284822574637,2.4869808169348433,-0.24101895093917847,-0.21467825770378113,0.24038219451904297,-0.24101895093917847,-0.21467825770378113,0.24038219451904297,0.0
185,1.9074580936889034,0.5365136917731803,-1.3921034646531767,-0.03781836139912098,1.2145314497981712,-0.06690661609172821,-0.27936071157455444,0.42654234170913696,-0.06690661609172821,-0.27936071157455444,0.42654234170913696,0.0
186,-1.6924304853176015,0.4014287201008968,0.16217089181566657,-0.8109303898897405,-2.1690477750162938,-0.01230012346059084,0.36673516035079956,0.1850399374961853,-0.01230012346059084,0.36673516035079956,0.1850399374961853,0.0
187,1.293479646512485,-0.72834351981565,-0.12094960844327818,-1.4306434131327608,1.5467805098827565,0.019612597301602364,0.038042791187763214,0.4450382590293884,0.019612597301602364,0.038042791187763214,0.4450382590293884,0.0
188,0.446211909681538,1.2332876610244732,-1.6110021405578827,0.9606213927749347,0.11430286222926211,0.39744266867637634,-0.17256440222263336,0.08782412111759186,0.39744266867637634,-0.17256440222263336,0.08782412111759186,0.0
189,-0.8276022298134798,-0.8960995937800101,-0.790805663193607,0.4834311708463368,1.4539289068479082,0.04296090081334114,-0.007342949043959379,0.4903879463672638,0.04296090081334114,-0.007342949043959379,0.4903879463672638,0.0
190,1.6495734582306745,-0.1641261861001182,1.3865975974617593,1.1740403169016431,1.2189148991388108,0.033558350056409836,0.02893255464732647,0.001363264978863299,0.033558350056409836,0.02893255464732647,0.001363264978863299,0.0
191,0.17620574921503662,-1.2275819445697367,-0.7086219887717182,-1.537431071943824,1.4051843544862157,-0.22862467169761658,0.039551444351673126,0.25446566939353943,-0.22862467169761658,0.039551444351673126,0.25446566939353943,0.0
192,-0.007632521575004825,0.7317917131892835,1.3590530360395618,-1.4128361668589364,-1.0299521422011757,0.2242550253868103,0.008098624646663666,-0.040939971804618835,0.2242550253868103,0.008098624646663666,-0.040939971804618835,0.0
193,1.732431387271168,0.35885748134841355,-0.13118683998899283,0.18913060491748945,0.7589627766220315,-0.02644709311425686,-0.36623960733413696,0.11697511374950409,-0.02644709311425686,-0.36623960733413696,0.11697511374950409,0.0
194,-1.8538434215686213,-0.10680252047140892,-0.15752579534084488,1.4692215595697917,-0.6849920492986197,-0.029163287952542305,0.21605727076530457,0.1209394782781601,-0.029163287952542305,0.21605727076530457,0.1209394782781601,0.0
195,0.15992216061493902,0.0892693804068907,1.1524797912808529,0.6819809579936071,1.9408241946404194,0.1011384055018425,-0.017751311883330345,-0.05010410025715828,0.1011384055018425,-0.017751311883330345,-0.05010410025715828,0.0
196,-1.6313576863172803,1.2280404571519918,-0.6287893180530704,1.6042034170639885,2.182600447355977,0.035300642251968384,0.16965749859809875,-0.07474388182163239,0.035300642251968384,0.16965749859809875,-0.07474388182163239,0.0
197,0.4316511793350277,0.6596240212594187,1.141426354123828,1.1832106304241476,2.456360769464183,-0.018365850672125816,0.020504960790276527,0.024983059614896774,-0.018365850672125816,0.020504960790276527,0.024983059614896774,0.0
198,0.26630865413176696,-0.06165782032810019,0.8118035074699437,1.2595987267472333,0.6296800906322355,0.11488313972949982,-0.02561173029243946,0.001140924752689898,0.11488313972949982,-0.02561173029243946,0.001140924752689898,0.0
199,1.3941592032941177,1.7105534053370155,-1.075489550584248,1.5893839880496239,1.70214465545694,0.05790553241968155,-0.1525438278913498,-0.12958374619483948,0.05790553241968155,-0.1525438278913498,-0.12958374619483948,0.0
200,0.6326060726165754,-0.5834545592089004,1.551110180618097,-1.2734907248776843,-2.365181820517119,0.22150611877441406,-0.12741948664188385,0.1712527871131897,0.22150611877441406,-0.12741948664188385,0.1712527871131897,0.0
201,1.9052223142757838,-0.7013256816273277,1.090865054280071,1.0247339464379912,0.9443451008321859,-0.008654930628836155,-0.11692871153354645,0.01622459851205349,-0.008654930628836155,-0.11692871153354645,0.01622459851205349,0.0
202,1.3290245373551377,-0.575521538898131,1.182579399092965,-1.089818029436973,0.9093044114456288,0.09250099956989288,-0.24397505819797516,0.22309434413909912,0.09250099956989288,-0.24397505819797516,0.22309434413909912,0.0
203,-0.7199965604949892,-1.4840284230234047,-0.022415641699436772,0.5252836765735773,0.8292417116982076,0.05568243935704231,0.006938606966286898,0.4185101091861725,0.05568243935704231,0.006938606966286898,0.4185101091861725,0.0
204,-0.4704593946269626,1.0117002882714656,1.2404165134901146,-0.5725521592547793,-1.220315778185887,0.07111915200948715,0.024608852341771126,-0.11349326372146606,0.07111915200948715,0.024608852341771126,-0.11349326372146606,0.0
205,-0.6559005408941054,-1.228725282062709,0.28787473395870644,-1.3440746880294447,0.4351751216606301,-0.03029092773795128,-0.057434771209955215,0.4178686738014221,-0.03029092773795128,-0.057434771209955215,0.4178686738014221,0.0
206,0.26808457172489897,0.4516133966515512,0.8035064635096307,0.6768812014355372,1.9622628082813556,0.13128729164600372,-0.03321940824389458,-0.07091908156871796,0.13128729164600372,-0.03321940824389458,-0.07091908156871796,0.0
207,-1.0797957981303918,-1.2314435670386825,1.2664374791267612,0.3373736585416738,-2.012783897350441,0.13562355935573578,0.19564510881900787,0.12631107866764069,0.13562355935573578,0.19564510881900787,0.12631107866764069,0.0
208,0.7335998410547528,1.0389691308076543,-0.08666860532156351,-1.4003134970457263,-2.6768703188498653,0.31172406673431396,-0.2416568100452423,0.1180650144815445,0.31172406673431396,-0.2416568100452423,0.1180650144815445,0.0
209,1.6224223203070078,1.2062500939688867,1.4028187055333352,0.19305705616072721,-0.7675380079533787,0.0504494234919548,0.11958114057779312,0.009836203418672085,0.0504494234919548,0.11958114057779312,0.009836203418672085,0.0
210,-1.5151681781241306,-1.344862665424779,0.8264414177481809,1.5198603941404059,2.179553829959379,0.052867185324430466,0.13051098585128784,0.10872052609920502,0.052867185324430466,0.13051098585128784,0.10872052609920502,0.0
211,-0.19525888730636587,1.0182656311189353,-0.9104381872099429,-0.9473037424956878,-2.3066572481439116,0.4084644615650177,0.07878203690052032,0.2646375298500061,0.4084644615650177,0.07878203690052032,0.2646375298500061,0.0
212,0.6947043792430825,-1.3377936038494207,0.8922570634614613,-0.04139513011274443,-2.394402087063856,0.18403849005699158,-0.11439425498247147,0.31239011883735657,0.18403849005699158,-0.11439425498247147,0.31239011883735657,0.0
213,1.4423891092156427,-1.144922346578731,-1.6379317279303836,0.8373334333336333,1.7103453964145006,-0.0008619899163022637,0.24476759135723114,0.3789335787296295,-0.0008619899163022637,0.24476759135723114,0.3789335787296295,0.0
214,1.6448400825730851,0.7068458766064758,-1.3228567315207993,-0.5185819370672746,1.201494914564781,0.009038625285029411,-0.3005163073539734,0.40924978256225586,0.009038625285029411,-0.3005163073539734,0.40924978256225586,0.0
215,0.7479426545372716,-0.9988667794032716,0.3959259476018686,-0.06375756782890618,0.5093697745406072,0.17438878118991852,-0.1310599446296692,0.37483417987823486,0.17438878118991852,-0.1310599446296692,0.37483417987823486,0.0
216,0.1179153133839157,0.8512858225953166,-0.4297325437659387,-0.21246831461648252,-2.5269634935369467,0.4523029029369354,-0.04470647871494293,0.09263221174478531,0.4523029029369354,-0.04470647871494293,0.09263221174478531,0.0
217,-0.2319082497132452,-1.710559452781846,1.3711674803679177,0.22451027193785666,1.961337264677578,0.23361025750637054,0.03824353590607643,0.1995461881160736,0.23361025750637054,0.03824353590607643,0.1995461881160736,0.0
218,1.0955652885588396,-0.861950639748814,-1.3908795856389427,0.7268473359866341,1.1059021591092972,-0.020191965624690056,0.09904947131872177,0.4714796841144562,-0.020191965624690056,0.09904947131872177,0.4714796841144562,0.0
219,0.09129975889837105,1.3638669009325608,1.5973251148473646,0.04260553160733127,1.637862641528022,-0.10443015396595001,0.005009686108678579,0.060773931443691254,-0.10443015396595001,0.005009686108678579,0.060773931443691254,0.0
220,1.738072488458727,-0.324909011976108,-1.144567039235722,0.30935060291991556,-1.0106426737477046,0.02923870086669922,-0.09650697559118271,0.5113212466239929,0.02923870086669922,-0.09650697559118271,0.5113212466239929,0.0
221,0.5926281782252616,1.739155057102412,1.5656742428391985,-0.7342799705235296,-2.2816920385110486,-0.06446430832147598,0.07643113285303116,-0.003582731820642948,-0.06446430832147598,0.07643113285303116,-0.003582731820642948,0.0
222,-0.06817391353441615,-1.315522611441037,0.14963877726085295,1.4693465885855461,-0.017271288112419736,0.16503505408763885,0.008742925710976124,0.24304048717021942,0.16503505408763885,0.008742925710976124,0.24304048717021942,0.0
223,-0.1603323934520593,-1.273528893483728,-1.6433916968781916,-0.5442269654330052,-0.3211060794398195,-0.3122091293334961,-0.05426723137497902,0.15837553143501282,-0.3122091293334961,-0.05426723137497902,0.15837553143501282,0.0
224,-0.3006106156641215,1.0110055576714703,-0.35777036328789547,0.8017677355809079,1.8287094068137915,0.30018293857574463,0.07279238849878311,-0.08315400779247284,0.30018293857574463,0.07279238849878311,-0.08315400779247284,0.0
225,-1.2305119454371662,-1.6130795233794817,-0.1780853732152936,-0.5909771750370447,2.131977482447323,-0.03340229019522667,-0.22487397491931915,0.37700048089027405,-0.03340229019522667,-0.22487397491931915,0.37700048089027405,0.0
226,-1.2654727832781991,1.283128050467068,1.0651841974837466,-0.1834029003878881,-0.1485889057405596,0.025640148669481277,-0.03801742568612099,-0.1056797206401825,0.025640148669481277,-0.03801742568612099,-0.1056797206401825,0.0
227,1.1430041180715778,0.4270957284274046,-0.696414362361352,0.1687646470462454,0.3949423420238385,0.19798268377780914,-0.35642433166503906,0.2570299804210663,0.19798268377780914,-0.35642433166503906,0.2570299804210663,0.0
228,0.5116191958376679,-0.43855792371606483,0.7007286891405338,0.38564255266546943,0.39123652021490374,0.26589640974998474,-0.1309724599123001,0.09850623458623886,0.26589640974998474,-0.1309724599123001,0.09850623458623886,0.0
229,1.6620044631978486,1.5844155121451,-1.658600192945008,-0.1354292412518816,0.29089662826013685,-0.002970481291413307,-0.43203625082969666,0.1279357522726059,-0.002970481291413307,-0.43203625082969666,0.1279357522726059,0.0
230,1.5646285970443738,1.6835086618083772,-0.6134711318652297,-0.7085781714957896,2.1981596804690593,0.034379664808511734,-0.35899677872657776,-0.0918203815817833,0.034379664808511734,-0.35899677872657776,-0.0918203815817833,0.0
231,-1.8421418276036636,0.3999604209923504,-0.7404948031719385,0.5911608510007877,0.07890013364819604,-0.06179937347769737,0.3640827238559723,0.21220825612545013,-0.06179937347769737,0.3640827238559723,0.21220825612545013,0.0
232,1.7876771688197013,1.2919530854613264,-0.6088119645656824,-0.5898550559286224,2.149169678328313,-0.05679178982973099,-0.4020024240016937,0.028875282034277916,-0.05679178982973099,-0.4020024240016937,0.028875282034277916,0.0
233,1.0652542578308193,-0.7833761708710519,-1.4662643529569532,-1.5836196605723785,-1.657061811500329,-0.07069563120603561,0.2137354612350464,0.21563498675823212,-0.07069563120603561,0.2137354612350464,0.21563498675823212,0.0
234,-0.15156153264813033,1.702984455397997,0.8877440126932323,0.43440320505059593,-0.8756901741309877,-0.09319740533828735,-0.014099660329520702,-0.014636706560850143,-0.09319740533828735,-0.014099660329520702,-0.014636706560850143,0.0
235,1.5437537617303958,0.7614911680722929,1.374739261316798,0.34820637457641745,-0.46033345080728916,0.04042554274201393,0.06996028125286102,-0.029651783406734467,0.04042554274201393,0.06996028125286102,-0.029651783406734467,0.0
236,0.45608474944535393,1.2042584953582889,0.8470247444744032,-1.1114621724116618,1.1167399625426833,0.19618633389472961,-0.08521731942892075,-0.12192606180906296,0.19618633389472961,-0.08521731942892075,-0.12192606180906296,0.0
237,-1.8810230379613928,-1.2167124468268482,1.1664784618966988,-0.9578325275877748,1.515256869676584,-0.0006418375414796174,0.14953377842903137,0.3282143473625183,-0.0006418375414796174,0.14953377842903137,0.3282143473625183,0.0
238,1.2909036539555294,0.9004825073098819,-1.609724500696608,0.5220295129589416,0.040195049615046496,0.14706286787986755,-0.37770596146583557,0.278263658285141,0.14706286787986755,-0.37770596146583557,0.278263658285141,0.0
239,1.662427042289047,-0.6300057992099253,-0.09712610738899796,1.651103814009739,-2.121003746622436,0.028498465195298195,-0.1832209676504135,0.19312381744384766,0.028498465195298195,-0.1832209676504135,0.19312381744384766,0.0
240,0.3398334139691892,0.703516366322646,-1.4156446112347678,0.16059806660021514,-0.5320281668544369,0.38186487555503845,-0.11706104874610901,0.3541226089000702,0.38186487555503845,-0.11706104874610901,0.3541226089000702,0.0
241,-1.1905699640446743,1.0568509037247167,-0.2797121833432237,-0.16457980226114488,-0.7672658729451136,0.1707722693681717,0.3447403013706207,-0.039438396692276,0.1707722693681717,0.3447403013706207,-0.039438396692276,0.0
242,-0.0006678039888430298,-0.151851686967454,-1.1431505628502747,1.1663144580373979,2.2323203090017163,0.26892369985580444,-0.006360175088047981,0.3884465992450714,0.26892369985580444,-0.006360175088047981,0.3884465992450714,0.0
243,-0.4723591736776782,0.0006372614859788683,-0.7841796632061192,0.11258221782705835,0.4703799339618371,0.2893730700016022,0.12395606935024261,0.42147085070610046,0.2893730700016022,0.12395606935024261,0.42147085070610046,0.0
244,1.3608190475485213,0.738240671775737,1.5909966866658882,-0.20186960376806806,-0.32301620736093506,0.03031051903963089,0.0519375316798687,-0.051747649908065796,0.03031051903963089,0.0519375316798687,-0.051747649908065796,0.0
245,1.6880947759487888,0.575835549507087,-0.8758856184682668,-0.8975608411843295,1.1376915339914064,-0.0039454312063753605,-0.3008590042591095,0.3876131474971771,-0.0039454312063753605,-0.3008590042591095,0.3876131474971771,0.0
246,0.46344100775045005,-1.0329472678737486,-0.6052228104128377,0.7864761890455936,-0.17897855186047051,0.07927136868238449,-0.018651096150279045,0.4472596347332001,0.07927136868238449,-0.018651096150279045,0.4472596347332001,0.0
247,-1.4834231289837538,1.7189140488850652,-0.464147474381571,-1.2762695304457174,0.3696446959175175,0.0717017725110054,0.3422616124153137,-0.058309584856033325,0.0717017725110054,0.3422616124153137,-0.058309584856033325,0.0
248,-0.9758268316965986,0.049146825379429826,-1.609770621480397,-0.7520350197881106,-1.036307041277122,0.008252793923020363,-0.033224426209926605,0.4826107919216156,0.008252793923020363,-0.033224426209926605,0.4826107919216156,0.0
249,0.09344582250661748,1.7049122073234737,-1.4762194017794705,-0.4667912152954212,0.45737337259136845,0.4638490080833435,-0.04336176812648773,0.07887652516365051,0.4638490080833435,-0.04336176812648773,0.07887652516365051,0.0
250,1.5080083827896753,1.686102180414113,-0.799149220090697,1.4568263321400543,-1.301040001993298,0.05356227979063988,-0.11498373001813889,-0.1380700021982193,0.05356227979063988,-0.11498373001813889,-0.1380700021982193,0.0
251,1.440701147813979,0.6513801372802157,0.5776409304668197,1.3649915969742945,0.7561967222905017,0.037559062242507935,-0.032469600439071655,-0.014102580957114697,0.037559062242507935,-0.032469600439071655,-0.014102580957114697,0.0
252,1.0543029838478528,-0.26213640741090694,1.3618389975348522,0.16453609538941194,1.9441136721539358,0.10372952371835709,-0.12964574992656708,-0.03624628856778145,0.10372952371835709,-0.12964574992656708,-0.03624628856778145,0.0
253,0.7722516495836502,0.38573971046270117,-0.25621770905580843,0.8831097423356054,2.4848506420102243,0.26641175150871277,-0.22883349657058716,0.0662955641746521,0.26641175150871277,-0.22883349657058716,0.0662955641746521,0.0
254,1.2448099343090413,1.279862515137343,-0.05460433605223902,1.5805901861934204,0.02666003573642639,0.05268852785229683,-0.04167131707072258,-0.048098087310791016,0.05268852785229683,-0.04167131707072258,-0.048098087310791016,0.0
255,-0.16004467358964614,-0.6412586305711172,-0.3278049136788528,0.8119224241579233,-2.061694059289005,0.2492598593235016,0.040767423808574677,0.366449236869812,0.2492598593235016,0.040767423808574677,0.366449236869812,0.0
256,-0.8397652260662565,-0.35179275128012866,-0.1139470190534968,-0.4465775033591337,-0.6214300837578199,0.19469112157821655,0.18062399327754974,0.4192177355289459,0.19469112157821655,0.18062399327754974,0.4192177355289459,0.0
257,-0.18985655282050096,-1.2797159124608206,-0.6566205417338606,0.40556445940113517,-0.9116724024398928,-0.07173051685094833,-0.014965803362429142,0.45876801013946533,-0.07173051685094833,-0.014965803362429142,0.45876801013946533,0.0
258,-1.4556630121245833,-0.2949661468215532,-1.0657034135701005,-0.15983361469620383,0.7916609475031202,0.05150848627090454,0.06012491136789322,0.524206817150116,0.05150848627090454,0.06012491136789322,0.524206817150116,0.0
259,-1.6954170446872454,-1.6341960115624272,-0.6621190209745835,-1.1363681125334524,-0.07386712065656775,0.07952544093132019,-0.3294023871421814,0.19672398269176483,0.07952544093132019,-0.3294023871421814,0.19672398269176483,0.0
260,1.7767086117547906,1.499673204408674,-0.4559398179548928,0.2758139651528051,2.4276422615025295,-0.020152300596237183,-0.25562742352485657,-0.1700771152973175,-0.020152300596237183,-0.25562742352485657,-0.1700771152973175,0.0
261,0.7476488209675409,-1.2035196365326328,-0.12363548234883415,0.2668675864302017,-1.4785692205362733,0.07427014410495758,-0.02234830893576145,0.45397475361824036,0.07427014410495758,-0.02234830893576145,0.45397475361824036,0.0
262,-1.3916685170723968,1.1142746985510215,0.42404592406175334,0.3008523202826865,0.03233695396763636,0.057541411370038986,0.10181775689125061,-0.14500008523464203,0.057541411370038986,0.10181775689125061,-0.14500008523464203,0.0
263,-1.2337460402403218,-1.535892479602757,0.6629123486608135,0.2644835067131528,-1.5016549832567152,0.07534874975681305,0.127533420920372,0.34592822194099426,0.07534874975681305,0.127533420920372,0.34592822194099426,0.0
264,0.9047487656362043,-0.8417732507256197,-1.1126877833387445,1.2082800780635188,-0.40881816191166465,0.06079220771789551,-0.02289794571697712,0.438431978225708,0.06079220771789551,-0.02289794571697712,0.438431978225708,0.0
265,0.15078342028286995,0.20382711537718157,1.2456911350854112,0.845344289120239,-2.4846773139936493,0.04087153449654579,0.004258378874510527,-0.0356006920337677,0.04087153449654579,0.004258378874510527,-0.0356006920337677,0.0
266,1.3385720525921787,0.3775194992108766,-1.0937583739808066,-1.5484221695634286,1.5646792835406886,0.052745893597602844,-0.09391764551401138,0.4259607195854187,0.052745893597602844,-0.09391764551401138,0.4259607195854187,0.0
267,1.7075558022275144,1.3312825076223795,0.3970106627538179,-1.0202365988302378,-1.7900711255946025,0.011833759024739265,-0.25121650099754333,-0.1200670450925827,0.011833759024739265,-0.25121650099754333,-0.1200670450925827,0.0
268,1.5771711416530567,-0.06231546291338885,-0.6559304116508489,1.5850165813942796,-1.313959012692634,0.04474256932735443,-0.2511897385120392,0.200818732380867,0.04474256932735443,-0.2511897385120392,0.200818732380867,0.0
269,-0.7480995676434143,1.436867528303634,-0.7083061576572091,-1.3071299967226704,-0.43336974447856536,0.32026657462120056,0.2656770646572113,0.09907233715057373,0.32026657462120056,0.2656770646572113,0.09907233715057373,0.0
270,-0.8069875352274423,-1.2947687122487646,-0.4526973341592171,0.8793584450549881,-0.14833477433448783,0.044738952070474625,0.007833079434931278,0.42257919907569885,0.044738952070474625,0.007833079434931278,0.42257919907569885,0.0
271,-0.05851663005733965,0.5131310434973391,1.6388714530912054,1.3146988453004276,1.0846792000767502,-0.06988784670829773,-0.013468101620674133,0.13981853425502777,-0.06988784670829773,-0.013468101620674133,0.13981853425502777,0.0
272,0.2722073267997942,-0.18977514598265066,1.2710321517207346,0.6551793936363872,-2.077177689460945,0.11994458734989166,-0.01573408767580986,-0.04188399389386177,0.11994458734989166,-0.01573408767580986,-0.04188399389386177,0.0
273,0.05557191160107955,-0.4273432765873788,-0.3900085752308642,0.4916532406527383,-2.4109282517761095,0.2853938937187195,-0.008736053481698036,0.3892255127429962,0.2853938937187195,-0.008736053481698036,0.3892255127429962,0.0
274,-0.8270234448970173,-1.6281645157026396,-1.5551738306566119,-1.291654497702076,-0.8679141944227831,-0.14188618957996368,-0.18763116002082825,-0.026317300274968147,-0.14188618957996368,-0.18763116002082825,-0.026317300274968147,0.0
275,0.4850988651386823,-0.5092694838181091,-0.37220279908899045,1.6352411148960215,-1.7796146189575541,0.2184506207704544,-0.08617792278528214,0.22828195989131927,0.2184506207704544,-0.08617792278528214,0.22828195989131927,0.0
276,-0.102232514397262,0.3017153743538752,-0.7458790851910363,-0.5824055074056571,0.8478329899175159,0.33507591485977173,0.024368776008486748,0.41187989711761475,0.33507591485977173,0.024368776008486748,0.41187989711761475,0.0
277,0.36684594294581574,1.6170030210314077,0.8324563565736556,-0.16825011429179493,1.832037684152974,-0.02129381150007248,0.014690487645566463,-0.12859895825386047,-0.02129381150007248,0.014690487645566463,-0.12859895825386047,0.0
278,-0.2260611045063705,0.438876385457466,-0.8704191040039576,-0.714378679945929,-1.4980507868649051,0.31967058777809143,0.07250723987817764,0.41265520453453064,0.31967058777809143,0.07250723987817764,0.41265520453453064,0.0
279,0.9722141915606657,0.7605754080866514,-1.5046746900514212,0.5600860008094342,-0.23001639989449219,0.2555283010005951,-0.3145315945148468,0.2956526577472687,0.2555283010005951,-0.3145315945148468,0.2956526577472687,0.0
280,-0.2508312894546887,0.07546728324811425,-1.5790252046234925,1.1811916053537195,1.5048420694116,0.2558128535747528,0.04728543013334274,0.4114777445793152,0.2558128535747528,0.04728543013334274,0.4114777445793152,0.0
281,1.5044570127214367,-0.6433628112659571,0.7478918310331308,0.37264943207779333,2.113784717777988,0.04927360266447067,-0.2631155550479889,0.1449292004108429,0.04927360266447067,-0.2631155550479889,0.1449292004108429,0.0
282,-0.7312344273286024,1.5693277571530806,-0.7852546339291057,1.1826570904818887,0.48573073896915053,0.17103633284568787,0.1136089637875557,-0.14699898660182953,0.17103633284568787,0.1136089637875557,-0.14699898660182953,0.0
283,0.267681638227498,1.144289892036627,1.2037675493871838,0.20824758857160397,1.8832090429280743,-0.0383441224694252,0.013133663684129715,-0.05198679864406586,-0.0383441224694252,0.013133663684129715,-0.05198679864406586,0.0
284,0.8606818250305963,-1.4708321668897375,0.925624467487943,-1.4839645296046589,1.689058174914801,0.008409880101680756,0.023050596937537193,0.37254980206489563,0.008409880101680756,0.023050596937537193,0.37254980206489563,0.0
285,-1.4352453017132532,-1.6880430004788012,-0.5399615255131254,1.5720796169974018,0.3471176629823489,0.036053139716386795,-0.04044688493013382,0.32604196667671204,0.036053139716386795,-0.04044688493013382,0.32604196667671204,0.0
286,0.7526866177309643,-1.5458458301636044,-0.10209180883943292,1.0103887064639026,-1.3365535626688323,0.06729486584663391,-0.01631672866642475,0.3749310374259949,0.06729486584663391,-0.01631672866642475,0.3749310374259949,0.0
287,1.8276626636849427,-0.3643876812554385,0.5484555935189435,0.7081293824607517,-0.8514464673110413,-0.017978966236114502,-0.23943069577217102,0.08503840863704681,-0.017978966236114502,-0.23943069577217102,0.08503840863704681,0.0
288,-1.683018940422111,-1.149594827726296,0.22362834719064706,0.009050402213761632,1.0731318669472412,0.032839976251125336,0.11606364697217941,0.42311638593673706,0.032839976251125336,0.11606364697217941,0.42311638593673706,0.0
289,1.6963650483528205,-0.974662571636804,-0.05002932122147441,-0.9904887881985537,-1.3724268325416429,0.05246459320187569,0.04727424681186676,0.46531370282173157,0.05246459320187569,0.04727424681186676,0.46531370282173157,0.0
290,-0.49888301945092284,-0.8678487259843036,-0.2450299028613685,0.32001852613736803,0.4937563836357408,0.1586144119501114,0.06096232309937477,0.4425261914730072,0.1586144119501114,0.06096232309937477,0.4425261914730072,0.0
291,0.6414750107449758,0.6655920420169541,-1.0260074677588946,-0.5376974185433632,2.618171170948206,0.30890217423439026,-0.20702555775642395,0.36904409527778625,0.30890217423439026,-0.20702555775642395,0.36904409527778625,0.0
292,-0.9597484789204882,0.11590314993551765,0.08486978857908767,-0.1424920110257808,-2.4125145987956973,0.24346959590911865,0.30078670382499695,0.20009015500545502,0.24346959590911865,0.30078670382499695,0.20009015500545502,0.0
293,0.1543151607828488,-1.4829376212613257,0.5135711150808291,1.4109059523190586,1.2689759220669066,0.17169171571731567,-0.028429962694644928,0.19823068380355835,0.17169171571731567,-0.028429962694644928,0.19823068380355835,0.0
294,1.696947300349347,-0.18321026823602105,-1.3921459727426688,0.5683404873979321,-2.6883031602954053,0.028025053441524506,-0.11014492809772491,0.5056827068328857,0.028025053441524506,-0.11014492809772491,0.5056827068328857,0.0
295,-0.5404419663771116,0.4658040680698603,-1.4747057602514162,-0.24824715993771185,0.056378572815512396,0.2363646775484085,0.11799190938472748,0.4705536961555481,0.2363646775484085,0.11799190938472748,0.4705536961555481,0.0
296,1.9041403022389503,-1.3857393156044295,-0.2632868590457276,0.43998800511113045,-0.8479621390131069,0.05408836156129837,0.02614644542336464,0.4460320472717285,0.05408836156129837,0.02614644542336464,0.4460320472717285,0.0
297,-1.6902981915323652,1.074314851616034,0.809597001345725,1.4064458526997299,1.4278758859764498,0.05285336822271347,-0.04985202103853226,0.040534570813179016,0.05285336822271347,-0.04985202103853226,0.040534570813179016,0.0
298,-0.8338036975437839,-0.5252544122420741,0.65959843501467,0.5927289322829414,1.2073900478247488,0.21210519969463348,0.17974933981895447,0.10707002878189087,0.21210519969463348,0.17974933981895447,0.10707002878189087,0.0
299,1.0466087934111399,-0.07266996125096692,0.36845952333864496,-0.017979531927656556,2.6834696860780882,0.2035774141550064,-0.2925851345062256,0.15963327884674072,0.2035774141550064,-0.2925851345062256,0.15963327884674072,0.0
300,-0.26443514724642525,-1.542570105589463,-1.0656536055874364,-1.3290167757848796,-0.2712644557379398,-0.2676730751991272,-0.0808216854929924,0.10343224555253983,-0.2676730751991272,-0.0808216854929924,0.10343224555253983,0.0
301,1.755265121406409,-1.3220963971596527,1.4145450401669843,-1.181419312634296,1.166475604814209,0.005967436823993921,-0.13594168424606323,0.30375897884368896,0.005967436823993921,-0.13594168424606323,0.30375897884368896,0.0
302,1.3549701249650168,-0.4739339694431617,1.2558184396068555,1.4079027060199778,-0.6525686206955292,0.04474297910928726,-0.0047531272284686565,0.012076416984200478,0.04474297910928726,-0.0047531272284686565,0.012076416984200478,0.0
303,-1.1144740226129124,1.6154896289710177,-0.017369138874991696,0.009683083527364689,-1.3843155558728426,0.09189281612634659,0.1253771334886551,-0.21046270430088043,0.09189281612634659,0.1253771334886551,-0.21046270430088043,0.0
304,-0.40474619128499767,-0.9047466769231045,-1.0133476695704842,-1.338437745965801,0.7265693824016521,-0.18931923806667328,-0.10351159423589706,0.32096099853515625,-0.18931923806667328,-0.10351159423589706,0.32096099853515625,0.0
305,-1.0710321036217016,0.952621752791666,-1.5367440082580104,0.9549435666004784,2.2976176969968582,0.23513735830783844,0.34661227464675903,0.1848309189081192,0.23513735830783844,0.34661227464675903,0.1848309189081192,0.0
306,-1.3029654824523689,0.8192807638330626,0.44878461322119856,-1.4906333976565003,2.512224942247867,0.1311778426170349,0.31774911284446716,0.08706652373075485,0.1311778426170349,0.31774911284446716,0.08706652373075485,0.0
307,1.6081862118526034,-1.6677448239211852,-0.8994108069043049,0.6085452181458255,-0.7528677462593112,0.05372380092740059,0.2550303637981415,0.3520464301109314,0.05372380092740059,0.2550303637981415,0.3520464301109314,0.0
308,0.6887577043634776,-0.871510645057148,-1.2870501301051247,-1.17915468949029,2.3233014661083633,-0.1750139445066452,0.16820025444030762,0.28365805745124817,-0.1750139445066452,0.16820025444030762,0.28365805745124817,0.0
309,0.45655729378101384,1.113305251833944,1.665435244291313,-0.562038732481918,1.6205336485501753,-0.03309536725282669,0.026330744847655296,-0.03882990777492523,-0.03309536725282669,0.026330744847655296,-0.03882990777492523,0.0
310,1.8905048643949822,-1.0545138247093175,-1.6114061768914605,0.3321637153586283,1.1869431225065,0.12095479667186737,0.27172762155532837,0.37091362476348877,0.12095479667186737,0.27172762155532837,0.37091362476348877,0.0
311,-0.9535519331508229,-1.6806585355403203,0.16357669870027935,1.27240665097597,2.2441106280180687,0.08508605509996414,0.05400604382157326,0.31029948592185974,0.08508605509996414,0.05400604382157326,0.31029948592185974,0.0
312,-0.2446586438667584,-1.6269765142016561,-0.8262618770998064,-1.5015827778687845,-2.63041813030962,-0.24862432479858398,-0.06811797618865967,0.09944383800029755,-0.24862432479858398,-0.06811797618865967,0.09944383800029755,0.0
313,-0.7210883332872131,0.19182880034357064,1.340048457373435,-1.3469639488741338,1.59619027191391,0.2291705310344696,0.15654747188091278,0.05793052539229393,0.2291705310344696,0.15654747188091278,0.05793052539229393,0.0
314,-1.3390340660660436,1.353047144578885,1.0657561494281995,-0.3581041920180137,-1.603085126617722,0.02537369355559349,-0.023455355316400528,-0.12025060504674911,0.02537369355559349,-0.023455355316400528,-0.12025060504674911,0.0
315,-0.8869066005993143,-1.4430926912036737,1.1475244348085294,0.6957507318024236,-2.5947762215645658,0.1617279350757599,0.15676537156105042,0.14724084734916687,0.1617279350757599,0.15676537156105042,0.14724084734916687,0.0
316,0.6127964705308853,0.29668575597160185,0.08491547372867658,-1.6417431126042357,1.8945862170439556,0.25007036328315735,-0.15795448422431946,0.3229803144931793,0.25007036328315735,-0.15795448422431946,0.3229803144931793,0.0
317,0.3136801122398203,-1.617616093999132,1.4641028515852161,-0.39517210220029364,0.6753079819597492,0.2163947969675064,-0.06284051388502121,0.2427644431591034,0.2163947969675064,-0.06284051388502121,0.2427644431591034,0.0
318,1.2862018074063455,1.3843491062505997,-0.8738361663180727,-0.7243290277565018,2.8003550424202572,0.1540370136499405,-0.40440407395362854,0.08958212286233902,0.1540370136499405,-0.40440407395362854,0.08958212286233902,0.0
319,-0.3838477220323253,-1.699428522742446,-0.6665614092354937,-1.4956289473152866,-2.0711819287829556,-0.24359528720378876,-0.10687164962291718,0.1127091571688652,-0.24359528720378876,-0.10687164962291718,0.1127091571688652,0.0
320,-0.9375124139875619,1.378396091436473,0.01380611720315894,0.44141290522358756,0.801311303371675,0.1195264533162117,0.10021794587373734,-0.1734888255596161,0.1195264533162117,0.10021794587373734,-0.1734888255596161,0.0
321,0.08423974067649631,0.5461284550356451,1.2382149388038655,0.24680442903068167,1.221186435374551,0.05412673205137253,-0.008861370384693146,-0.07606428861618042,0.05412673205137253,-0.008861370384693146,-0.07606428861618042,0.0
322,0.3940100585642283,0.543667067708129,-0.36817484608490836,0.7874746827575498,-1.078822404267857,0.3501729369163513,-0.12200139462947845,0.04726790264248848,0.3501729369163513,-0.12200139462947845,0.04726790264248848,0.0
323,-1.656400118830505,-1.0289864773219786,0.8954427783454073,-1.1232727945628012,-0.7913101282779917,0.02168939635157585,0.13476960361003876,0.37152063846588135,0.02168939635157585,0.13476960361003876,0.37152063846588135,0.0
324,1.1079374837247107,0.8120638980657264,-0.12281001020123172,-0.8125355875786913,2.604196595739068,0.21173210442066193,-0.3562476336956024,0.11818210780620575,0.21173210442066193,-0.3562476336956024,0.11818210780620575,0.0
325,-0.7117010024273158,-1.5953922636615356,-1.060586591755424,-0.6582474053862127,0.209857218920404,-0.2347722202539444,-0.2381802797317505,0.18048261106014252,-0.2347722202539444,-0.2381802797317505,0.18048261106014252,0.0
326,-0.16403123374994455,1.6050377114395973,-1.2580071484627333,-1.478729890973924,-0.9619991488100088,0.37542420625686646,0.062199968844652176,0.1860327273607254,0.37542420625686646,0.062199968844652176,0.1860327273607254,0.0
327,1.7356714598120577,0.429383789426407,1.2707070035061605,1.3177416193892746,1.7836272823031285,0.04205908626317978,0.06772841513156891,0.0516991950571537,0.04205908626317978,0.06772841513156891,0.0516991950571537,0.0
328,-0.13962416526694632,-0.3465422431209053,0.42799292887953344,-0.8418301984578225,2.6846704301269284,0.3007086217403412,0.03295382112264633,0.34101948142051697,0.3007086217403412,0.03295382112264633,0.34101948142051697,0.0
329,-1.1891053547528885,-1.415341450315987,-0.12195468341672644,-0.3022402776041164,1.5835487767015728,0.0018698746571317315,-0.11379271000623703,0.45021867752075195,0.0018698746571317315,-0.11379271000623703,0.45021867752075195,0.0
330,1.5145671417082913,0.028591477296053158,-1.0482838743553955,-1.0065486626924125,-1.2358679653047293,0.04953349381685257,-0.05945885181427002,0.4900434613227844,0.04953349381685257,-0.05945885181427002,0.4900434613227844,0.0
331,0.21481714236689076,0.6957097499200606,-1.593669082401924,-0.4927117822137117,2.352271602265855,0.25956636667251587,-0.054202135652303696,0.45143017172813416,0.25956636667251587,-0.054202135652303696,0.45143017172813416,0.0
332,-0.9766642489460078,-1.2669324773528936,-0.4202844728602291,0.017505026731474693,-1.7243718831939683,-0.027118679136037827,-0.08404549211263657,0.468694806098938,-0.027118679136037827,-0.08404549211263657,0.468694806098938,0.0
333,0.4960615102134076,0.38914453481944333,1.291170093275412,0.3238747035936993,0.21079543868828665,0.05169741436839104,-0.008857053704559803,-0.06577672809362411,0.05169741436839104,-0.008857053704559803,-0.06577672809362411,0.0
334,-0.11493704975864305,-0.9013114365611768,0.24694717884226347,-0.5690743783993346,-1.996584602299564,0.15164853632450104,0.02001911588013172,0.4455285668373108,0.15164853632450104,0.02001911588013172,0.4455285668373108,0.0
335,-0.18001086570383773,1.3570083698235065,-0.3491381656544268,1.20598456387597,1.8788590206277842,0.16718553006649017,0.015473853796720505,-0.1269545555114746,0.16718553006649017,0.015473853796720505,-0.1269545555114746,0.0
336,-0.7463466678346027,-1.110421250524127,1.2242572669303629,-1.109142205790116,-1.520776624043279,0.15359707176685333,0.1166500598192215,0.31499677896499634,0.15359707176685333,0.1166500598192215,0.31499677896499634,0.0
337,-1.9159957122655293,1.0829016666280675,0.7316502897040249,-1.2317734553826623,-0.6492808987736001,-0.04851853474974632,0.2289317548274994,-0.08033005148172379,-0.04851853474974632,0.2289317548274994,-0.08033005148172379,0.0
338,0.921738026265865,-0.25364217402124445,1.3933973219021567,0.2789092973475833,-2.7041984524956195,0.11475144326686859,-0.09506296366453171,-0.04408688843250275,0.11475144326686859,-0.09506296366453171,-0.04408688843250275,0.0
339,-1.71387360807829,1.5233349441568818,-1.2304234672561751,-1.4928153734377625,0.8847829331466932,-0.003142813453450799,0.3347568213939667,0.20654110610485077,-0.003142813453450799,0.3347568213939667,0.20654110610485077,0.0
340,0.1137232148509768,0.5838768549168099,-1.352245009523326,-0.13099136861428207,0.6535848551833627,0.3495101034641266,-0.040364090353250504,0.4132739305496216,0.3495101034641266,-0.040364090353250504,0.4132739305496216,0.0
341,-0.9875002823253212,-0.19381398598357769,0.4777917575105617,1.2519295889075017,-0.02393151400720761,0.1294606328010559,0.13765926659107208,0.04024562984704971,0.1294606328010559,0.13765926659107208,0.04024562984704971,0.0
342,-1.656747386734428,-0.9997137107897821,-1.5702845185910308,1.3764328376752826,-2.092157014970401,0.041762515902519226,-0.11074342578649521,0.41914403438568115,0.041762515902519226,-0.11074342578649521,0.41914403438568115,0.0
343,-0.9438982282396375,1.3679743464584737,0.9799238481875658,1.4833462938205726,1.9778818003252878,0.004244759678840637,-0.060536324977874756,0.1110418364405632,0.004244759678840637,-0.060536324977874756,0.1110418364405632,0.0
344,1.2290930062282697,1.2278292973723706,1.1642165760666887,0.9091003235497463,-0.8468463049327852,0.00890656653791666,0.10161402076482773,0.06271253526210785,0.00890656653791666,0.10161402076482773,0.06271253526210785,0.0
345,1.9020198105938353,1.7069017103898987,0.26978967879550875,0.04055599572571866,1.2997818592770942,0.025383371859788895,-0.015297739766538143,-0.1950458586215973,0.025383371859788895,-0.015297739766538143,-0.1950458586215973,0.0
346,-0.0413166899554851,1.1922632047855939,0.820817581514032,-1.502538217246654,-2.05420617819009,0.27145683765411377,0.016365116462111473,-0.06643421947956085,0.27145683765411377,0.016365116462111473,-0.06643421947956085,0.0
347,-0.5771060033091522,0.357528383932773,1.3799327203669276,-0.20173757877669818,-2.5160529953939808,0.11262182146310806,0.05318659916520119,-0.0805416852235794,0.11262182146310806,0.05318659916520119,-0.0805416852235794,0.0
348,0.36066242456201314,1.4807187440973046,1.4154731712108077,0.7494977172523336,-0.608281961524741,-0.07270704954862595,0.04685022309422493,0.14352580904960632,-0.07270704954862595,0.04685022309422493,0.14352580904960632,0.0
349,1.5863191898303075,1.2931879765049952,-1.0190827876179123,-0.18968794726558103,0.6318924591451953,0.027365075424313545,-0.4355933964252472,0.06913653016090393,0.027365075424313545,-0.4355933964252472,0.06913653016090393,0.0
350,1.5125236208299468,-1.1224493693428355,-1.522810450472973,-1.435371264826315,1.6633928610699353,0.01485343649983406,0.2726499140262604,0.12146778404712677,0.01485343649983406,0.2726499140262604,0.12146778404712677,0.0
351,1.7822859629869532,-0.7591860402376472,1.6668297965374732,-0.4293582065083936,-1.3031304940839614,0.003996592015028,-0.19793641567230225,0.039425380527973175,0.003996592015028,-0.19793641567230225,0.039425380527973175,0.0
352,0.38857209351116095,1.090834010406975,-1.0411415431070048,-1.4556057374220048,-0.4422426341151011,0.3281802535057068,-0.11482781171798706,0.2981429398059845,0.3281802535057068,-0.11482781171798706,0.2981429398059845,0.0
353,1.7065867364622447,-1.4138890046615094,-0.6051179479176492,0.7788475565291775,-0.709161273703625,0.05502297356724739,0.08084982633590698,0.42985999584198,0.05502297356724739,0.08084982633590698,0.42985999584198,0.0
354,-1.4180767000951127,0.3868238343709125,-0.4768865121279042,0.6566520839510674,0.39277929757396635,0.09707912802696228,0.35838720202445984,0.13592411577701569,0.09707912802696228,0.35838720202445984,0.13592411577701569,0.0
355,0.9849926777280431,-1.262213879606109,-1.2844904748649004,-0.6325829193223966,-0.7854375255373867,-0.145813450217247,0.28829047083854675,0.2482234239578247,-0.145813450217247,0.28829047083854675,0.2482234239578247,0.0
356,-1.6555869075424903,-0.36616954340051366,-0.16088154537436106,-1.4766996958311096,-1.8080969876452722,0.02618369273841381,0.060722772032022476,0.4477676749229431,0.02618369273841381,0.060722772032022476,0.4477676749229431,0.0
357,0.6919572968666552,-1.2625180256798092,0.4388053176936877,0.005717662429365555,-0.9096213092075174,0.14424243569374084,-0.07934227585792542,0.3929150700569153,0.14424243569374084,-0.07934227585792542,0.3929150700569153,0.0
358,-0.5373174996220555,0.05083376703621134,0.5687381070995752,0.4119445921507785,-2.2110830816594618,0.26155194640159607,0.13974721729755402,0.019364630803465843,0.26155194640159607,0.13974721729755402,0.019364630803465843,0.0
359,0.5465449420638993,-1.139480923517688,1.1252257094177645,0.8986878623551469,2.352170235831103,0.18935526907444,-0.09848035126924515,0.07649996876716614,0.18935526907444,-0.09848035126924515,0.07649996876716614,0.0
360,-1.1645312912412735,-1.547951211498616,0.0054622878704275735,0.31642893139130845,1.7095882559999422,0.03437420725822449,-0.030680673196911812,0.4323299527168274,0.03437420725822449,-0.030680673196911812,0.4323299527168274,0.0
361,-0.380571995256493,0.8293325023357223,-0.9480401046461098,0.4947849183184523,2.837710264823305,0.42654961347579956,0.15220899879932404,0.14160358905792236,0.42654961347579956,0.15220899879932404,0.14160358905792236,0.0
362,-0.6050251364652004,-0.6288727355496606,0.6697342073468269,0.2105180022460056,-1.4736197740668997,0.2613759934902191,0.16326244175434113,0.18360276520252228,0.2613759934902191,0.16326244175434113,0.18360276520252228,0.0
363,0.7911617143141432,0.8308284682159948,0.9251241485613213,-0.9207587369719993,-2.0635570792882176,0.19996589422225952,-0.1534591019153595,-0.0771755650639534,0.19996589422225952,-0.1534591019153595,-0.0771755650639534,0.0
364,-0.24184062778129123,1.0686323336721402,-1.028796398904983,0.6136249229209281,-1.3814957106038719,0.42844727635383606,0.10394974797964096,0.048213206231594086,0.42844727635383606,0.10394974797964096,0.048213206231594086,0.0
365,1.0627742005782452,-1.5959636807290853,-0.5157999635924482,-1.532508219089155,1.8941564423149364,-0.11149512976408005,0.25412821769714355,0.17594429850578308,-0.11149512976408005,0.25412821769714355,0.17594429850578308,0.0
366,-0.24676968541782407,0.44268931324708793,0.9372518859082488,1.458283381764241,2.7717356933919755,0.0249174777418375,-0.006794577464461327,0.020319439470767975,0.0249174777418375,-0.006794577464461327,0.020319439470767975,0.0
367,1.4683445024669792,-1.6681301819816106,-0.8829416580302071,-1.2660112661469491,-2.6913679176435696,0.00929504819214344,0.31772106885910034,0.09914978593587875,0.00929504819214344,0.31772106885910034,0.09914978593587875,0.0
368,1.0049131042218118,0.8342808486394024,0.6324841027086303,-0.3246942594011639,-2.0113900475965867,0.16324526071548462,-0.18299826979637146,-0.10551198571920395,0.16324526071548462,-0.18299826979637146,-0.10551198571920395,0.0
369,-1.8657862879767968,-1.7375995484927946,1.210574436574079,-0.10163999440739202,0.7541747608452245,-0.0027318543288856745,0.15559619665145874,0.28675249218940735,-0.0027318543288856745,0.15559619665145874,0.28675249218940735,0.0
370,-1.638093615952078,0.8994576971308335,1.101254998684571,1.652304540191466,-0.3443597265043441,0.03960999473929405,-0.05084685981273651,0.12427254766225815,0.03960999473929405,-0.05084685981273651,0.12427254766225815,0.0
371,-1.8492709190033838,-1.3729187402052156,-1.100367483489865,1.5535959396229015,-2.653132526038535,0.061060234904289246,-0.0900418758392334,0.37662169337272644,0.061060234904289246,-0.0900418758392334,0.37662169337272644,0.0
372,0.792328522959934,-0.8684479868404631,0.3886562428440876,1.18380758629526,0.9492344286278454,0.1733325868844986,-0.14563558995723724,0.17090106010437012,0.1733325868844986,-0.14563558995723724,0.17090106010437012,0.0
373,1.900679787129377,-1.4265124249006529,-1.0426992866555964,0.674983344020663,2.1906248429082416,0.10549694299697876,0.21539698541164398,0.3947316110134125,0.10549694299697876,0.21539698541164398,0.3947316110134125,0.0
374,-0.7233269817065668,0.6979370745370028,-0.9986663908034908,0.25012499369157903,-2.2901656283844245,0.3426184356212616,0.2757803499698639,0.24316087365150452,0.3426184356212616,0.2757803499698639,0.24316087365150452,0.0
375,-1.5532175552154441,1.6524327132038352,-0.5688696196728389,-0.33017265909526405,-0.7890468696127328,0.03892019763588905,0.32052192091941833,-0.1501556932926178,0.03892019763588905,0.32052192091941833,-0.1501556932926178,0.0
376,1.0813531263360106,-1.0615986767418941,-0.9761161728037214,-1.3758512635783369,2.744936063292463,-0.09157861024141312,0.23762759566307068,0.26431047916412354,-0.09157861024141312,0.23762759566307068,0.26431047916412354,0.0
377,-1.5783609135570074,-1.5246954494305598,1.070529766987089,1.5640432706502814,0.08003971433341661,0.03870680183172226,0.10193900018930435,0.06749337166547775,0.03870680183172226,0.10193900018930435,0.06749337166547775,0.0
378,-0.19888365262761387,-0.8347685539113442,-0.42697622156959647,1.4659082743520429,0.3132125985060923,0.19246965646743774,0.02846212312579155,0.30332276225090027,0.19246965646743774,0.02846212312579155,0.30332276225090027,0.0
379,1.0184927548218186,-0.7719412166614577,-0.9214947649030506,0.5166052280263196,2.111938176921628,0.03692272678017616,-0.01030789129436016,0.4985816180706024,0.03692272678017616,-0.01030789129436016,0.4985816180706024,0.0
380,-0.8411711754226152,-0.42951150297852747,-1.3931746181516307,1.2934260241154305,1.943804857995386,0.1154136136174202,0.07423923909664154,0.44269758462905884,0.1154136136174202,0.07423923909664154,0.44269758462905884,0.0
381,-0.794320588505308,0.8020791784542318,-0.01596944840864123,0.5349308411745588,0.18834656050448784,0.22321145236492157,0.1855677366256714,-0.0732606053352356,0.22321145236492157,0.1855677366256714,-0.0732606053352356,0.0
382,1.909496511919758,0.9436193590335966,-1.2948009860882448,0.45438628294179284,0.6025852272804957,-0.10515836626291275,-0.3951624035835266,0.18830843269824982,-0.10515836626291275,-0.3951624035835266,0.18830843269824982,0.0
383,1.6262676898137158,1.4593903299454638,-0.8969500012718723,-1.4265259236275818,2.645629442719838,0.014775742776691914,-0.3596629798412323,0.15930552780628204,0.014775742776691914,-0.3596629798412323,0.15930552780628204,0.0
384,0.29252217364794575,-0.9766315015387916,0.7420892120877767,0.8513378802158205,1.462049519777036,0.23960575461387634,-0.06883278489112854,0.146292582154274,0.23960575461387634,-0.06883278489112854,0.146292582154274,0.0
385,-1.470013978074638,0.13638839345998832,1.552025999112567,0.2674190508614922,-2.0664598978162356,0.03283895552158356,0.007233269512653351,-0.05929667875170708,0.03283895552158356,0.007233269512653351,-0.05929667875170708,0.0
386,-1.0083609926461508,-1.6039968240009526,-1.1315320594290468,0.39341463054703474,-0.3521898239183341,-0.13128602504730225,-0.2648179829120636,0.30864858627319336,-0.13128602504730225,-0.2648179829120636,0.30864858627319336,0.0
387,1.7476074523856413,1.214005455106773,1.1838257349205015,-0.46904021957083364,-1.2036844614788578,0.047456447035074234,0.006992205511778593,-0.11367496848106384,0.047456447035074234,0.006992205511778593,-0.11367496848106384,0.0
388,0.8603499714913361,-0.968386228908262,-0.02591238888308034,1.0351628908377803,-1.7741404613498961,0.1631394922733307,-0.13294555246829987,0.3146408796310425,0.1631394922733307,-0.13294555246829987,0.3146408796310425,0.0
389,1.865241079751495,-0.8442577786252718,-0.9519843832944326,0.8807487343836404,-1.5675737651186148,0.038521748036146164,-0.027651630342006683,0.46896371245384216,0.038521748036146164,-0.027651630342006683,0.46896371245384216,0.0
390,-0.7516425737732304,-1.1369979287370153,-0.8974052648949216,-0.8594338534713083,-0.6946918619877049,-0.16757474839687347,-0.18607285618782043,0.35248425602912903,-0.16757474839687347,-0.18607285618782043,0.35248425602912903,0.0
391,-0.5645905927153487,-0.06897512513971171,-0.12758734602810495,0.08933233391725226,2.2826655704616057,0.3291141390800476,0.1764335334300995,0.28432697057724,0.3291141390800476,0.1764335334300995,0.28432697057724,0.0
392,0.9012224064434444,-1.6360094027847503,-1.65475567675754,0.44261572149286166,0.7859767952852712,-0.193473681807518,0.2843745946884155,0.16352756321430206,-0.193473681807518,0.2843745946884155,0.16352756321430206,0.0
393,-1.7143584122110271,0.16453605403629656,1.3501511601027336,-1.5145327611088615,-1.2828999324248545,-0.004080057609826326,0.24482154846191406,0.0865606740117073,-0.004080057609826326,0.24482154846191406,0.0865606740117073,0.0
394,-1.5368144665783336,0.19337271846449822,1.3625690393808845,1.1009955210433457,-1.7327372164277595,0.02942863665521145,-0.053217895328998566,0.011425269767642021,0.02942863665521145,-0.053217895328998566,0.011425269767642021,0.0
395,-1.0889674952455093,-0.678950252121094,-0.4047559111215453,-0.6745718348065266,-0.23324971584003729,0.04551606997847557,0.016682149842381477,0.50129634141922,0.04551606997847557,0.016682149842381477,0.50129634141922,0.0
396,-0.2529236713978995,-0.760375986102617,1.4502958423336363,0.043615120099989024,1.3296457582303223,0.23187731206417084,0.04182767868041992,0.02748929150402546,0.23187731206417084,0.04182767868041992,0.02748929150402546,0.0
397,0.45056146877574665,1.5252433806870966,-0.8562643421089892,1.5971383108881738,-1.0923459040931833,0.1755174696445465,-0.058438658714294434,-0.10585566610097885,0.1755174696445465,-0.058438658714294434,-0.10585566610097885,0.0
398,-1.165127437830411,-0.048050563157790105,-0.7337884326128571,0.6496930658573314,-1.362856983765945,0.15145738422870636,0.2814536392688751,0.34864991903305054,0.15145738422870636,0.2814536392688751,0.34864991903305054,0.0
399,0.591175853263894,-1.3068008110212395,-1.1311046200843022,-0.10626839121733234,1.9567195613237036,-0.22311660647392273,0.16672897338867188,0.3435589373111725,-0.22311660647392273,0.16672897338867188,0.3435589373111725,0.0
400,-1.6828169691401387,0.6425273991960512,1.0058283336497453,-0.3241265597220966,0.4705508234143183,0.025994572788476944,0.14644622802734375,-0.10110202431678772,0.025994572788476944,0.14644622802734375,-0.10110202431678772,0.0
401,-1.3531765949915595,-0.16812985266505143,-1.1495866736276643,-1.657091272850136,1.7047714717995888,0.027405688539147377,-0.08888603001832962,0.38972780108451843,0.027405688539147377,-0.08888603001832962,0.38972780108451843,0.0
402,-0.4420202825617372,0.818158734579244,0.40804111856499103,0.572806564791507,-2.397462962390862,0.17399117350578308,0.06955298781394958,-0.10853990167379379,0.17399117350578308,0.06955298781394958,-0.10853990167379379,0.0
403,0.6239300666920444,-1.3874310298791201,-1.3290718355364262,-0.3179630870269625,-2.6862689731174187,-0.2509295642375946,0.21246470510959625,0.22544825077056885,-0.2509295642375946,0.21246470510959625,0.22544825077056885,0.0
404,-1.5521278150171993,1.3057453783536364,-0.8638141863977192,-0.12631027388842053,1.3097656797437498,0.05446247011423111,0.42099806666374207,0.014557757414877415,0.05446247011423111,0.42099806666374207,0.014557757414877415,0.0
405,-0.6227724251156179,0.7102742877967136,-0.9908400774056909,1.145164405865258,-2.0097260334600797,0.32658347487449646,0.21513505280017853,0.10717452317476273,0.32658347487449646,0.21513505280017853,0.10717452317476273,0.0
406,-0.3596907121264532,0.419498823291351,0.964889852673513,-1.1198675761215147,2.565678283019479,0.3094036281108856,0.09681299328804016,0.04108613356947899,0.3094036281108856,0.09681299328804016,0.04108613356947899,0.0
407,1.1251257723631571,-1.3718007375029257,-1.1011087672931037,-0.563824554204784,-1.528713036552382,-0.10154397040605545,0.31176090240478516,0.26268285512924194,-0.10154397040605545,0.31176090240478516,0.26268285512924194,0.0
408,-1.7170487366948928,1.30666016082915,-0.16129937293449714,1.120967897382015,-1.8475000437127398,0.016010092571377754,0.10432383418083191,-0.12549494206905365,0.016010092571377754,0.10432383418083191,-0.12549494206905365,0.0
409,0.2899802178269666,1.4294090324480493,0.25746872089440975,-0.70723489525215,1.2103627521757478,0.24906495213508606,-0.07056830823421478,-0.1636974811553955,0.24906495213508606,-0.07056830823421478,-0.1636974811553955,0.0
410,-0.4812670578869416,-1.3126768393637376,0.0007979667410673574,0.35247799909528665,0.33928686975695577,0.08948978781700134,0.023462563753128052,0.4302167594432831,0.08948978781700134,0.023462563753128052,0.4302167594432831,0.0
411,1.5030316525814102,0.021636739989493226,0.5036144341509008,0.8091446923587882,-1.9844430355696676,0.060753803700208664,-0.21969866752624512,0.011374401859939098,0.060753803700208664,-0.21969866752624512,0.011374401859939098,0.0
412,1.2346412359809635,-1.2141751095841,-0.22816498328425627,0.03552618021732967,-1.7505226081063539,0.03649422898888588,0.02963731251657009,0.47394078969955444,0.03649422898888588,0.02963731251657009,0.47394078969955444,0.0
413,-1.6281075214225527,0.6643015351319925,1.1415551335564706,0.011578230996426297,2.3256366810013755,0.041335199028253555,0.06198747083544731,-0.10013268887996674,0.041335199028253555,0.06198747083544731,-0.10013268887996674,0.0
414,-0.31055036306932293,0.6196391373575838,-0.6180309958591506,-1.6156733898923408,2.667301830255875,0.26821476221084595,0.069484643638134,0.3557422459125519,0.26821476221084595,0.069484643638134,0.3557422459125519,0.0
415,1.6559292074348382,1.1599596014766278,1.3063897080804878,-0.8185689121113063,-1.3526605873872712,0.04391893371939659,-0.02948875166475773,-0.11113187670707703,0.04391893371939659,-0.02948875166475773,-0.11113187670707703,0.0
416,1.5832212896833364,1.3113761902942174,-1.676702981460048,0.14388027320997998,-0.029130113319145945,0.03374430537223816,-0.42756760120391846,0.19873656332492828,0.03374430537223816,-0.42756760120391846,0.19873656332492828,0.0
417,-1.3164006773030699,1.6042659552307126,-1.096731299351652,0.37676076608667963,1.7552976953195154,0.13823433220386505,0.3505796790122986,-0.0985119640827179,0.13823433220386505,0.3505796790122986,-0.0985119640827179,0.0
418,0.6954815232896956,-1.0425589447588477,-1.668220466332499,1.4888433350681762,-0.2179857333150501,-0.048998042941093445,0.07550950348377228,0.3961424231529236,-0.048998042941093445,0.07550950348377228,0.3961424231529236,0.0
419,1.0424700647410439,0.30587102360312635,-0.2935570834553942,-1.0315510748659669,1.1018764406047379,0.19021685421466827,-0.2735433280467987,0.35271844267845154,0.19021685421466827,-0.2735433280467987,0.35271844267845154,0.0
420,-1.2124198466014828,1.1154066961796243,0.678542110807109,-0.8075247708977703,2.77720752880116,0.11648637056350708,0.1983446478843689,-0.12050626426935196,0.11648637056350708,0.1983446478843689,-0.12050626426935196,0.0
421,1.7721115446788458,-0.2545258386016729,1.0691325403426055,-0.25284599995150914,-0.3462016545185298,-0.009811201132833958,-0.2516821622848511,0.04696839302778244,-0.009811201132833958,-0.2516821622848511,0.04696839302778244,0.0
422,0.9375081811777273,0.9843425081651644,0.5911631711082999,-0.17462027047957607,0.7072634332307182,0.13237375020980835,-0.13616715371608734,-0.13731522858142853,0.13237375020980835,-0.13616715371608734,-0.13731522858142853,0.0
423,-1.0467879055271028,-0.6213100396885685,0.6197157280191754,1.3849005736431292,-2.1858836682138603,0.11195135116577148,0.1388731300830841,0.07428505271673203,0.11195135116577148,0.1388731300830841,0.07428505271673203,0.0
424,0.5805509204990988,1.6844661377683692,-1.2528694262300486,0.1128673678412837,-1.2535329697264532,0.3763304054737091,-0.21255099773406982,-0.060141969472169876,0.3763304054737091,-0.21255099773406982,-0.060141969472169876,0.0
425,-1.4918695231338872,-1.601930801027076,0.07239640570792649,-1.224013272286645,2.384264786364816,0.026242695748806,-0.23186706006526947,0.331119567155838,0.026242695748806,-0.23186706006526947,0.331119567155838,0.0
426,-0.13005972850266745,0.8303123007032598,-0.05629454863902117,-0.5310318054419347,-0.9542987669570864,0.4207178056240082,0.05637168139219284,0.038687098771333694,0.4207178056240082,0.05637168139219284,0.038687098771333694,0.0
427,-1.21557854318801,1.4086752979643733,0.434536908177078,1.1689884708274187,-2.2541756010869416,0.01857103407382965,-0.03782431781291962,-0.04980839416384697,0.01857103407382965,-0.03782431781291962,-0.04980839416384697,0.0
428,-1.429119295399122,0.36114156592638347,-1.2284423931839221,1.2767892376990904,-0.8706631731616217,0.07863621413707733,0.32135459780693054,0.2503054738044739,0.07863621413707733,0.32135459780693054,0.2503054738044739,0.0
429,-0.9414368458258553,-0.8845133795317731,1.0053992791216113,-0.4251784441618074,2.5973841804213613,0.18691463768482208,0.1958768665790558,0.2525625228881836,0.18691463768482208,0.1958768665790558,0.2525625228881836,0.0
430,-0.7165625517911973,0.9488580875331749,-0.5288472339873396,-0.07515600142281542,1.51326369309872,0.35566219687461853,0.26527753472328186,0.054756782948970795,0.35566219687461853,0.26527753472328186,0.054756782948970795,0.0
431,1.7034504359817895,-1.6870879890019537,-1.4098615900318827,-1.5585200104065626,-1.4281894042402619,0.07681120187044144,0.2266395539045334,-0.026739932596683502,0.07681120187044144,0.2266395539045334,-0.026739932596683502,0.0
432,1.8811239400866921,-0.6496370603754664,1.5365956694743317,-1.1420773488042717,-1.127008013799481,-0.024322956800460815,-0.21997131407260895,0.15893955528736115,-0.024322956800460815,-0.21997131407260895,0.15893955528736115,0.0
433,1.1235094735632658,1.5339825544017245,0.11648562726974854,0.5946595805305395,-1.859839853968686,0.06312417984008789,-0.033641036599874496,-0.16800624132156372,0.06312417984008789,-0.033641036599874496,-0.16800624132156372,0.0
434,0.3656230002168792,0.32936653200517885,-0.7142954439146211,-0.1416797031537742,-0.35778536842461905,0.37389716506004333,-0.12533234059810638,0.3432174324989319,0.37389716506004333,-0.12533234059810638,0.3432174324989319,0.0
435,1.47292510043747,-1.6693479959682265,1.4515703418360104,-1.6004245766367045,-1.980094362422451,0.046199362725019455,-0.003316605230793357,0.3211827576160431,0.046199362725019455,-0.003316605230793357,0.3211827576160431,0.0
436,-0.6910905784140708,-0.2768766763786903,1.6399459318971714,-1.291805731658592,-0.005595065094663898,0.20658643543720245,0.13880373537540436,0.08239256590604782,0.20658643543720245,0.13880373537540436,0.08239256590604782,0.0
437,-1.8371559040075338,1.654312756745898,-1.509240946789143,-0.4858182756406446,1.8000755000573099,-0.06514273583889008,0.411131352186203,0.11970511823892593,-0.06514273583889008,0.411131352186203,0.11970511823892593,0.0
438,-1.6823036437835925,0.2643287471301816,0.2589631859506023,1.3968631915071261,2.5755867375045867,0.025783773511648178,0.15748880803585052,0.0031741796992719173,0.025783773511648178,0.15748880803585052,0.0031741796992719173,0.0
439,1.648595884809271,0.14345251306026507,-0.5771056955772282,1.0886954419197787,2.255567014629544,0.007297814823687077,-0.32219359278678894,0.1922735720872879,0.007297814823687077,-0.32219359278678894,0.1922735720872879,0.0
