chenziming123/SO101-AI-CAE-Portfolio/data/simulation/upper_arm_v2_urdf_smoke_motion.csv
sample_id,shoulder_pan,shoulder_lift,elbow_flex,wrist_flex,wrist_roll,official_x,official_y,official_z,improved_x,improved_y,improved_z,ee_diff_m
0,0.0,0.0,0.0,0.0,0.0,0.3913614749908447,-9.212063559971284e-06,0.2264697104692459,0.3913614749908447,-9.212063559971284e-06,0.2264697104692459,0.0
1,-0.39814827313377377,1.0684191932415579,1.1378550025549155,-0.41953031756363224,-1.9024067321334686,0.06847956031560898,0.020322751253843307,-0.12150292098522186,0.06847956031560898,0.020322751253843307,-0.12150292098522186,0.0
2,-0.3687599904639218,-0.9027265008917046,-1.5333337263126783,0.6690153546765087,-0.9465300658095976,-0.12513726949691772,-0.05658024922013283,0.44887498021125793,-0.12513726949691772,-0.05658024922013283,0.44887498021125793,0.0
3,1.3836947840070621,0.8635538936281204,-0.7477308874917268,-0.5200943106549343,0.5989439569745825,0.11212924867868423,-0.41130027174949646,0.2145782709121704,0.11212924867868423,-0.41130027174949646,0.2145782709121704,0.0
4,1.0604499965742011,-0.7850238350993457,-0.8528832726759288,-0.8929400159510363,2.0074426939115426,-0.05353916063904762,0.1498408317565918,0.43896719813346863,-0.05353916063904762,0.1498408317565918,0.43896719813346863,0.0
5,-0.2495419486032131,1.0378463681277208,0.9817636763711635,-0.4067951297047536,-2.3290559960970736,0.12140531837940216,0.026662906631827354,-0.1334383487701416,0.12140531837940216,0.026662906631827354,-0.1334383487701416,0.0
6,-1.4574158263423125,0.2182410742379084,1.0497848366726212,-0.2736350930443292,-0.4471792205789842,0.05901746451854706,0.20720979571342468,-0.04411902278661728,0.05901746451854706,0.20720979571342468,-0.04411902278661728,0.0
7,-1.1321371900263313,-1.1148311415888184,-1.3263068683418067,-0.6909263997821892,-0.10000648474914575,-0.0994674414396286,-0.2929742932319641,0.2836434245109558,-0.0994674414396286,-0.2929742932319641,0.2836434245109558,0.0
8,-1.181490570850885,-1.1562688160521466,-0.9240916001337718,-1.197979838009219,-0.9007424484583804,-0.07692845910787582,-0.2660670876502991,0.28581610321998596,-0.07692845910787582,-0.2660670876502991,0.28581610321998596,0.0
9,-1.8380274129124279,0.2505267175623562,1.0463304355622634,-1.583586534572108,-1.3966954156524851,-0.042465779930353165,0.26804491877555847,0.13412940502166748,-0.042465779930353165,0.26804491877555847,0.13412940502166748,0.0
10,0.1056852000611439,1.6422258130331548,1.680566676262984,-1.6495115564064005,-1.6233838712265038,0.03104121796786785,0.008574308827519417,-0.0586182065308094,0.03104121796786785,0.008574308827519417,-0.0586182065308094,0.0
11,0.3256968518570482,0.7096177077904411,-0.5557854445636745,0.5683816040276384,-0.6631453998535619,0.3952041268348694,-0.11526673287153244,0.05837058648467064,0.3952041268348694,-0.11526673287153244,0.05837058648467064,0.0
12,0.11246350430415575,-0.4074178557000452,0.7417791621458942,-0.8439456516931649,1.0689264313815907,0.317828506231308,-0.03857726231217384,0.2659214437007904,0.317828506231308,-0.03857726231217384,0.2659214437007904,0.0
13,-0.38309479818489267,-0.27189976079018807,0.8935550350036903,0.7283255172487986,-2.7338174045467243,0.2064516544342041,0.07057372480630875,0.00446041626855731,0.2064516544342041,0.07057372480630875,0.00446041626855731,0.0
14,1.7219568893867634,0.42418774081799837,-1.462140010023492,-0.07968343131534539,0.14320888695565293,0.001108143711462617,-0.2401178628206253,0.4662308692932129,0.001108143711462617,-0.2401178628206253,0.4662308692932129,0.0
15,-1.9055230587720737,0.8338996132667038,0.48232649149316575,0.6452315299823128,-1.2137268599050732,-0.003701619105413556,0.10012457519769669,-0.1039704754948616,-0.003701619105413556,0.10012457519769669,-0.1039704754948616,0.0
16,0.899278482406102,-0.07213462070403276,0.9988696918824469,-1.1503581433897514,0.6476006362394773,0.21677859127521515,-0.23163512349128723,0.15521158277988434,0.21677859127521515,-0.23163512349128723,0.15521158277988434,0.0
17,-1.257304995829668,1.3720594565226394,1.6694067622215183,-1.1190149826897522,-0.8338394200791974,0.01879574917256832,-0.04305602237582207,-0.05497926473617554,0.01879574917256832,-0.04305602237582207,-0.05497926473617554,0.0
18,1.3097473935168575,0.758540681648777,0.10178687864893154,-0.36330876357332764,0.5675100261444124,0.1267915964126587,-0.3458363711833954,-0.0016785181360319257,0.1267915964126587,-0.3458363711833954,-0.0016785181360319257,0.0
19,-0.565406960917695,-0.7009364797293496,0.5777209536884573,-1.039138811933349,-0.9292904387652761,0.18738140165805817,0.10165908932685852,0.3867337703704834,0.18738140165805817,0.10165908932685852,0.3867337703704834,0.0
20,-1.216315076017357,1.380697714923861,1.238755716157152,1.271104249751035,1.6135185740291913,0.01696605607867241,-0.08236406743526459,0.14687785506248474,0.01696605607867241,-0.08236406743526459,0.14687785506248474,0.0
21,-1.1683607776938232,-1.6174694136600336,-0.30146722696693673,0.8921994925787928,2.6027412777073513,0.020310986787080765,-0.0546906404197216,0.40405380725860596,0.020310986787080765,-0.0546906404197216,0.40405380725860596,0.0
22,-1.7553114517002992,-1.6963043503693054,1.6516724659853805,-1.5388366662692141,0.028759628906169343,0.028863346204161644,0.054725516587495804,0.3008165657520294,0.028863346204161644,0.054725516587495804,0.3008165657520294,0.0
23,0.019997753399660034,0.7111351872486411,-0.7863162816312261,1.2377878571366339,-0.6853692105903106,0.35577356815338135,-0.001383317867293954,0.0503966324031353,0.35577356815338135,-0.001383317867293954,0.0503966324031353,0.0
24,0.2377683730436786,1.2215667548708926,0.1355330774807586,0.4476502373132083,0.057870342284066734,0.16978201270103455,-0.032215673476457596,-0.1549787074327469,0.16978201270103455,-0.032215673476457596,-0.1549787074327469,0.0
25,1.6217327470638891,-0.13313415493108716,-0.24406386882712794,-1.1449949544907019,0.9547054449276566,0.02319418638944626,-0.17857708036899567,0.44522160291671753,0.02319418638944626,-0.17857708036899567,0.44522160291671753,0.0
26,1.512779118345113,-0.8514876269382695,-0.4055354355383112,-1.5594281516976949,-0.3939875571428533,0.033273179084062576,0.14764420688152313,0.39946675300598145,0.033273179084062576,0.14764420688152313,0.39946675300598145,0.0
27,0.5655919922725663,-1.3037550230727908,0.9659176752837317,-1.2196012620259133,1.5775987733125145,0.08262668550014496,-0.03736785426735878,0.38214197754859924,0.08262668550014496,-0.03736785426735878,0.38214197754859924,0.0
28,-0.8130846381870152,0.1468378590285837,-0.08895318459504464,-0.397696829242945,1.9870217350900008,0.29074764251708984,0.2553936839103699,0.2771909236907959,0.29074764251708984,0.2553936839103699,0.2771909236907959,0.0
29,-0.7680411483307659,-1.102042875958341,0.884795930550585,0.06912261366265304,1.753799368711161,0.21018680930137634,0.15441501140594482,0.2513507902622223,0.21018680930137634,0.15441501140594482,0.2513507902622223,0.0
30,-1.3993159306851664,0.6633455090134022,-0.41123272132828226,1.1466883644955839,2.8289831879064273,0.09075799584388733,0.2836184799671173,0.003842804580926895,0.09075799584388733,0.2836184799671173,0.003842804580926895,0.0
31,1.7246907197023709,0.8938508854958047,-0.9324860320827483,0.8368438847641022,-1.3713418718830304,-0.011965744197368622,-0.3770892322063446,0.06069391220808029,-0.011965744197368622,-0.3770892322063446,0.06069391220808029,0.0
32,1.223729259898784,0.8540113994612488,0.9433297669979406,0.566632328351963,-0.0980073655275695,0.03596673905849457,0.010169056244194508,-0.06929649412631989,0.03596673905849457,0.010169056244194508,-0.06929649412631989,0.0
33,0.3387933098643665,0.5016305192987334,-1.6054316967744842,-1.4603390405955512,-0.48954896796033953,0.07356312870979309,-0.008331185206770897,0.41733136773109436,0.07356312870979309,-0.008331185206770897,0.41733136773109436,0.0
34,0.13467731708729103,-0.3631582446156367,-0.6583249328250664,-0.40948576202956266,-1.1654014893737354,0.14652608335018158,-0.007378040812909603,0.5068038702011108,0.14652608335018158,-0.007378040812909603,0.5068038702011108,0.0
35,-1.8961138035786478,0.1642609698428399,0.7299596436162745,-0.044196883936786335,2.1938801973230797,-0.042206186801195145,0.26119470596313477,0.004475714173167944,-0.042206186801195145,0.26119470596313477,0.004475714173167944,0.0
36,-0.8346917300626648,0.20694893945619142,-1.14001526513866,0.2320831000709258,0.14770008333126805,0.2302558422088623,0.2095383107662201,0.4292030334472656,0.2302558422088623,0.2095383107662201,0.4292030334472656,0.0
37,-1.4688969921225086,-0.022224470204835756,-1.3549029893464408,0.616584380076332,0.7443859657704737,0.06417113542556763,0.19461886584758759,0.4686104655265808,0.06417113542556763,0.19461886584758759,0.4686104655265808,0.0
38,-0.4383744447000939,-1.1683073657205476,0.5685985392656541,-0.029932833014368665,1.1134051989449594,0.2021997570991516,0.0686408281326294,0.35770919919013977,0.2021997570991516,0.0686408281326294,0.35770919919013977,0.0
39,-1.6277760615353873,0.28260955108542163,0.5916052219989956,-0.17351377673997614,-0.9897509326294291,0.01534191519021988,0.29737067222595215,0.010889414697885513,0.01534191519021988,0.29737067222595215,0.010889414697885513,0.0
40,0.7609843285640028,-0.8381227877840173,0.7816122818767792,-1.5758215773311346,-0.3909191753775261,0.11133430153131485,-0.06491779536008835,0.38489025831222534,0.11133430153131485,-0.06491779536008835,0.38489025831222534,0.0
41,0.26158511589351807,-0.36186886731968615,1.0390835516349268,1.027005344434851,-2.4731476194549242,0.14646264910697937,-0.02406277507543564,-0.00733798136934638,0.14646264910697937,-0.02406277507543564,-0.00733798136934638,0.0
42,1.8376506481709867,0.2801307069352359,0.6632085989100247,1.0218752137827092,1.577550990123858,0.0018907790072262287,-0.10450483113527298,-0.03607023507356644,0.0018907790072262287,-0.10450483113527298,-0.03607023507356644,0.0
43,1.288017964550296,0.8962194125832359,0.26680324919273035,-1.4295241542949206,0.011407906598228212,0.13633161783218384,-0.33589527010917664,0.07757394015789032,0.13633161783218384,-0.33589527010917664,0.07757394015789032,0.0
44,-0.8930994681247773,0.4332015307919561,-1.5701588013741388,0.44165218087216807,-1.0086798928770329,0.20920854806900024,0.22220370173454285,0.4304865896701813,0.20920854806900024,0.22220370173454285,0.4304865896701813,0.0
45,-1.0268387767212945,-0.9794111367893694,-0.26015771317795555,-1.2599454814984472,-2.161149074074043,-0.038343269377946854,-0.11544705182313919,0.42358285188674927,-0.038343269377946854,-0.11544705182313919,0.42358285188674927,0.0
46,-0.36470048331727645,0.9810829250162207,1.1575065728485745,-0.31799376947850155,1.2273127089558176,0.06888069212436676,0.003377867629751563,-0.1141858696937561,0.06888069212436676,0.003377867629751563,-0.1141858696937561,0.0
47,-0.6079434362546661,0.47939236609067315,1.2478952671645103,-0.963287157868263,2.5969297104847966,0.21443989872932434,0.11682108044624329,-0.0358334556221962,0.21443989872932434,0.11682108044624329,-0.0358334556221962,0.0
48,-0.7317889536000373,-0.3671930918037021,1.2600771970155962,0.5023223301595363,0.7802539691686259,0.13703402876853943,0.08064749091863632,-0.02787257358431816,0.13703402876853943,0.08064749091863632,-0.02787257358431816,0.0
49,-1.000161581693982,-1.3965834443435456,1.24226097034096,0.4342549604981565,0.8712354680820265,0.15659083425998688,0.17213881015777588,0.14055794477462769,0.15659083425998688,0.17213881015777588,0.14055794477462769,0.0
50,1.4996305479529366,-0.007993549651361676,-0.6701645270101031,-0.40084085930951496,1.5837356768916058,0.04745344817638397,-0.23451313376426697,0.45839664340019226,0.04745344817638397,-0.23451313376426697,0.45839664340019226,0.0
51,0.8720692481986507,0.28565421624516896,-0.3527809818454495,-0.1778555200776295,-0.9562436188405448,0.28736332058906555,-0.28591388463974,0.2652866840362549,0.28736332058906555,-0.28591388463974,0.2652866840362549,0.0
52,0.014769242543513084,0.35229794631201994,-0.6278596438206268,0.9050306249382907,2.4338603169938935,0.39481499791145325,-0.010697364807128906,0.16532982885837555,0.39481499791145325,-0.010697364807128906,0.16532982885837555,0.0
53,1.5546049557416017,1.6737632273841103,0.4705435267970164,-1.2559498658184718,-1.9536146418963523,0.0487341471016407,-0.17336405813694,-0.16056674718856812,0.0487341471016407,-0.17336405813694,-0.16056674718856812,0.0
54,-0.5535777579899119,0.1064208615274278,-0.5646707481081894,0.014882093777344396,-2.028576709266281,0.3169313371181488,0.17991262674331665,0.3614962100982666,0.3169313371181488,0.17991262674331665,0.3614962100982666,0.0
55,-1.6817760266767903,0.9413734263160758,-0.4409488595767015,0.3408598466824113,0.42595772982447144,0.0022942032665014267,0.3575977385044098,-0.023472804576158524,0.0022942032665014267,0.3575977385044098,-0.023472804576158524,0.0
56,-1.0661453768425155,-0.6632678997287085,0.6942831009171528,-0.9056490354752568,-2.419290812561539,0.13878150284290314,0.1911250650882721,0.3496067523956299,0.13878150284290314,0.1911250650882721,0.3496067523956299,0.0
57,-1.2250425905638866,0.7583959757189378,-1.2999846733159863,-0.09048709940956279,-0.9679303170953342,0.15889175236225128,0.3522479236125946,0.343631386756897,0.15889175236225128,0.3522479236125946,0.343631386756897,0.0
58,1.4073841935894404,-1.2748334475514362,0.9045784335372162,-0.825899633210756,-1.3483271737315277,0.06492921710014343,-0.11174899339675903,0.3774808347225189,0.06492921710014343,-0.11174899339675903,0.3774808347225189,0.0
59,1.2762584845452598,0.4857044593508766,0.8452742317605693,0.41293119036803305,-0.18512742112945757,0.07207726687192917,-0.10461363196372986,-0.08223981410264969,0.07207726687192917,-0.10461363196372986,-0.08223981410264969,0.0
60,-1.5294413977301269,-1.060659787115338,0.6718535089665907,-0.7001415492575915,0.05990258376105295,0.04549822956323624,0.1493312567472458,0.3893914520740509,0.04549822956323624,0.1493312567472458,0.3893914520740509,0.0
61,1.79665033110728,-0.06762467559119445,1.4269308208168248,0.9242144586937828,-1.4209964305456195,0.05094863101840019,0.01851307414472103,-0.019803836941719055,0.05094863101840019,0.01851307414472103,-0.019803836941719055,0.0
62,0.7433311475134037,0.9199730061606535,0.003799191122574541,0.9475842958760092,0.7685400807516549,0.16002720594406128,-0.11893809586763382,-0.09234993904829025,0.16002720594406128,-0.11893809586763382,-0.09234993904829025,0.0
63,1.3162936316835832,-0.46337931640272156,0.894035284784878,0.8246743838242379,-2.178648861888881,0.09110013395547867,-0.17622385919094086,0.028295714408159256,0.09110013395547867,-0.17622385919094086,0.028295714408159256,0.0
64,-0.9758187256893289,-1.3457614149178339,-1.6873501249787974,1.6128225331859924,-2.315186436148431,-0.0718340277671814,-0.15367378294467926,0.336696594953537,-0.0718340277671814,-0.15367378294467926,0.336696594953537,0.0
65,-1.6099454519892626,0.3760821808051773,1.474087769481275,-1.21020494309584,0.6592044267335702,0.0362982414662838,0.18956074118614197,-0.020260553807020187,0.0362982414662838,0.18956074118614197,-0.020260553807020187,0.0
66,-0.9230886156632824,0.644440652759084,-0.7941382998334197,-0.13539305917709665,-1.6840389987152808,0.2774084508419037,0.32801514863967896,0.26083165407180786,0.2774084508419037,0.32801514863967896,0.26083165407180786,0.0
67,1.0389487437329614,-0.5952756634408534,-0.07899269883501181,1.432452983952311,-1.8901384610761873,0.15161091089248657,-0.1773226112127304,0.20622201263904572,0.15161091089248657,-0.1773226112127304,0.20622201263904572,0.0
68,0.9103665327485793,-1.230636308879514,0.20289177969475714,-0.3384552013347619,-0.8586412532460175,0.06568737328052521,-0.024931002408266068,0.45361581444740295,0.06568737328052521,-0.024931002408266068,0.45361581444740295,0.0
69,0.36661507177369623,-0.7677493411497821,-1.3809234503141266,-0.7713186441592933,-1.1620087442493794,-0.2016637623310089,0.0999898836016655,0.3651038706302643,-0.2016637623310089,0.0999898836016655,0.3651038706302643,0.0
70,1.0488998615784975,1.7287418770770717,-1.2201939469216292,1.2694381128315901,0.21778015993928923,0.14561624825000763,-0.18913036584854126,-0.14412763714790344,0.14561624825000763,-0.18913036584854126,-0.14412763714790344,0.0
71,0.3911712840982928,0.8377650588461836,-1.077054330793097,0.8238479862020445,1.946406077486662,0.4028785228729248,-0.15834705531597137,0.12256202846765518,0.4028785228729248,-0.15834705531597137,0.12256202846765518,0.0
72,0.8157115295509993,1.5928543072145525,0.5516606842772402,-0.5540449819666913,0.9741831434086179,0.07908731698989868,-0.05242781713604927,-0.18910568952560425,0.07908731698989868,-0.05242781713604927,-0.18910568952560425,0.0
73,-0.8169458967485403,-0.5238264497008123,0.744709580366282,0.3545964633666434,-1.4979749366619628,0.21421778202056885,0.19808663427829742,0.1166001707315445,0.21421778202056885,0.19808663427829742,0.1166001707315445,0.0
74,-1.8495555306149891,-0.8616195451596899,1.0771937930155535,-1.397951590498458,-0.9634278926114455,-0.011471973732113838,0.15248577296733856,0.33309003710746765,-0.011471973732113838,0.15248577296733856,0.33309003710746765,0.0
75,0.406003505996416,1.2908235575315312,0.9655948448937486,0.3349747916438264,0.06445014725094067,-0.03020070306956768,0.029111294075846672,-0.06343488395214081,-0.03020070306956768,0.029111294075846672,-0.06343488395214081,0.0
76,0.057914656539314935,0.21928924102390468,-1.1158296730721013,-0.6096076913603967,0.7724861739728142,0.21663671731948853,-0.015890898182988167,0.4875316619873047,0.21663671731948853,-0.015890898182988167,0.4875316619873047,0.0
77,-0.737280276301929,-1.157457107800679,0.28750975041290183,-1.323976118131291,-1.7866582416762125,-0.02014392428100109,-0.04342415928840637,0.42213284969329834,-0.02014392428100109,-0.04342415928840637,0.42213284969329834,0.0
78,1.7690572513534506,0.5235081163452735,1.5403448836344569,1.4148677262207274,0.33679108231045296,0.055188070982694626,0.09476017206907272,0.13856065273284912,0.055188070982694626,0.09476017206907272,0.13856065273284912,0.0
79,1.1810068194354622,-1.0216289933834672,-0.9838558540421143,-1.4039507571553358,1.1256402335753042,-0.06932637840509415,0.24423930048942566,0.28069204092025757,-0.06932637840509415,0.24423930048942566,0.28069204092025757,0.0
80,-0.26142967777158055,-1.3457606474390942,0.6032293678285736,-0.7292330882133472,-0.42964682689915534,0.08205050230026245,0.014941669069230556,0.4218011498451233,0.08205050230026245,0.014941669069230556,0.4218011498451233,0.0
81,-0.21967655651986684,-1.3939042401096935,-0.5236494332006911,-0.47134360146492504,2.1796463158920245,-0.19922605156898499,-0.060077350586652756,0.3947252035140991,-0.19922605156898499,-0.060077350586652756,0.3947252035140991,0.0
82,1.0979804183878525,1.7041381323828593,-0.4410892117859264,0.5973050922808485,-0.704507897703349,0.10388559848070145,-0.11604378372430801,-0.20401516556739807,0.10388559848070145,-0.11604378372430801,-0.20401516556739807,0.0
83,0.7259887292535412,0.8575848448071892,-1.279018363750279,0.8207804400212673,-2.361439336551385,0.3442709445953369,-0.2641022205352783,0.17237621545791626,0.3442709445953369,-0.2641022205352783,0.17237621545791626,0.0
84,-1.832322489258648,0.10135743747192438,0.4829655616346167,-1.2897053051174074,-1.6505613366585528,-0.04764261841773987,0.29336097836494446,0.25951921939849854,-0.04764261841773987,0.29336097836494446,0.25951921939849854,0.0
85,0.21466319327025296,1.3457545476756994,-0.016392542999527082,0.26795839511208075,2.7592048397410487,0.2205769568681717,-0.042979300022125244,-0.17468221485614777,0.2205769568681717,-0.042979300022125244,-0.17468221485614777,0.0
86,1.069380739854389,1.645087171015632,-1.6039095325249833,1.058355161403474,-2.705877648747814,0.21178209781646729,-0.30925530195236206,-0.05862252414226532,0.21178209781646729,-0.30925530195236206,-0.05862252414226532,0.0
87,-1.8158928080275694,-1.1503307015009536,-0.7803189085785446,1.5159022204771724,-0.8488605369673297,0.024782579392194748,0.03202017769217491,0.37203720211982727,0.024782579392194748,0.03202017769217491,0.37203720211982727,0.0
88,-0.9701658353546534,-0.3366752197239278,-1.1861853819963275,-0.9380334640107422,-0.9921937287649178,-0.023179970681667328,-0.07897529751062393,0.4705502688884735,-0.023179970681667328,-0.07897529751062393,0.4705502688884735,0.0
89,-1.5843908384191365,-0.5036150561283221,-0.9990988323089615,1.3540504091763321,-1.3095628949990352,0.029129518195986748,0.16221743822097778,0.38537395000457764,0.029129518195986748,0.16221743822097778,0.38537395000457764,0.0
90,0.5953910639590343,1.735112052822433,-0.6845897940638828,1.4536340038183504,-2.0877905401190464,0.11117564886808395,-0.04101932793855667,-0.14191949367523193,0.11117564886808395,-0.04101932793855667,-0.14191949367523193,0.0
91,0.6401193500364619,1.4710119666684962,-1.5986137427939597,0.08756411061088731,-2.349310483524202,0.3926764726638794,-0.256865918636322,0.1343143731355667,0.3926764726638794,-0.256865918636322,0.1343143731355667,0.0
92,0.8786217557027824,0.10206438278532737,-0.36620710334905615,0.9812466745678148,-0.5305865785473225,0.24239932000637054,-0.23933948576450348,0.15625311434268951,0.24239932000637054,-0.23933948576450348,0.15625311434268951,0.0
93,-0.15491667534156073,0.0694284150101343,1.6164824360940093,0.6400653866738433,-2.6227073649045094,-0.009410828351974487,-0.003894840832799673,-0.02834910899400711,-0.009410828351974487,-0.003894840832799673,-0.02834910899400711,0.0
94,0.46933968021439076,1.6798837196868686,-0.3393681758703049,-1.0178540541373042,0.5049081633068817,0.32596713304519653,-0.1499330699443817,-0.1107650175690651,0.32596713304519653,-0.1499330699443817,-0.1107650175690651,0.0
95,-0.08993738102170212,-0.8130845065080475,-0.5087680770643916,-0.7191807254496656,-0.9743386420193152,-0.033697839826345444,-6.354923243634403e-05,0.4902200400829315,-0.033697839826345444,-6.354923243634403e-05,0.4902200400829315,0.0
96,-0.3694940389048018,-0.34501409183844434,1.287171101463246,-0.5610427976828307,-0.4880195513231458,0.26825374364852905,0.09279132634401321,0.06032298877835274,0.26825374364852905,0.09279132634401321,0.06032298877835274,0.0
97,-0.594391802149199,0.49000142293541993,0.536604770193621,-1.0190681921086684,1.5616667469061474,0.32636401057243347,0.18460425734519958,0.08858819305896759,0.32636401057243347,0.18460425734519958,0.08858819305896759,0.0
98,1.245082009330194,0.7614065306967333,-0.30044372501388605,-1.5388119861469567,1.787815012673752,0.1354675441980362,-0.31088584661483765,0.2644177973270416,0.1354675441980362,-0.31088584661483765,0.2644177973270416,0.0
99,1.4456051326390558,0.9123537018105199,0.9496999226146476,-0.6022133536232219,0.9579965503264578,0.05070662498474121,-0.14674103260040283,-0.12040125578641891,0.05070662498474121,-0.14674103260040283,-0.12040125578641891,0.0
100,0.1279301230900578,1.7085354774411279,0.7448119112438847,0.5368666340363399,1.2371953843719412,-0.08179730921983719,0.007865583524107933,-0.037592463195323944,-0.08179730921983719,0.007865583524107933,-0.037592463195323944,0.0
101,1.3164450659276032,0.8373464272920126,0.869453745494869,-0.6724633078818686,2.749208228984677,0.08773462474346161,-0.20140677690505981,-0.09636177867650986,0.08773462474346161,-0.20140677690505981,-0.09636177867650986,0.0
102,1.5737357984496532,0.5346587609204367,0.13538573775206597,1.0901891143131663,-1.2158757320452753,0.04557212442159653,-0.18830843269824982,-0.03639888018369675,0.04557212442159653,-0.18830843269824982,-0.03639888018369675,0.0
103,-0.4139295440989019,1.5933049189178794,-1.2735657814653387,-1.3681556715237495,0.7889638751730432,0.36739638447761536,0.13815279304981232,0.18376488983631134,0.36739638447761536,0.13815279304981232,0.18376488983631134,0.0
104,-0.6281973047651854,-0.23730534868000808,-0.2559679799594643,0.3322753886627381,-1.9418114777667013,0.2807633876800537,0.18453499674797058,0.3295612633228302,0.2807633876800537,0.18453499674797058,0.3295612633228302,0.0
105,1.4204010418859512,-1.6711581381956688,0.3787540593896366,-1.619362980774604,-0.09320775579546847,0.008746162056922913,0.20337696373462677,0.30823302268981934,0.008746162056922913,0.20337696373462677,0.30823302268981934,0.0
106,1.4049836442991772,-0.23941248282231453,0.23857057068371423,0.49467514997711226,-0.2673742267320063,0.09079401940107346,-0.29792457818984985,0.15576663613319397,0.09079401940107346,-0.29792457818984985,0.15576663613319397,0.0
107,1.295591282957084,-1.4924364920213296,0.22626039799508013,0.7713208640652895,1.9227649739412094,0.05722591280937195,-0.09328635036945343,0.36145246028900146,0.05722591280937195,-0.09328635036945343,0.36145246028900146,0.0
108,1.120431949185415,-0.8724863862606013,0.3150362326536338,0.651997936852373,1.231937076025213,0.13307535648345947,-0.21230760216712952,0.2683948576450348,0.13307535648345947,-0.21230760216712952,0.2683948576450348,0.0
109,1.1072446547716663,-1.7232413885355722,0.27507723117040994,0.08784584424587139,2.6987214462077986,0.014309205114841461,0.040755968540906906,0.41889381408691406,0.014309205114841461,0.040755968540906906,0.41889381408691406,0.0
110,1.6839686414657344,1.0561623356809036,-1.51183523813885,1.6059086284428614,-2.3452681791528134,0.006756503600627184,-0.32966530323028564,0.06862211227416992,0.006756503600627184,-0.32966530323028564,0.06862211227416992,0.0
111,-1.0909469116607506,1.3213095065375526,-0.4876553384651279,-0.4816165785560753,0.5632214360147954,0.2217503935098648,0.34226417541503906,-0.04037829115986824,0.2217503935098648,0.34226417541503906,-0.04037829115986824,0.0
112,-1.1354650036034681,0.522421546504896,0.7848728237722367,0.9918673997667773,-2.1506394941718905,0.05346952751278877,0.0465027317404747,-0.05050620064139366,0.05346952751278877,0.0465027317404747,-0.05050620064139366,0.0
113,-0.12117760780580711,-1.1275435188716219,0.7222211261207021,-0.49546895008989145,2.6307489544657408,0.19437067210674286,0.014723558910191059,0.37718015909194946,0.19437067210674286,0.014723558910191059,0.37718015909194946,0.0
114,-0.11360870844436399,0.003024046932956548,-1.069601632599963,1.1580167745038923,-1.344228949860559,0.3139619529247284,0.0390012301504612,0.3335649073123932,0.3139619529247284,0.0390012301504612,0.3335649073123932,0.0
115,0.9369573620754132,0.8601845233560694,1.5579981998673875,-0.46915685332154555,-0.30156320409447934,0.023270271718502045,0.025107884779572487,-0.06959308683872223,0.023270271718502045,0.025107884779572487,-0.06959308683872223,0.0
116,1.6009273881993673,-1.5682711755032592,-0.7827396789286997,-0.9600283301920763,1.5604715791990467,0.04093320667743683,0.33776721358299255,0.2105007916688919,0.04093320667743683,0.33776721358299255,0.2105007916688919,0.0
117,1.7211370620087254,-0.9018555938456431,-1.0731892590506216,1.2984267765315967,2.6699134160359925,0.03175801783800125,-0.020575005561113358,0.43548882007598877,0.03175801783800125,-0.020575005561113358,0.43548882007598877,0.0
118,-0.34467843127560904,-1.2882141654633839,-0.41150982973180183,-0.4409007694472955,-1.2765084555916517,-0.12980079650878906,-0.05264737457036972,0.4432077705860138,-0.12980079650878906,-0.05264737457036972,0.4432077705860138,0.0
119,-1.4385400735331233,0.029184419645116533,-0.4284011507756855,1.3096570120160773,-1.5662892037588305,0.06832685321569443,0.28027477860450745,0.15985940396785736,0.06832685321569443,0.28027477860450745,0.15985940396785736,0.0
120,0.2593943219919801,1.1986735532765458,-0.7593906353326795,0.27442135688677505,-1.1772238945311273,0.41592344641685486,-0.0926341637969017,-0.027629083022475243,0.41592344641685486,-0.0926341637969017,-0.027629083022475243,0.0
121,-0.8513331798275501,0.2096551889689382,-0.005276415348721919,-0.7552552711415591,0.755939341464122,0.2756407558917999,0.26198166608810425,0.2769409120082855,0.2756407558917999,0.26198166608810425,0.2769409120082855,0.0
122,-0.9942815983372044,-1.3007215734570834,1.1481149335363212,-0.5005332856253466,1.55232874873652,0.14839208126068115,0.1536864936351776,0.2957778871059418,0.14839208126068115,0.1536864936351776,0.2957778871059418,0.0
123,0.3036232399600678,0.9196819261673901,0.5739212565069645,0.03262748934959525,-0.5165522536916209,0.1858118772506714,-0.04199275001883507,-0.13091449439525604,0.1858118772506714,-0.04199275001883507,-0.13091449439525604,0.0
124,-1.1288605161357128,1.6796773370477247,0.17491340396004618,1.277209849812697,-1.1553614922553301,0.009831682778894901,-0.04465491324663162,-0.052950117737054825,0.009831682778894901,-0.04465491324663162,-0.052950117737054825,0.0
125,-1.8510477183545069,-1.4265539387107247,-0.7737633155470943,-1.2750228287479448,1.199394616550744,0.13233309984207153,-0.2977924346923828,0.21716304123401642,0.13233309984207153,-0.2977924346923828,0.21716304123401642,0.0
126,-1.4833875306494013,1.6161431959785708,0.18226787091218277,-0.9097221990251151,-0.13319373385838995,0.05617986619472504,0.20981751382350922,-0.17758940160274506,0.05617986619472504,0.20981751382350922,-0.17758940160274506,0.0
127,-0.4252527910759738,-0.4022931596465924,1.5726309240789988,-1.3830081491997057,1.9277885199823492,0.24654294550418854,0.08568385243415833,0.14510169625282288,0.24654294550418854,0.08568385243415833,0.14510169625282288,0.0
128,0.8884783013019741,-0.18240067169339103,1.017236808656416,1.6074522863212504,2.0068402291674614,0.04072967916727066,-0.014081897214055061,0.030954847112298012,0.04072967916727066,-0.014081897214055061,0.030954847112298012,0.0
129,-1.1769663599053983,1.225244998845794,-1.214796854016563,-0.32898969163778546,-1.3147035633154978,0.1978767216205597,0.4023084342479706,0.18029631674289703,0.1978767216205597,0.4023084342479706,0.18029631674289703,0.0
130,1.651698078203324,1.627143160391065,1.64102543850418,0.5649443241140324,2.650818542808997,0.04452185332775116,0.12024057656526566,0.19040940701961517,0.04452185332775116,0.12024057656526566,0.19040940701961517,0.0
131,0.39863762962453464,-1.6219979000300289,-1.580496100621672,-0.3490099530986399,2.7758439754524966,-0.29500213265419006,0.1371782124042511,0.05523105338215828,-0.29500213265419006,0.1371782124042511,0.05523105338215828,0.0
132,0.10374268071576065,-1.5107454986712847,0.7577300098953712,-0.3525319330622907,0.3079819704111695,0.13088010251522064,-0.012010698206722736,0.38625216484069824,0.13088010251522064,-0.012010698206722736,0.38625216484069824,0.0
133,-0.307265111746726,1.6999269040259217,0.6726186127023777,-0.49423108444335884,-2.271757223239431,0.03889569640159607,0.006055853329598904,-0.17655415832996368,0.03889569640159607,0.006055853329598904,-0.17655415832996368,0.0
134,-1.0838250449957991,1.2709850570995869,-0.4482699361745184,-0.2874303818595658,-0.22025821087633002,0.2127247303724289,0.33206290006637573,-0.060066647827625275,0.2127247303724289,0.33206290006637573,-0.060066647827625275,0.0
135,-0.7823729312638148,0.1702634462982202,1.6735421035207474,-1.5132889930996758,1.9367708370687726,0.1840505301952362,0.133604034781456,0.042346373200416565,0.1840505301952362,0.133604034781456,0.042346373200416565,0.0
136,1.432445523180415,1.2689687384604005,-1.2420990828019072,-0.5773187121324723,2.080809197471889,0.0889788493514061,-0.41198235750198364,0.2113535851240158,0.0889788493514061,-0.41198235750198364,0.2113535851240158,0.0
137,0.4474424813769753,-0.4908396363341243,0.9140632625178085,-0.9517908902360033,0.9580449363397592,0.2767397463321686,-0.12143035978078842,0.25467199087142944,0.2767397463321686,-0.12143035978078842,0.25467199087142944,0.0
138,-1.8195098023569964,1.573274746349278,-0.8495651980135979,-0.6750066103747359,0.9303876841534429,-0.05494808405637741,0.3953115940093994,-0.009707295335829258,-0.05494808405637741,0.3953115940093994,-0.009707295335829258,0.0
139,-1.3119354739657003,-1.184223124146049,0.8976734994110251,1.3959491301581928,-2.1645234433481075,0.06849810481071472,0.1365487277507782,0.08754386007785797,0.06849810481071472,0.1365487277507782,0.08754386007785797,0.0
140,-0.8137838249735632,-0.3271072346032198,-0.030581632317964624,-0.8884002927832371,0.6685083475449178,0.1811922937631607,0.14347872138023376,0.4331948161125183,0.1811922937631607,0.14347872138023376,0.4331948161125183,0.0
141,1.088374078677015,-1.7228630830234242,-1.5008716040158447,0.9485971456984739,-0.20834972880470737,-0.10650524497032166,0.28101637959480286,0.23729418218135834,-0.10650524497032166,0.28101637959480286,0.23729418218135834,0.0
142,-1.2975362908231698,-0.7760515983345951,1.0232131929916193,-1.5514151757580241,-2.433473692903924,0.0718659833073616,0.13577091693878174,0.3438052237033844,0.0718659833073616,0.13577091693878174,0.3438052237033844,0.0
143,0.7861621899656899,-1.4597650056352078,1.675232823625712,-1.5345367626195996,0.11564132207516176,0.11010760813951492,-0.07268841564655304,0.28538739681243896,0.11010760813951492,-0.07268841564655304,0.28538739681243896,0.0
144,0.5429856685629675,-0.15887350734184147,-0.4731734423270768,0.5167406460502149,1.460526597121791,0.2952234745025635,-0.16408608853816986,0.3333676755428314,0.2952234745025635,-0.16408608853816986,0.3333676755428314,0.0
145,0.5211208845513537,-1.0296425753172858,1.322904076116724,0.06361007751924608,2.7619467230282435,0.23730599880218506,-0.11769019812345505,0.11576191335916519,0.23730599880218506,-0.11769019812345505,0.11576191335916519,0.0
146,0.7485708807071441,-1.649662880890848,0.17750596713107747,1.5017929609264622,-1.4306734705807604,0.10502234846353531,-0.0510149784386158,0.26474446058273315,0.10502234846353531,-0.0510149784386158,0.26474446058273315,0.0
147,0.030909218206579547,-0.9147009161150073,-1.3620884090602625,-0.298064912727231,0.3228036164218082,-0.22459682822227478,0.00561521016061306,0.398590087890625,-0.22459682822227478,0.00561521016061306,0.398590087890625,0.0
148,-1.7517739258979776,-1.480940687917819,-0.05192159642326866,-0.44937453447584685,-0.3208665325666247,0.060908250510692596,-0.13436345756053925,0.4385044276714325,0.060908250510692596,-0.13436345756053925,0.4385044276714325,0.0
149,1.8424543761127357,-0.4833374152839349,0.1764891147253207,0.9614461523472799,1.193474990018327,-0.03660115599632263,-0.24302273988723755,0.17561571300029755,-0.03660115599632263,-0.24302273988723755,0.17561571300029755,0.0
150,-1.0540777707121618,-0.34559868816537676,1.4735029363450094,0.4765459150735951,-0.03986558309295907,0.07210484892129898,0.059167250990867615,-0.04652827978134155,0.07210484892129898,0.059167250990867615,-0.04652827978134155,0.0
151,0.538653814913427,0.26845651523238345,0.3215274260029308,-0.3047445518988199,1.801072106253569,0.3399393856525421,-0.18915045261383057,0.10375165939331055,0.3399393856525421,-0.18915045261383057,0.10375165939331055,0.0
152,-1.0088359316978293,-0.011088531305726512,-0.06179927834862875,0.6512629685282876,-0.3472510163950906,0.20741239190101624,0.2727276086807251,0.15126746892929077,0.20741239190101624,0.2727276086807251,0.15126746892929077,0.0
153,0.8760738834124666,1.0830177254812878,0.24771252076222283,0.8401027672777748,0.8577032599542624,0.0891241803765297,-0.06978951394557953,-0.1135951578617096,0.0891241803765297,-0.06978951394557953,-0.1135951578617096,0.0
154,0.9433370228806517,1.1571756917023017,0.15085948607035005,1.3491225667172817,-0.8366105994626498,0.06788177788257599,-0.030171802267432213,-0.062291692942380905,0.06788177788257599,-0.030171802267432213,-0.062291692942380905,0.0
155,1.3645400351834174,0.8525932297129462,1.0377602095490501,-1.1555013679373487,-0.443963000991459,0.08504632115364075,-0.20441484451293945,-0.07211188226938248,0.08504632115364075,-0.20441484451293945,-0.07211188226938248,0.0
156,1.0574451812947032,-1.6004795640333518,-0.06200555013734799,1.4416519621301858,2.7424952392829836,0.06204720959067345,-0.04809887334704399,0.3170222043991089,0.06204720959067345,-0.04809887334704399,0.3170222043991089,0.0
157,-1.0136147885011955,0.20648705175166437,-0.998098131296503,0.03171122917283564,-2.2254949677816205,0.18392735719680786,0.24420857429504395,0.4339400827884674,0.18392735719680786,0.24420857429504395,0.4339400827884674,0.0
158,1.721139236519845,0.7146391454025349,-0.5755788599307305,-1.1782520796657514,0.5952582111224411,-0.017416032031178474,-0.341500848531723,0.3036181926727295,-0.017416032031178474,-0.341500848531723,0.3036181926727295,0.0
159,-1.2440480373111145,1.0407933571091808,-1.2041901984350207,-1.0483015621694283,-1.5313878744904383,0.13744576275348663,0.3150469958782196,0.325446218252182,0.13744576275348663,0.3150469958782196,0.325446218252182,0.0
160,0.45987034668025695,-1.691593619703917,1.1030484048932752,1.351143550633853,-2.525917610110935,0.16997916996479034,-0.060210805386304855,0.10478480905294418,0.16997916996479034,-0.060210805386304855,0.10478480905294418,0.0
161,1.2071205865820498,-1.0290949729270076,-0.42099401485016763,-1.6459057599611684,-2.5503107407588987,-0.028452139347791672,0.18828031420707703,0.33378785848617554,-0.028452139347791672,0.18828031420707703,0.33378785848617554,0.0
162,-0.6533609074743343,-0.026488326265733386,0.19187033307017698,1.0517718385859454,-1.4037480001596587,0.2274509221315384,0.15401457250118256,0.06302138417959213,0.2274509221315384,0.15401457250118256,0.06302138417959213,0.0
163,0.8814655609934579,0.1988499624070006,0.1913513553211379,-0.26221429169800037,2.473781353975416,0.26730555295944214,-0.28537309169769287,0.16064484417438507,0.26730555295944214,-0.28537309169769287,0.16064484417438507,0.0
164,0.9078973264737225,0.41293747636845524,1.208095719114905,0.9990108264510489,0.9909966185377672,0.00854424573481083,0.027915500104427338,-0.0019765591714531183,0.00854424573481083,0.027915500104427338,-0.0019765591714531183,0.0
165,0.7617856063615474,0.21077065837540832,0.047123060999477495,1.2501950071215726,-0.28197335513369026,0.19631189107894897,-0.1471939980983734,0.0320560559630394,0.19631189107894897,-0.1471939980983734,0.0320560559630394,0.0
166,-0.4895749024687195,1.4177119030200127,0.050558599165532625,0.2065612671346726,-2.3335169495824006,0.1721222698688507,0.0771637111902237,-0.18651176989078522,0.1721222698688507,0.0771637111902237,-0.18651176989078522,0.0
167,0.9931428600927408,0.7161438441417487,0.2799921210773477,-0.8114613841238506,0.207106387578043,0.2330646961927414,-0.30097800493240356,0.03585682064294815,0.2330646961927414,-0.30097800493240356,0.03585682064294815,0.0
168,1.6456741810885722,0.1649064364948427,0.18498379456674496,0.23834697762232016,-0.6931916341932363,0.0188251044601202,-0.33359676599502563,0.08836609125137329,0.0188251044601202,-0.33359676599502563,0.08836609125137329,0.0
169,-1.5811535884230814,-1.2717882081255045,-1.6141244580364755,-0.4741313723043832,-1.8040735940269115,0.03505149856209755,-0.3558286130428314,0.16915245354175568,0.03505149856209755,-0.3558286130428314,0.16915245354175568,0.0
170,1.6597673335204028,-0.0744195141401347,0.35106347797940396,1.4469474952581092,2.604684402195266,0.019960876554250717,-0.16250067949295044,0.04070426896214485,0.019960876554250717,-0.16250067949295044,0.04070426896214485,0.0
171,1.5370889894111603,-0.23788433216120164,0.5039664046485264,0.3756760986719423,-1.9470515277388585,0.0557829923927784,-0.2915773391723633,0.10927797108888626,0.0557829923927784,-0.2915773391723633,0.10927797108888626,0.0
172,-0.5496705486272471,-0.33027307777734616,-1.3072093380852179,-0.37913097271725316,-2.671040270675705,-0.02159939520061016,-0.03320836275815964,0.5070145726203918,-0.02159939520061016,-0.03320836275815964,0.5070145726203918,0.0
173,-0.10255973928405338,-1.296296878395216,-1.3390290340761735,-0.7234571610662323,1.75172523792392,-0.30461087822914124,-0.04337230324745178,0.19939178228378296,-0.30461087822914124,-0.04337230324745178,0.19939178228378296,0.0
174,1.3211313999775798,1.2446195027639333,-0.6876809415139205,0.23850690179211465,0.6333053150806984,0.1257094293832779,-0.35979363322257996,-0.05898955464363098,0.1257094293832779,-0.35979363322257996,-0.05898955464363098,0.0
175,0.308682627260604,-1.1970286295423733,0.2146922392943993,0.70377952755843,2.271129620907648,0.187544584274292,-0.05405973643064499,0.3474210500717163,0.187544584274292,-0.05405973643064499,0.3474210500717163,0.0
176,-0.7195896924524692,1.729724190248373,0.5564792109537597,0.9659978784847738,0.2823316236336435,-0.038558222353458405,-0.07077421247959137,-0.008935732766985893,-0.038558222353458405,-0.07077421247959137,-0.008935732766985893,0.0
177,-1.5779258058601733,-1.5945180643075498,-1.0141510311691362,-0.23562896538539713,2.7561411289501976,0.04467817395925522,-0.35597506165504456,0.2456800937652588,0.04467817395925522,-0.35597506165504456,0.2456800937652588,0.0
178,-1.8606399473123885,-1.440808300447296,1.1549021298633089,0.7555697393659708,-1.4260200818469035,-0.023359790444374084,0.1817147433757782,0.1290569007396698,-0.023359790444374084,0.1817147433757782,0.1290569007396698,0.0
179,-0.6158114138947473,-0.7048870427573231,1.0307292288479695,-1.3778736507561946,1.337774235382053,0.19757473468780518,0.1027374267578125,0.3195231556892395,0.19757473468780518,0.1027374267578125,0.3195231556892395,0.0
180,-1.0245998034141897,1.1730535188675355,0.43547836650395544,-0.5297907634446146,0.062331501483343654,0.1501133143901825,0.18209174275398254,-0.14467822015285492,0.1501133143901825,0.18209174275398254,-0.14467822015285492,0.0
181,0.42879162871661425,1.465821430743338,1.1233591556772589,1.5776997202058192,2.0548971124888844,-0.011886523105204105,0.015217372216284275,0.15962140262126923,-0.011886523105204105,0.015217372216284275,0.15962140262126923,0.0
182,-1.6281148845097766,0.0495137286083398,-0.500661106896362,0.1403445847412299,-2.309061138711246,0.014210929162800312,0.3321399390697479,0.34501945972442627,0.014210929162800312,0.3321399390697479,0.34501945972442627,0.0
183,-1.875491953137588,1.1849792312494865,-1.481565837328671,-1.2754744226447945,-2.6483066034014966,-0.04407116770744324,0.25222620368003845,0.33663809299468994,-0.04407116770744324,0.25222620368003845,0.33663809299468994,0.0
184,-0.8954364580015077,1.2956230160730033,-0.49373670468064224,0.21904952377110076,-0.8482119081238342,0.23603153228759766,0.2555587589740753,-0.11151301115751266,0.23603153228759766,0.2555587589740753,-0.11151301115751266,0.0
185,1.697806303250173,-0.39568786961712266,-0.7304788554949406,-0.9467934221374812,0.08340250374486047,0.038620755076408386,0.0036066952161490917,0.4986504018306732,0.038620755076408386,0.0036066952161490917,0.4986504018306732,0.0
186,1.166992585405664,-1.4974669831674934,1.5262497034776117,1.4898858443166028,1.779442727964054,0.05705087259411812,-0.06284251809120178,-0.004847239702939987,0.05705087259411812,-0.06284251809120178,-0.004847239702939987,0.0
187,-1.740853489877634,-0.5119506234710489,-1.0400068088150962,-0.9804801246057363,-0.9476634709626603,0.05476555973291397,-0.1302049309015274,0.4582035541534424,0.05476555973291397,-0.1302049309015274,0.4582035541534424,0.0
188,0.6227188620059358,0.9406013941336413,-1.171245238273186,0.1338223295560761,0.23865813147355075,0.38476142287254333,-0.2506982982158661,0.2039298564195633,0.38476142287254333,-0.2506982982158661,0.2039298564195633,0.0
189,1.3040238498553531,0.264013569386901,-0.5364825438901684,0.46727842373839823,-1.448362774001988,0.14415611326694489,-0.3562261462211609,0.2276662290096283,0.14415611326694489,-0.3562261462211609,0.2276662290096283,0.0
190,-1.5912252281153616,0.4347337134958491,1.657431319144937,-1.4446246352871905,2.7122917016288266,0.038941532373428345,0.17185072600841522,-0.0030347383581101894,0.038941532373428345,0.17185072600841522,-0.0030347383581101894,0.0
191,1.3327909909248414,-0.465247781549768,-0.7824823029902885,0.3898922266836651,2.563050363473847,0.0678141638636589,-0.13911651074886322,0.4840509295463562,0.0678141638636589,-0.13911651074886322,0.4840509295463562,0.0
192,-0.5351747455880602,0.3437383950214956,0.3042663983494458,-1.1216132425132264,0.5418694303796805,0.3421808183193207,0.17507466673851013,0.20239374041557312,0.3421808183193207,0.17507466673851013,0.20239374041557312,0.0
193,-1.6769971221414601,0.32212529113621313,0.27349308191280364,-0.7580197774306251,-0.8557967044451444,-0.005736211780458689,0.36245059967041016,0.1638978272676468,-0.005736211780458689,0.36245059967041016,0.1638978272676468,0.0
194,-0.973672123052904,-0.37280198308141643,0.32431916793107884,1.430696976444551,1.8379085857758302,0.14748665690422058,0.14585328102111816,0.08732447773218155,0.14748665690422058,0.14585328102111816,0.08732447773218155,0.0
195,0.16339549242847928,1.3156062659079777,1.6162231765483166,-0.8745353433947666,-0.4647685378934625,-0.024815985932946205,0.014053991064429283,-0.05273905023932457,-0.024815985932946205,0.014053991064429283,-0.05273905023932457,0.0
196,1.4042290441404086,0.6631076789417718,0.9529379225325516,1.4298508909470498,0.9763310051264424,0.02598278410732746,0.03645607829093933,0.04240913316607475,0.02598278410732746,0.03645607829093933,0.04240913316607475,0.0
197,-0.15286616643436712,1.2389854220326555,-0.47830065355382234,-0.7286218643101148,2.7254319908269657,0.44125649333000183,0.058437373489141464,0.03961474075913429,0.44125649333000183,0.058437373489141464,0.03961474075913429,0.0
198,1.1998393430291858,1.2405838822021509,-0.7048702369729551,-1.066708351916091,1.668943368401755,0.17691724002361298,-0.3772180676460266,0.1433802992105484,0.17691724002361298,-0.3772180676460266,0.1433802992105484,0.0
199,-0.5832354461201923,0.2473134253868854,0.8951210138437435,-0.777658960453761,-1.035995640116194,0.27990010380744934,0.16709083318710327,0.03790958598256111,0.27990010380744934,0.16709083318710327,0.03790958598256111,0.0
200,0.26076096138595606,0.5625406066387613,0.9432252636592211,0.4617735096146267,0.9837991222453315,0.09739416092634201,-0.02252197079360485,-0.08250191807746887,0.09739416092634201,-0.02252197079360485,-0.08250191807746887,0.0
201,-1.4595211327592812,0.9197030733098379,-0.254059824487209,-0.6484281156292879,2.678456431645695,0.08769955486059189,0.40261000394821167,0.08758711069822311,0.08769955486059189,0.40261000394821167,0.08758711069822311,0.0
202,-0.0819632003512829,-1.0840084633505593,-1.4764469492336585,-0.9367096348547517,2.181030011552128,-0.2788844406604767,-0.03287312760949135,0.20416763424873352,-0.2788844406604767,-0.03287312760949135,0.20416763424873352,0.0
203,-1.8090309020970115,0.1827593251402515,1.404488002113855,0.5553761660642687,2.0816885189728414,0.04617879167199135,6.490075611509383e-05,-0.04866974055767059,0.04617879167199135,6.490075611509383e-05,-0.04866974055767059,0.0
204,-0.26976832270156237,-0.2099126775868252,1.0240561175519525,-1.3089936174732595,-0.8099484146096885,0.3008115887641907,0.07831230014562607,0.20894190669059753,0.3008115887641907,0.07831230014562607,0.20894190669059753,0.0
205,-1.2114081501751681,1.7246041510104413,-0.6916220542470674,-0.7549356228928883,-0.44110716334958466,0.16304856538772583,0.3401361405849457,-0.09201229363679886,0.16304856538772583,0.3401361405849457,-0.09201229363679886,0.0
206,1.623039771893402,-0.6921413507147005,0.5157457890163042,-0.6981222720824933,2.823802023321183,0.02515253610908985,-0.2079828530550003,0.37687161564826965,0.02515253610908985,-0.2079828530550003,0.37687161564826965,0.0
207,0.030919758944836007,-0.3768483212434861,-0.6689307751615241,-1.1423145727699557,-1.224346536282791,0.027085309848189354,0.007676518987864256,0.48221513628959656,0.027085309848189354,0.007676518987864256,0.48221513628959656,0.0
208,-0.10681438031952517,-0.8184105308535252,-0.8395731699392794,-0.4985334499882532,-2.6317986044087474,-0.1041366457939148,-0.011778710409998894,0.47673311829566956,-0.1041366457939148,-0.011778710409998894,0.47673311829566956,0.0
209,1.508178629671645,-1.5747626365555691,0.49584332229195294,0.41958497176304754,-2.69132229025348,0.04809210076928139,-0.097910076379776,0.36873769760131836,0.04809210076928139,-0.097910076379776,0.36873769760131836,0.0
210,-0.6721093092172725,0.503127382050693,1.2865397380877148,-0.7970823865424324,1.012554687394259,0.17483127117156982,0.09953418374061584,-0.06679847836494446,0.17483127117156982,0.09953418374061584,-0.06679847836494446,0.0
211,-0.7335499848645952,1.3464939432082108,-1.194803936977002,-0.5089100711979169,1.4617682679600428,0.3636394143104553,0.2819708585739136,0.15381425619125366,0.3636394143104553,0.2819708585739136,0.15381425619125366,0.0
212,0.9377537266215858,1.706152118642513,0.22858197015873727,0.48097203692317936,2.205092738742792,0.021018564701080322,0.013056104071438313,-0.1633465737104416,0.021018564701080322,0.013056104071438313,-0.1633465737104416,0.0
213,1.230647559270083,-1.4778647659823119,1.187058546760329,1.5950118148062942,-0.7467197254444942,0.07224183529615402,-0.07847216725349426,0.04348534345626831,0.07224183529615402,-0.07847216725349426,0.04348534345626831,0.0
214,-0.2543358070344537,1.1038348221080687,0.45702013465776403,1.635393427949303,-1.9315204407687196,0.02823958545923233,0.004639815539121628,0.013189973309636116,0.02823958545923233,0.004639815539121628,0.013189973309636116,0.0
215,-0.9149641854446879,-0.29330871383825197,1.0358608172272756,-1.318911416570558,-0.7218619113417009,0.19587364792823792,0.212569922208786,0.22696956992149353,0.19587364792823792,0.212569922208786,0.22696956992149353,0.0
216,-0.4768498295614614,-1.3672920932671175,0.4180483762545828,-0.9148949306619942,2.5880968402620583,-0.005539356265217066,-0.027960138395428658,0.4299778938293457,-0.005539356265217066,-0.027960138395428658,0.4299778938293457,0.0
217,0.548186858071996,-0.2489308025094783,-0.4132274968659966,0.8705769518774285,-0.11190934912724293,0.284370094537735,-0.14890550076961517,0.27902933955192566,0.284370094537735,-0.14890550076961517,0.27902933955192566,0.0
218,0.8388335879287325,1.3023579060228516,1.614504522843661,1.4466071501251718,1.3124213296859217,0.008742156438529491,0.021861454471945763,0.23470674455165863,0.008742156438529491,0.021861454471945763,0.23470674455165863,0.0
219,1.6504521221389155,0.796235812229174,0.9127811846773612,0.8484343974071773,-0.699206037318242,0.045374102890491486,0.018636824563145638,-0.04186703637242317,0.045374102890491486,0.018636824563145638,-0.04186703637242317,0.0
220,-0.587930034759476,-1.710555013604768,-0.8229555672419274,0.8947234603234413,-2.5506811839405676,-0.1432620733976364,-0.11647100001573563,0.3598518371582031,-0.1432620733976364,-0.11647100001573563,0.3598518371582031,0.0
221,-1.2141208523568854,1.3232878325951685,1.2284763689756533,-0.9450816265195036,0.1184420983899308,0.0479656346142292,0.021795667707920074,-0.12116583436727524,0.0479656346142292,0.021795667707920074,-0.12116583436727524,0.0
222,1.0931761575368464,-1.3300800009023723,-1.5420429703793839,0.3719154978835697,-2.489501275134256,-0.11120345443487167,0.29963141679763794,0.2916833758354187,-0.11120345443487167,0.29963141679763794,0.2916833758354187,0.0
223,-0.6467173812316995,0.7343101768778872,-1.349833724190822,0.2721018260484529,0.46331907589973964,0.34910231828689575,0.2298051416873932,0.3104226589202881,0.34910231828689575,0.2298051416873932,0.3104226589202881,0.0
224,-1.1468003508644065,0.7696629100784325,0.7399975004632253,-1.2199977263875867,0.11842934726522403,0.16008271276950836,0.2663244605064392,-0.00938965380191803,0.16008271276950836,0.2663244605064392,-0.00938965380191803,0.0
225,-1.4079111589465358,1.4907526786009049,1.0785969841196188,1.53665520190115,2.6684515337444674,0.03262220695614815,-0.06202027574181557,0.1471421867609024,0.03262220695614815,-0.06202027574181557,0.1471421867609024,0.0
226,1.1155159765742892,0.11665812524153663,1.533005799399057,1.6416164459202787,2.2965893090874863,-0.007336851675063372,0.08021185547113419,0.10893802344799042,-0.007336851675063372,0.08021185547113419,0.10893802344799042,0.0
227,-0.5482864629131938,1.0838526208838672,-0.12252601001361696,-0.6585988064807415,-1.4011568087013533,0.35583198070526123,0.20255906879901886,-0.01169025432318449,0.35583198070526123,0.20255906879901886,-0.01169025432318449,0.0
228,0.6775607660478182,-0.465211034118276,-1.6055852894884888,0.7474758094853813,-1.8529185713914162,0.021949170157313347,0.02303890697658062,0.5006153583526611,0.021949170157313347,0.02303890697658062,0.5006153583526611,0.0
229,0.4943910625895387,0.08333004752086515,0.5679630147552404,1.2417280356584943,0.6091289540782951,0.14357809722423553,-0.06164192035794258,-0.00014455975906457752,0.14357809722423553,-0.06164192035794258,-0.00014455975906457752,0.0
230,-1.174178116387155,-0.8269987160962788,1.6104845193940136,1.2142318225911695,0.4218055847782929,0.03921706601977348,-0.0075285001657903194,-0.020020561292767525,0.03921706601977348,-0.0075285001657903194,-0.020020561292767525,0.0
231,1.1014660218990864,-0.06302013416916363,-1.2760568312333946,-0.09136295040817233,1.950633258822994,0.0758139044046402,-0.08967163413763046,0.5212484002113342,0.0758139044046402,-0.08967163413763046,0.5212484002113342,0.0
232,-0.1887081408164344,-0.26214372886753035,1.1479982999240455,0.17593733852551474,2.1947978096856877,0.23569919168949127,0.030790656805038452,-0.005461776629090309,0.23569919168949127,0.030790656805038452,-0.005461776629090309,0.0
233,0.31992362433013444,1.5109744654265453,0.007978198610844922,0.3225128071870189,-1.8000342708137538,0.15124385058879852,-0.029361095279455185,-0.19302262365818024,0.15124385058879852,-0.029361095279455185,-0.19302262365818024,0.0
234,1.0907538895063222,0.21107751961652133,0.9110734355143841,1.3805082581487882,-2.195550128541058,0.05331828445196152,-0.01453403104096651,0.0027386678848415613,0.05331828445196152,-0.01453403104096651,0.0027386678848415613,0.0
235,-1.2934371203932211,0.019175719380918332,-0.09312028661155813,1.6369319358126144,-1.4784105651630703,0.08492164313793182,0.19002345204353333,0.08453794568777084,0.08492164313793182,0.19002345204353333,0.08453794568777084,0.0
236,-0.5245515507028051,1.448099375452327,0.5466958807540343,-1.521107797233997,-1.7718559167377248,0.24044018983840942,0.12535618245601654,-0.0935901328921318,0.24044018983840942,0.12535618245601654,-0.0935901328921318,0.0
237,-1.8504820573676144,-0.4621583046822999,0.6353504549541231,-1.3337140378761771,-1.022324061205795,-0.024482054635882378,0.19635266065597534,0.3561480641365051,-0.024482054635882378,0.19635266065597534,0.3561480641365051,0.0
238,0.30900043358784046,-0.2736132400585669,-0.8415122912762056,-0.13651759285566922,1.1910609682427364,0.16471879184246063,-0.04801034554839134,0.5061917304992676,0.16471879184246063,-0.04801034554839134,0.5061917304992676,0.0
239,-1.8207856402245062,1.2645671913189704,-1.133480415816806,0.34202469248155265,-1.0109833009005849,-0.07159334421157837,0.40577957034111023,0.035200707614421844,-0.07159334421157837,0.40577957034111023,0.035200707614421844,0.0
240,1.7471813207932447,-0.8313530297379448,-0.1710630979362533,-0.8569633762944999,0.49072383517817997,0.035882335156202316,0.004826494958251715,0.4842833876609802,0.035882335156202316,0.004826494958251715,0.4842833876609802,0.0
241,-0.2554939819976185,0.8072561791885446,-0.4296566957746435,0.022322305462552317,-1.927624244063279,0.43003013730049133,0.10959196090698242,0.07000341266393661,0.43003013730049133,0.10959196090698242,0.07000341266393661,0.0
242,-1.3457614630173524,-1.0136847656020582,-0.697814200500849,-1.1696000245991343,-2.482134522393703,-0.016881156712770462,-0.22309479117393494,0.3675995469093323,-0.016881156712770462,-0.22309479117393494,0.3675995469093323,0.0
243,-0.7110625749661788,0.8520382570090179,1.3526954539326272,-0.5061682514218793,-2.00024535774911,0.06534869968891144,0.03199438750743866,-0.10048848390579224,0.06534869968891144,0.03199438750743866,-0.10048848390579224,0.0
244,1.1323841808880912,0.6244464528796279,-1.6147125770170854,1.0116434441689044,0.10871919530914242,0.18560367822647095,-0.31508758664131165,0.29593390226364136,0.18560367822647095,-0.31508758664131165,0.29593390226364136,0.0
245,1.109406561736185,0.025667422405854623,-0.3643069472902569,1.3639382124535866,-2.011133931491432,0.1662905514240265,-0.2408556342124939,0.1438402682542801,0.1662905514240265,-0.2408556342124939,0.1438402682542801,0.0
246,-1.4270777081615873,-1.7374160972397426,0.6638549308475485,-0.43601938942574336,-2.0917419884247717,0.02947368659079075,-0.018660614266991615,0.40576523542404175,0.02947368659079075,-0.018660614266991615,0.40576523542404175,0.0
247,-1.8359426498847475,-0.07777412758455338,-0.5435984448297071,1.2907769489016763,-0.24199938748085836,-0.03539744019508362,0.2662048935890198,0.2089790254831314,-0.03539744019508362,0.2662048935890198,0.2089790254831314,0.0
248,-1.1241345262783222,1.6402618376818934,-0.39847947393202987,0.14407560836432332,-2.51129790112762,0.13206878304481506,0.20472677052021027,-0.2004491090774536,0.13206878304481506,0.20472677052021027,-0.2004491090774536,0.0
249,0.9063283455001647,-1.1900332664179596,-1.3286976795989993,1.0171581262411868,0.6308649836118803,-0.06280843913555145,0.1221349909901619,0.4172990024089813,-0.06280843913555145,0.1221349909901619,0.4172990024089813,0.0
250,1.0028912866540791,0.4412124904309427,-0.03471396930587156,0.19560053364100916,0.04193529208166513,0.23030060529708862,-0.3007268011569977,0.06117616966366768,0.23030060529708862,-0.3007268011569977,0.06117616966366768,0.0
251,0.314840062809322,1.2746951685939427,-0.6531841047664801,-0.4211928187677145,1.6718452620242736,0.43104836344718933,-0.136201873421669,0.01728219725191593,0.43104836344718933,-0.136201873421669,0.01728219725191593,0.0
252,1.6645757247022566,0.9823666291498871,-0.8244884404504401,-0.45997099606177705,1.483076388271325,-0.009041711688041687,-0.42326655983924866,0.1862717568874359,-0.009041711688041687,-0.42326655983924866,0.1862717568874359,0.0
253,-1.7042500727433043,-0.6499118370796266,-0.36536581790474054,-0.0989507329989543,2.0016605461834374,0.0304047130048275,0.11860212683677673,0.48482805490493774,0.0304047130048275,0.11860212683677673,0.48482805490493774,0.0
254,-1.7397701258868603,0.9588454434417883,-1.6159469510608702,1.2057802892951457,-2.66555591750244,-0.028625857084989548,0.37582409381866455,0.16787868738174438,-0.028625857084989548,0.37582409381866455,0.16787868738174438,0.0
255,-1.2966623159809587,1.3730863813654461,0.1239030835610011,0.3402043806766626,-1.993367888789868,0.06536819040775299,0.12006603181362152,-0.1773955374956131,0.06536819040775299,0.12006603181362152,-0.1773955374956131,0.0
256,0.0012406577098371674,-0.5577996032768495,-1.2504827776612668,-0.038860813816224304,2.773270494565428,-0.05386911705136299,-0.0030645527876913548,0.5080090165138245,-0.05386911705136299,-0.0030645527876913548,0.5080090165138245,0.0
257,-0.9290789342195934,0.7735321258636159,-0.8155661935943325,-1.6204350456690704,0.4289340796718353,0.1948951929807663,0.2033233344554901,0.34766319394111633,0.1948951929807663,0.2033233344554901,0.34766319394111633,0.0
258,1.0564985388278774,0.962464846894767,-0.9821300380728561,1.269694049579172,-1.31967341860121,0.2038019895553589,-0.27668315172195435,0.014134397730231285,0.2038019895553589,-0.27668315172195435,0.014134397730231285,0.0
259,1.8880942051121137,-0.4230711552843569,-1.1647799484380048,-0.7157754775698284,1.1233517582592665,0.06368278712034225,0.0988343134522438,0.4862706661224365,0.06368278712034225,0.0988343134522438,0.4862706661224365,0.0
260,-0.6063460962213179,1.4047422294966574,1.6678817127932226,0.3787061082004841,-1.901555764924094,-0.08087024092674255,-0.07420411705970764,0.13904725015163422,-0.08087024092674255,-0.07420411705970764,0.13904725015163422,0.0
261,-0.19261481275070014,-0.5338632069035807,-1.4405779753549868,0.48296455741213173,1.6022016166880038,-0.006742929108440876,-0.017123131081461906,0.5085033774375916,-0.006742929108440876,-0.017123131081461906,0.5085033774375916,0.0
262,-0.003887169540508939,-0.029187353856293674,0.7528238931412106,0.8638533272245679,1.1491138781860437,0.19245918095111847,-0.006720222998410463,-0.01463182084262371,0.19245918095111847,-0.006720222998410463,-0.01463182084262371,0.0
263,1.4047897283569188,0.995838075438225,0.343687348402713,1.4978362160785947,1.5342986851930434,0.034849271178245544,-0.025029759854078293,-0.023063689470291138,0.034849271178245544,-0.025029759854078293,-0.023063689470291138,0.0
264,-0.8158992773257983,1.1542941049163504,-0.5541210435758022,-0.6530639223885748,2.058120397670822,0.3303534984588623,0.2993089556694031,0.07660477608442307,0.3303534984588623,0.2993089556694031,0.07660477608442307,0.0
265,-1.3427910916471717,0.08476812221339669,0.3249062331456818,0.9101185793105577,1.9595677916426002,0.09952100366353989,0.22812549769878387,0.023901479318737984,0.09952100366353989,0.22812549769878387,0.023901479318737984,0.0
266,0.7128472314701697,-0.4462478048566676,-0.7690065867304383,0.4284637175770094,0.9838474788565157,0.15913963317871094,-0.11281096190214157,0.46806374192237854,0.15913963317871094,-0.11281096190214157,0.46806374192237854,0.0
267,-1.5718627340133184,1.7119715727505551,-0.5879150818711114,0.35298076312388704,-2.103745465728115,0.03205610439181328,0.21992096304893494,-0.20451287925243378,0.03205610439181328,0.21992096304893494,-0.20451287925243378,0.0
268,0.11798460942301014,-0.4882051070240878,-0.3170441595182354,1.2165227393050382,2.760655250920398,0.2776883542537689,-0.031604181975126266,0.273030549287796,0.2776883542537689,-0.031604181975126266,0.273030549287796,0.0
269,0.49010055180662615,0.9836394017891665,0.8272989015071377,-0.11432600652496783,2.4855070201173044,0.12352434545755386,-0.05099566653370857,-0.13535438477993011,0.12352434545755386,-0.05099566653370857,-0.13535438477993011,0.0
270,-1.7335505808885865,0.31950224418203277,-0.7367799906713581,-0.204936251211437,-1.093204382136024,-0.023889943957328796,0.3392926752567291,0.3640778958797455,-0.023889943957328796,0.3392926752567291,0.3640778958797455,0.0
271,-0.12548843634786966,0.9442378063276546,-1.0782106113967145,-0.6961885348505256,1.2973812587309936,0.4169478416442871,0.03989949822425842,0.29906705021858215,0.4169478416442871,0.03989949822425842,0.29906705021858215,0.0
272,1.5429720966843607,-0.2970817947914357,-1.5196379138166327,-1.6574071823963152,-2.5073921414722213,0.03869400918483734,0.1621183454990387,0.30392271280288696,0.03869400918483734,0.1621183454990387,0.30392271280288696,0.0
273,0.5125525252683292,0.48402922768725976,0.06202268354360907,1.3332246022446206,-0.2597918291238006,0.18795374035835266,-0.08159979432821274,-0.011809166520833969,0.18795374035835266,-0.08159979432821274,-0.011809166520833969,0.0
274,0.32821278511057095,-0.251277754855715,0.8869019730458438,1.4452207809409414,-1.2665481086259638,0.0994478389620781,-0.012811216525733471,0.01881033554673195,0.0994478389620781,-0.012811216525733471,0.01881033554673195,0.0
275,0.2763078086459454,0.9493454894759776,-0.3687975053424435,-1.4464282855991255,-2.302674843768196,0.3799060881137848,-0.09090307354927063,0.21451324224472046,0.3799060881137848,-0.09090307354927063,0.21451324224472046,0.0
276,1.3565517164651921,-0.432234691903967,-0.7511017991364246,0.34012575742853746,2.8032564937419497,0.06894264370203018,-0.1522769182920456,0.4812397062778473,0.06894264370203018,-0.1522769182920456,0.4812397062778473,0.0
277,-1.0605419496456148,-1.5062052637707817,1.2140635974887983,-0.6257486768635716,0.958640143681531,0.11683271825313568,0.12595108151435852,0.31927621364593506,0.11683271825313568,0.12595108151435852,0.31927621364593506,0.0
278,1.581488484178093,0.8464517486622487,1.4528854195558263,-0.6855497490075765,2.459676745464976,0.033051762729883194,-0.04644828289747238,-0.0932326540350914,0.033051762729883194,-0.04644828289747238,-0.0932326540350914,0.0
279,0.017401170606405225,0.12129484135316582,-0.44226580664577475,1.0910903137698835,-2.5355440519529244,0.3559296727180481,-0.0013297110563144088,0.16632185876369476,0.3559296727180481,-0.0013297110563144088,0.16632185876369476,0.0
280,-0.23480798985213447,1.2987384563022015,0.04462371064605297,-0.9153498928196759,0.9141379011069652,0.35604339838027954,0.06937254965305328,-0.08097106218338013,0.35604339838027954,0.06937254965305328,-0.08097106218338013,0.0
281,1.6198115635446815,-0.8602305222099346,-0.9307274812733679,-0.09017859145932516,-1.7617805594978546,0.05232245847582817,0.12089336663484573,0.4928700625896454,0.05232245847582817,0.12089336663484573,0.4928700625896454,0.0
282,0.14226376447968825,0.43301120678484706,0.5543184646514749,1.0399305305895028,-1.8234623878256906,0.15218620002269745,-0.008727360516786575,-0.046552516520023346,0.15218620002269745,-0.008727360516786575,-0.046552516520023346,0.0
283,0.06647232873233389,-1.3032059087146162,-1.5498343274902946,-1.3637690387822916,0.7953455382976888,-0.24317307770252228,0.013055684044957161,0.06938553601503372,-0.24317307770252228,0.013055684044957161,0.06938553601503372,0.0
284,-1.6207306587805888,0.643063992803572,0.811949608692883,1.4897631533060893,2.076684912218469,0.04671378433704376,-0.013998817652463913,0.02175009809434414,0.04671378433704376,-0.013998817652463913,0.02175009809434414,0.0
285,-0.9522267414692984,-1.0069505636212943,0.9591055278288136,-0.8734394013628197,1.925284021482348,0.14883394539356232,0.1413629800081253,0.340443879365921,0.14883394539356232,0.1413629800081253,0.340443879365921,0.0
286,-0.14819109209408277,0.11303367526320773,-0.6160010709981458,1.2595319974897008,0.9524091177408485,0.33567604422569275,0.03772430866956711,0.18214811384677887,0.33567604422569275,0.03772430866956711,0.18214811384677887,0.0
287,0.14137694918063337,1.2487743896533878,0.5034707270843284,-0.18262795774377194,-1.214365422841507,0.16302400827407837,-0.010315315797924995,-0.16718769073486328,0.16302400827407837,-0.010315315797924995,-0.16718769073486328,0.0
288,-0.4764998858587124,0.43431216356760594,-0.7896025997428932,-0.35107774137733405,0.8117344623820695,0.354787141084671,0.15656502544879913,0.35786208510398865,0.354787141084671,0.15656502544879913,0.35786208510398865,0.0
289,0.5945944419608153,0.5088944295738553,0.3083729926661436,-1.2250459062845098,-2.3843477409905196,0.33134108781814575,-0.19160734117031097,0.17496360838413239,0.33134108781814575,-0.19160734117031097,0.17496360838413239,0.0
290,0.8651767747411316,-0.47288185006476446,-0.2772885987613978,0.34792377754879555,-2.051837128336645,0.2023581713438034,-0.18153166770935059,0.3911788761615753,0.2023581713438034,-0.18153166770935059,0.3911788761615753,0.0
291,1.2182117489984439,1.1347024240789048,1.3938013279331942,-1.2772899630809236,2.07990979230484,0.06335800141096115,-0.08737102150917053,-0.09310408681631088,0.06335800141096115,-0.08737102150917053,-0.09310408681631088,0.0
292,1.8143837497156143,1.6643896878921463,0.4684408642412392,-0.3633369102322388,-1.166065960562059,0.03660040348768234,-0.038642141968011856,-0.1942281872034073,0.03660040348768234,-0.038642141968011856,-0.1942281872034073,0.0
293,1.6108360074975825,0.06051565094456102,0.5797981035686499,0.45732301942144926,-0.11727364157581643,0.03006010502576828,-0.2418755292892456,0.005544136743992567,0.03006010502576828,-0.2418755292892456,0.005544136743992567,0.0
294,1.6667068019208395,0.36571521131591256,-0.121796712425436,0.5674440965492609,2.249661716413117,-0.0003253650793340057,-0.3399133086204529,0.07202978432178497,-0.0003253650793340057,-0.3399133086204529,0.07202978432178497,0.0
295,1.8581665746516904,-0.8885680125993778,1.420711594797714,-0.32328961109339716,-0.06720161118126411,-0.026903240010142326,-0.22426417469978333,0.10463079810142517,-0.026903240010142326,-0.22426417469978333,0.10463079810142517,0.0
296,-0.8624533151555518,-1.5579597838589125,1.1299815404092555,-0.4094092441149606,2.4614718575939216,0.13449053466320038,0.10355261713266373,0.3290936350822449,0.13449053466320038,0.10355261713266373,0.3290936350822449,0.0
297,1.7120365335230852,0.604488801548452,1.5021933634242335,1.5223699416773024,2.687789469786499,0.04788707569241524,0.09059560298919678,0.14303308725357056,0.04788707569241524,0.09059560298919678,0.14303308725357056,0.0
298,0.3075735525852834,-1.34707345279693,0.2524019867597447,0.9586547783092512,0.49332803621519883,0.1737593710422516,-0.04681723192334175,0.3057748079299927,0.1737593710422516,-0.04681723192334175,0.3057748079299927,0.0
299,-1.4946281545035425,0.06945070512446327,-0.27633449037169955,0.10107288306274387,-0.8751210626678425,0.05994240567088127,0.35537999868392944,0.27166464924812317,0.05994240567088127,0.35537999868392944,0.27166464924812317,0.0
300,1.7378023146557355,-0.15196841155944418,-0.12839428571987854,-0.45905242886836617,1.6262955272724362,-0.016783470287919044,-0.28136199712753296,0.38193297386169434,-0.016783470287919044,-0.28136199712753296,0.38193297386169434,0.0
301,1.0936753047383556,0.8342551658019661,1.0676232121093454,-0.5044515100203462,1.9147477391176588,0.08878200501203537,-0.1133214607834816,-0.11419744044542313,0.08878200501203537,-0.1133214607834816,-0.11419744044542313,0.0
302,0.7943723664310802,1.4148754452487582,-0.47658394317225095,-0.20448977043478034,1.5353390120706036,0.27682626247406006,-0.2538112998008728,-0.10627426207065582,0.27682626247406006,-0.2538112998008728,-0.10627426207065582,0.0
303,-0.84598407110525,0.17056944546067587,1.1639424230640527,0.32333227591096914,-0.13127013357821937,0.09913905709981918,0.06963466852903366,-0.06509602814912796,0.09913905709981918,0.06963466852903366,-0.06509602814912796,0.0
304,1.2706963047516946,0.7500573938139601,-1.0023255240819982,1.2978608384378616,0.5492718748615659,0.13267727196216583,-0.31732505559921265,0.07739172875881195,0.13267727196216583,-0.31732505559921265,0.07739172875881195,0.0
305,-0.6171276426681884,1.5486402108384993,-0.6100694746704356,-1.3339577255743078,1.914024154392104,0.34784257411956787,0.20985911786556244,0.048987679183483124,0.34784257411956787,0.20985911786556244,0.048987679183483124,0.0
306,-1.7551379609793332,1.3855195170858527,1.656559246202876,0.5479924665500702,2.367978310684845,0.06900668144226074,-0.1300707310438156,0.15529103577136993,0.06900668144226074,-0.1300707310438156,0.15529103577136993,0.0
307,0.07584479926459253,0.9266695968903109,0.4118504938192862,0.6363016801329857,2.505677866619652,0.15462030470371246,-0.013816002756357193,-0.11713884025812149,0.15462030470371246,-0.013816002756357193,-0.11713884025812149,0.0
308,-1.2822947552906503,1.1295196430503305,-0.17852743936377102,-0.006664598718747028,0.41214373747172806,0.13127854466438293,0.3002811670303345,-0.10069933533668518,0.13127854466438293,0.3002811670303345,-0.10069933533668518,0.0
309,-0.369365815864068,-1.2983441753744018,-1.2224405447770512,0.500235868338829,-2.2063964744097957,-0.20284633338451385,-0.08704406023025513,0.3893941640853882,-0.20284633338451385,-0.08704406023025513,0.3893941640853882,0.0
310,-0.4240298039911252,-1.171773950002579,-0.9012282738826523,-1.2936469280525231,-2.640625616125049,-0.2228897362947464,-0.114340640604496,0.2595072388648987,-0.2228897362947464,-0.114340640604496,0.2595072388648987,0.0
311,0.32679570522567847,-0.3701828449162756,-0.036761399400213834,-0.08884326452028479,2.4993597114905377,0.2973724603652954,-0.09295529127120972,0.37107035517692566,0.2973724603652954,-0.09295529127120972,0.37107035517692566,0.0
312,-1.1711296184579942,0.4874433080186762,-0.08496904155060059,1.6538944670615787,-0.8075551917197021,0.09393783658742905,0.14496619999408722,0.016560951247811317,0.09393783658742905,0.14496619999408722,0.016560951247811317,0.0
313,-0.5234830420503414,0.20470401458353948,0.556553028218163,-0.7703817024310874,-0.9539636230945778,0.33116817474365234,0.17608363926410675,0.12885412573814392,0.33116817474365234,0.17608363926410675,0.12885412573814392,0.0
314,0.8837620414445011,1.364709355237499,0.19626490713685585,0.7484998034720192,-2.5881989152784506,0.0739348828792572,-0.03674027696251869,-0.14492598176002502,0.0739348828792572,-0.03674027696251869,-0.14492598176002502,0.0
315,-1.8428637369467413,-1.1353340924421866,-0.8142853521401877,-0.5740577752194507,-1.7344034818588854,0.09741618484258652,-0.23822224140167236,0.40394657850265503,0.09741618484258652,-0.23822224140167236,0.40394657850265503,0.0
316,-0.2796337622122296,0.19855544170400896,-0.8123500487290227,0.45085009248231445,-2.540172940327924,0.36773034930229187,0.09877002239227295,0.33573827147483826,0.36773034930229187,0.09877002239227295,0.33573827147483826,0.0
317,-1.806026556519378,-0.02547513250216582,0.6244223258828066,0.5155799714273657,0.06656798469874348,-0.014934857375919819,0.2266511172056198,0.011672226712107658,-0.014934857375919819,0.2266511172056198,0.011672226712107658,0.0
318,-1.0993642949735318,-1.276768345979604,-0.2424449184807973,-1.2580660554346663,-0.15382261989444768,-0.05917945131659508,-0.18963974714279175,0.37501490116119385,-0.05917945131659508,-0.18963974714279175,0.37501490116119385,0.0
319,1.049456475321072,0.37776018124632804,1.0797266401776215,-0.5969769499649851,1.927314927272998,0.14385350048542023,-0.19818662106990814,-0.04156707227230072,0.14385350048542023,-0.19818662106990814,-0.04156707227230072,0.0
320,0.26802610893195933,-0.15389461949220706,0.3034788095647236,-1.2608402615403767,1.1077181119052177,0.2769494652748108,-0.07283128052949905,0.35824716091156006,0.2769494652748108,-0.07283128052949905,0.35824716091156006,0.0
321,1.6711744503848345,-0.4366198812225037,-0.8849138400500538,0.8929311507935529,-1.835137068180904,0.028136372566223145,-0.1801428347826004,0.4306626617908478,0.028136372566223145,-0.1801428347826004,0.4306626617908478,0.0
322,0.7765304109079851,-0.9081776077287224,0.7394001568221138,-1.5967269009006444,0.065313035841843,0.08691919595003128,-0.04797768592834473,0.39345794916152954,0.08691919595003128,-0.04797768592834473,0.39345794916152954,0.0
323,0.2761881179007166,1.5712923184358987,-1.3419098740646829,0.07133786441620904,-1.6333131181040166,0.4525047540664673,-0.10924304276704788,0.016401657834649086,0.4525047540664673,-0.10924304276704788,0.016401657834649086,0.0
324,-1.4739886431884757,-0.4398994889115291,0.37574681377934027,1.1431022222577532,0.6179044491778312,0.06387626379728317,0.2100822776556015,0.10077491402626038,0.06387626379728317,0.2100822776556015,0.10077491402626038,0.0
325,0.3886178059699681,1.492927530303498,1.3530501458133943,0.5226967474773894,1.4367711628563224,-0.0915234386920929,0.04474393650889397,0.09020397812128067,-0.0915234386920929,0.04474393650889397,0.09020397812128067,0.0
326,0.8035530977555716,-1.6093952744092044,-1.1168368353579878,-0.8595573472392702,-0.11411704371257869,-0.20753197371959686,0.2567545771598816,0.12855730950832367,-0.20753197371959686,0.2567545771598816,0.12855730950832367,0.0
327,-1.4004364895310317,0.7191393799805854,-0.538774102478027,-0.43196067475555466,-1.844412905369885,0.10155778378248215,0.4081812798976898,0.20563101768493652,0.10155778378248215,0.4081812798976898,0.20563101768493652,0.0
328,0.9876524011220233,0.5108848988752501,0.22997605936413557,1.6104565074314003,1.3638422611417615,0.08710967749357224,-0.08748120069503784,0.002013430930674076,0.08710967749357224,-0.08748120069503784,0.002013430930674076,0.0
329,-0.10487742177302972,1.7347071269197785,0.38079308976347415,-0.2796891070712544,-0.41694674999637904,0.061204422265291214,0.005547534674406052,-0.19925931096076965,0.061204422265291214,0.005547534674406052,-0.19925931096076965,0.0
330,-1.7306841473261843,-0.03388432253887186,-0.6581057228876372,-0.05901397264683439,-0.33229234923843265,-0.0077241286635398865,0.2726398706436157,0.42336735129356384,-0.0077241286635398865,0.2726398706436157,0.42336735129356384,0.0
331,-1.564786214017172,0.8591304602689327,1.0928121726463789,1.1522690278672048,1.673781798165125,0.04646587371826172,-0.07056084275245667,0.035164084285497665,0.04646587371826172,-0.07056084275245667,0.035164084285497665,0.0
332,1.595104888706353,-1.0070827704775382,1.3978286738675596,-1.4374595496819507,1.9720016067837873,0.02757745049893856,-0.15383313596248627,0.293168306350708,0.02757745049893856,-0.15383313596248627,0.293168306350708,0.0
333,-1.3883087561403957,-1.3789807434139731,0.7371302552739287,-0.37520833056972136,0.6097267727333486,0.06500981748104095,0.11668122559785843,0.3824510872364044,0.06500981748104095,0.11668122559785843,0.3824510872364044,0.0
334,1.3659034978995264,-0.1831157304735045,1.4437783209643267,0.4418052007914641,2.648143701411457,0.0489884614944458,-0.06884363293647766,-0.053243331611156464,0.0489884614944458,-0.06884363293647766,-0.053243331611156464,0.0
335,-1.856569398064391,1.6596535426185266,1.3440725793224253,0.7943823656440896,1.1313248014278647,0.07873858511447906,-0.11006472259759903,0.15499883890151978,0.07873858511447906,-0.11006472259759903,0.15499883890151978,0.0
336,0.3368753405026035,-0.2773312498426639,1.0133355026075987,1.3965026724247676,1.7099494811532896,0.07955928146839142,-0.022765621542930603,0.01056833565235138,0.07955928146839142,-0.022765621542930603,0.01056833565235138,0.0
337,1.2522618499940368,-0.9291975179793843,1.662300063059725,-0.5674998813413579,-2.3189583125133137,0.11253635585308075,-0.2059292495250702,0.09916840493679047,0.11253635585308075,-0.2059292495250702,0.09916840493679047,0.0
338,1.0167874107456591,0.6916888822857055,1.4707886734194355,-0.9940998153565923,-0.8202490778641234,0.10175318270921707,-0.09084101766347885,-0.0779995396733284,0.10175318270921707,-0.09084101766347885,-0.0779995396733284,0.0
339,-0.6968491532739647,-0.5431263106232014,-0.6769914641557131,0.45469573067597024,0.521588109155418,0.1619892120361328,0.09789285808801651,0.46123838424682617,0.1619892120361328,0.09789285808801651,0.46123838424682617,0.0
340,-0.6020395875074891,-1.3193600439778113,-0.12824733150632683,1.2214874239476912,1.831296412921568,0.12117218226194382,0.04704572632908821,0.3437686264514923,0.12117218226194382,0.04704572632908821,0.3437686264514923,0.0
341,-0.9400366559508372,0.5038885988626327,0.9602301257580108,-1.3474689827804487,0.9082631747904162,0.21281450986862183,0.22754940390586853,0.044592443853616714,0.21281450986862183,0.22754940390586853,0.044592443853616714,0.0
342,-0.7938036441380785,-1.2845346059948484,-0.01374594686764774,0.024948409936123017,0.6099131347750375,0.052306197583675385,0.00718489708378911,0.45687639713287354,0.052306197583675385,0.00718489708378911,0.45687639713287354,0.0
343,-1.6723219287420032,1.580692964423812,0.23647753966617535,1.0223680964661301,0.5045773410769319,0.046647410839796066,-0.0386781319975853,-0.08529480546712875,0.046647410839796066,-0.0386781319975853,-0.08529480546712875,0.0
344,-0.623393162319984,0.10160226125114069,0.21986149618615847,-0.4159214710104153,-1.5009503608067856,0.3248754143714905,0.21518151462078094,0.20269662141799927,0.3248754143714905,0.21518151462078094,0.20269662141799927,0.0
345,0.06672229646157257,0.02677940148640845,-0.4956464855909364,-1.5988865449214473,-1.9266112657360202,0.14001402258872986,0.000425499863922596,0.4325565993785858,0.14001402258872986,0.000425499863922596,0.4325565993785858,0.0
346,-1.8170840395480639,-1.6858252618372345,0.22852078060094327,-0.9955960083669426,1.228293110216987,0.09388012439012527,-0.18793196976184845,0.3694775402545929,0.09388012439012527,-0.18793196976184845,0.3694775402545929,0.0
347,0.30610844593965103,-0.42953933137690603,-1.1788035713329235,0.9215231580539813,-1.5850376806412025,0.15716904401779175,-0.029301771894097328,0.4663936495780945,0.15716904401779175,-0.029301771894097328,0.4663936495780945,0.0
348,-1.5511037156576544,-0.3757043474133359,1.2705455384748041,1.0150978663507277,-1.342248565296155,0.03224713355302811,0.04922989383339882,-0.020007770508527756,0.03224713355302811,0.04922989383339882,-0.020007770508527756,0.0
349,1.5679280826558122,-0.7292051166794327,-1.3656317322852705,-0.32436214176037614,2.340723454547782,0.03224025294184685,0.21872343122959137,0.43463632464408875,0.03224025294184685,0.21872343122959137,0.43463632464408875,0.0
350,-1.2181322417214484,0.3338449296945911,-0.8739175954972296,0.3182837616400509,-1.546196623884641,0.15665178000926971,0.3424820899963379,0.32260608673095703,0.15665178000926971,0.3424820899963379,0.32260608673095703,0.0
351,1.0690736620265024,0.6032251425919326,0.17841987121173752,1.5277496370392336,-1.8912513669380582,0.09882629662752151,-0.09424864500761032,-0.017438536509871483,0.09882629662752151,-0.09424864500761032,-0.017438536509871483,0.0
352,0.8638439108738751,-0.3247183679798844,-1.1750323909222202,0.5144797776208139,-1.2717429570375587,0.11931142210960388,-0.08278049528598785,0.49865448474884033,0.11931142210960388,-0.08278049528598785,0.49865448474884033,0.0
353,-0.9090488685473552,0.07344589007052327,0.27474967238920067,-0.5483417463586058,-0.31862368878636715,0.25362446904182434,0.2797561585903168,0.21002714335918427,0.25362446904182434,0.2797561585903168,0.21002714335918427,0.0
354,1.3038540322563894,0.9482946445439642,-1.5061244741763335,-0.20488143331040054,-1.8783491204367144,0.1416953206062317,-0.34843868017196655,0.34716060757637024,0.1416953206062317,-0.34843868017196655,0.34716060757637024,0.0
355,0.33399089484140365,1.5378247950417427,0.5037099312398587,0.7767499240054805,0.8127523446232154,-0.02490866370499134,0.015978356823325157,-0.07558202743530273,-0.02490866370499134,0.015978356823325157,-0.07558202743530273,0.0
356,-0.5773047106297169,0.8647820724984636,0.7314107693454841,-0.49579370489897223,-0.29539564315072475,0.20641082525253296,0.11187110841274261,-0.11199565976858139,0.20641082525253296,0.11187110841274261,-0.11199565976858139,0.0
357,0.9345728451289625,0.7193893071315034,-0.43450987208836267,-0.2489771017210034,-1.7866863333527214,0.29189756512641907,-0.3299476206302643,0.146043062210083,0.29189756512641907,-0.3299476206302643,0.146043062210083,0.0
358,1.4284819619080102,0.03289242846253937,-0.18803654319790541,-1.5605445690420194,0.6045868847197702,0.0596107542514801,-0.17694008350372314,0.4126816987991333,0.0596107542514801,-0.17694008350372314,0.4126816987991333,0.0
359,-0.2663004810224481,1.36068291077921,-0.498024973548888,-1.4471728332294898,0.5484542009609266,0.40130969882011414,0.09457117319107056,0.09577712416648865,0.40130969882011414,0.09457117319107056,0.09577712416648865,0.0
360,1.6783442746648056,-0.7931920506091629,1.558844763695431,-0.3784256621155271,-0.8853843271483839,0.02163061872124672,-0.21568088233470917,0.061151470988988876,0.02163061872124672,-0.21568088233470917,0.061151470988988876,0.0
361,-0.19029603878023904,1.0517917439685678,-0.5598310614054596,1.5383968556973733,0.8289264203862516,0.2244293987751007,0.029753759503364563,-0.05129823088645935,0.2244293987751007,0.029753759503364563,-0.05129823088645935,0.0
362,-0.2897529593055337,0.31812051710404665,-0.5126076731613012,-0.7496595471730015,-1.2921620026644207,0.34198421239852905,0.09817270934581757,0.37373125553131104,0.34198421239852905,0.09817270934581757,0.37373125553131104,0.0
363,-0.28469701033568584,0.03208248982986195,-0.8155694900666614,0.5462190379686664,1.5652485611167775,0.3373887836933136,0.07895534485578537,0.3643268942832947,0.3373887836933136,0.07895534485578537,0.3643268942832947,0.0
364,0.7719167540715897,-1.4908431623212774,-0.8709060992142693,1.044654755982377,-1.020605138049388,-0.05350010097026825,0.09914959222078323,0.39779070019721985,-0.05350010097026825,0.09914959222078323,0.39779070019721985,0.0
365,0.6182386552934318,-1.7184062350244838,0.8729238094823843,0.08195642393610303,-1.5646739319175809,0.1374148279428482,-0.060635704547166824,0.34232017397880554,0.1374148279428482,-0.060635704547166824,0.34232017397880554,0.0
366,0.44746253464257935,1.5111972481798532,-1.2140761386409937,0.7165339358332437,1.50563781329544,0.35861632227897644,-0.16239982843399048,-0.07467449456453323,0.35861632227897644,-0.16239982843399048,-0.07467449456453323,0.0
367,0.1486314250250622,-1.3843110672220689,-1.1639946980035942,0.010293028410691685,2.748799713632434,-0.2830614447593689,0.04480345547199249,0.32051366567611694,-0.2830614447593689,0.04480345547199249,0.32051366567611694,0.0
368,1.8116810550272993,0.13477304029220982,-1.0203880007120594,-1.6155110617018533,-2.2230468638277006,0.03893882781267166,-0.024733545258641243,0.4233285188674927,0.03893882781267166,-0.024733545258641243,0.4233285188674927,0.0
369,-1.6153702774034828,-0.06446624471733897,-0.6062852004014729,0.6730650694321201,-2.6495812179369325,0.02149154245853424,0.3123108446598053,0.3253399431705475,0.02149154245853424,0.3123108446598053,0.3253399431705475,0.0
370,-1.1863068121412883,0.9771952884890589,1.6640015128405117,-0.29770253392610946,-1.6245574903403421,-0.0010200837859883904,-0.07796258479356766,-0.027352355420589447,-0.0010200837859883904,-0.07796258479356766,-0.027352355420589447,0.0
371,1.6415673208665025,1.211912281178705,0.6055719994113287,-1.4500127220468007,0.6870520440066259,0.015114543959498405,-0.26307839155197144,-0.06516651809215546,0.015114543959498405,-0.26307839155197144,-0.06516651809215546,0.0
372,-1.7381169491158648,-0.4271394334247245,0.4788519120771806,-0.47384471797858985,2.7041237093895027,-0.005269941873848438,0.28319239616394043,0.300578236579895,-0.005269941873848438,0.28319239616394043,0.300578236579895,0.0
373,-1.104231227473583,-1.4109619507380686,-0.9265869761207068,-0.3389704622669818,-1.7994822248373317,-0.11035171896219254,-0.27958619594573975,0.32536575198173523,-0.11035171896219254,-0.27958619594573975,0.32536575198173523,0.0
374,-1.4332964880692824,1.5271806140324422,1.2626747019484763,-0.7107482597629292,-1.9042988652405441,0.024012858048081398,-0.05434573441743851,-0.09825525432825089,0.024012858048081398,-0.05434573441743851,-0.09825525432825089,0.0
375,0.16302100256401086,-0.17683223572790774,1.4932829546111734,-0.33846696650653496,-0.4961623076387798,0.19771236181259155,-0.02235046587884426,-0.032807737588882446,0.19771236181259155,-0.02235046587884426,-0.032807737588882446,0.0
376,-1.888503076563853,0.030269111005672755,-1.4695858247983948,-0.5946309340590619,-0.768089898021413,0.031124668195843697,0.006058431696146727,0.5076280832290649,0.031124668195843697,0.006058431696146727,0.5076280832290649,0.0
377,1.2438161325811916,-1.0050294941449214,0.603434279769087,0.08705766888474331,0.44053742421284436,0.10826034843921661,-0.21527066826820374,0.30049604177474976,0.10826034843921661,-0.21527066826820374,0.30049604177474976,0.0
378,-1.475960090935546,0.3494847766919462,-0.40656757963932955,-0.30628571077437394,0.594261850512217,0.07933825254440308,0.3786914050579071,0.27605435252189636,0.07933825254440308,0.3786914050579071,0.27605435252189636,0.0
379,-1.0204240784843317,1.4948748705259751,0.8946862363679373,0.2669930939235725,0.44922079439118034,-0.007593198213726282,-0.08227762579917908,-0.06661080569028854,-0.007593198213726282,-0.08227762579917908,-0.06661080569028854,0.0
380,-1.4821129951137313,-0.6818266257797478,-0.4077969627122593,-1.3986694549121124,-1.4711138979486533,0.02345593087375164,-0.08601967990398407,0.44090867042541504,0.02345593087375164,-0.08601967990398407,0.44090867042541504,0.0
381,0.795102109227614,-1.0086850415382849,0.3836660149382105,-0.1543182355273751,1.003607599826823,0.1549985706806183,-0.12808218598365784,0.3922237455844879,0.1549985706806183,-0.12808218598365784,0.3922237455844879,0.0
382,-1.6023286321224137,-0.12150120690070776,-1.1373999433694637,1.0107379576124138,-1.9997110814286214,0.024505440145730972,0.2341638058423996,0.40416476130485535,0.024505440145730972,0.2341638058423996,0.40416476130485535,0.0
383,-0.745082980943301,-1.6378528657869125,-0.5767123308808304,-0.22912530557117972,0.07843862201879714,-0.1708456426858902,-0.19428220391273499,0.35013648867607117,-0.1708456426858902,-0.19428220391273499,0.35013648867607117,0.0
384,-0.7191962902830442,-1.7080223706144013,-1.1119689845619263,1.4606629655111958,1.0801113844294878,-0.08994642645120621,-0.12216433137655258,0.3215118646621704,-0.08994642645120621,-0.12216433137655258,0.3215118646621704,0.0
385,0.956111625996412,-0.4574411593083296,1.033080546590016,-0.6277732461122252,1.1478340471896455,0.1949038952589035,-0.23376692831516266,0.16579589247703552,0.1949038952589035,-0.23376692831516266,0.16579589247703552,0.0
386,-1.259253600333292,-0.7963259242403188,1.1236239676548632,1.2240716117807675,-1.417168485373723,0.062499094754457474,0.09846252202987671,0.017676565796136856,0.062499094754457474,0.09846252202987671,0.017676565796136856,0.0
387,-0.41111484580457014,-0.6116792256909338,0.12023499055037967,0.1582126963909547,-2.45793950973771,0.26942285895347595,0.1056370660662651,0.35105404257774353,0.26942285895347595,0.1056370660662651,0.35105404257774353,0.0
388,1.0736458911776734,-1.4500588429079577,0.5481096058429511,0.34825483674611735,-0.1293935825054966,0.10703206062316895,-0.12357039749622345,0.3440938889980316,0.10703206062316895,-0.12357039749622345,0.3440938889980316,0.0
389,0.24984452744895957,0.13342676029125022,0.8128101122067202,0.6888421736112587,-2.321528000213654,0.1869858354330063,-0.0321413055062294,-0.04120097681879997,0.1869858354330063,-0.0321413055062294,-0.04120097681879997,0.0
390,0.8252590559412485,0.9871488594643081,-1.2712162763321095,1.4025224581140587,0.641862197462741,0.2602841258049011,-0.246881365776062,0.0520453117787838,0.2602841258049011,-0.246881365776062,0.0520453117787838,0.0
391,1.878810150942917,-1.6662447231385509,1.6663449619286932,-0.4738934865889568,1.7338268170075883,-0.026920411735773087,-0.18030142784118652,0.21257540583610535,-0.026920411735773087,-0.18030142784118652,0.21257540583610535,0.0
392,-0.7950643412727956,-1.585704842131572,-1.321036943036616,1.650567736603915,-1.164202484207925,-0.08032255619764328,-0.11128193140029907,0.3197437524795532,-0.08032255619764328,-0.11128193140029907,0.3197437524795532,0.0
393,0.054432557607433596,-1.6244571544291448,-1.4523719537727404,0.24945702140507153,1.446357843850837,-0.33059433102607727,0.012117287144064903,0.19236528873443604,-0.33059433102607727,0.012117287144064903,0.19236528873443604,0.0
394,1.7896789838990315,0.2847892729378705,-0.12856786610834225,0.32644577009287823,-0.6392458508672765,-0.03501395881175995,-0.35350391268730164,0.12148405611515045,-0.03501395881175995,-0.35350391268730164,0.12148405611515045,0.0
395,-0.897902411481051,0.37549897609976934,1.5983709700319362,0.7846241772730218,-2.6826007507509377,-0.02310992404818535,-0.0726340264081955,0.01877150684595108,-0.02310992404818535,-0.0726340264081955,0.01877150684595108,0.0
396,1.1036752146219486,0.6271661580671766,-1.3071350339978038,-1.0811817175907563,-0.4495684869369603,0.1308373063802719,-0.17485152184963226,0.4378635287284851,0.1308373063802719,-0.17485152184963226,0.4378635287284851,0.0
397,0.2930643425413031,0.34345474597429204,0.1861784806008142,-1.0014724420215004,1.446363643387139,0.37740930914878845,-0.11051702499389648,0.2208535075187683,0.37740930914878845,-0.11051702499389648,0.2208535075187683,0.0
398,1.6682260245518425,1.5308947948870304,-0.16872458625054843,0.11929032148849927,1.4601527677329038,0.012360895983874798,-0.18851467967033386,-0.19647014141082764,0.012360895983874798,-0.18851467967033386,-0.19647014141082764,0.0
399,-0.09435288661694119,0.8161607900244774,-1.1941144550363654,-0.8235397022896078,-1.8730264513103045,0.34694868326187134,0.036507781594991684,0.3773273825645447,0.34694868326187134,0.036507781594991684,0.3773273825645447,0.0
400,0.6280861257192787,0.1742150848402837,0.7017737832557889,-0.2677146609072769,2.6010471353600337,0.2808988392353058,-0.18120203912258148,0.0368136502802372,0.2808988392353058,-0.18120203912258148,0.0368136502802372,0.0
401,0.2853783185723313,-1.066903550400855,-0.4638445486247762,-1.4484066131722813,-0.6980305117759302,-0.1618557870388031,0.06411805748939514,0.3620908856391907,-0.1618557870388031,0.06411805748939514,0.3620908856391907,0.0
402,1.8765943178260454,-1.1611103295264826,0.11043889576493138,0.5871521220368143,1.5799346941870969,-0.012009219266474247,-0.13421784341335297,0.3778727948665619,-0.012009219266474247,-0.13421784341335297,0.3778727948665619,0.0
403,0.4363929269739262,1.5628071921822517,1.093530008286716,0.36248200355460747,0.42671251518925324,-0.0827583372592926,0.053071267902851105,0.009685439988970757,-0.0827583372592926,0.053071267902851105,0.009685439988970757,0.0
404,0.24524912477010918,-1.207700867848454,-1.441731773036314,0.9906329375579983,0.40591690742060527,-0.14908747375011444,0.04379110783338547,0.4011721909046173,-0.14908747375011444,0.04379110783338547,0.4011721909046173,0.0
405,-1.5725480232067004,-0.016663403779615393,-1.3922830567322697,1.5612573991545557,1.3989521062593573,0.046364400535821915,0.23029258847236633,0.33794131875038147,0.046364400535821915,0.23029258847236633,0.33794131875038147,0.0
406,-0.9013435786016175,-0.11465849157919217,0.17260772271806712,-0.8630345322136549,2.277483528914326,0.22190424799919128,0.22119195759296417,0.3472670614719391,0.22190424799919128,0.22119195759296417,0.3472670614719391,0.0
407,-0.2795500944022733,-1.4534986993660466,-0.963938044734722,-0.5487488600944772,-0.9456924140973115,-0.2883795499801636,-0.08735287934541702,0.2752630114555359,-0.2883795499801636,-0.08735287934541702,0.2752630114555359,0.0
408,-1.5537538518603242,-0.07245212140121149,-0.5641127323130439,1.5111494349526755,-0.9676440164742153,0.036745086312294006,0.25441843271255493,0.19031599164009094,0.036745086312294006,0.25441843271255493,0.19031599164009094,0.0
409,-0.028834115916499536,1.4580040369917362,-0.7919515503150674,0.12205064099381957,-0.683090779710052,0.401243656873703,0.015396230854094028,-0.09495775401592255,0.401243656873703,0.015396230854094028,-0.09495775401592255,0.0
410,-1.903672165368956,1.7395639466678507,-1.4387233704995466,1.2695757562870658,-1.5632969945956878,-0.055783677846193314,0.2500249743461609,-0.12414409965276718,-0.055783677846193314,0.2500249743461609,-0.12414409965276718,0.0
411,-0.6787541760855449,-1.6810459002676252,0.17823278518891583,-0.7795654591671352,2.512197470504966,-0.1054190918803215,-0.12273507565259933,0.3834652006626129,-0.1054190918803215,-0.12273507565259933,0.3834652006626129,0.0
412,-0.8590555065260577,-0.5163308349452056,-1.6138427035126435,0.3811484146963504,-0.6200860339177949,-0.029151372611522675,-0.07185637950897217,0.49772578477859497,-0.029151372611522675,-0.07185637950897217,0.49772578477859497,0.0
413,-0.8054001601956167,-1.6387146760231475,0.9552466801094255,-0.14917635359798598,-2.1016816829264098,0.1183476448059082,0.09221559762954712,0.34668681025505066,0.1183476448059082,0.09221559762954712,0.34668681025505066,0.0
414,1.35217832432684,1.6790123974312592,1.2133907632652643,0.6340563174036273,0.21122775933417115,0.007960791699588299,0.13125866651535034,0.10526992380619049,0.007960791699588299,0.13125866651535034,0.10526992380619049,0.0
415,-0.025106391738841438,-1.1165417824315993,-0.6357914297268745,1.432205136963564,1.4891630749513975,0.10247114300727844,-0.006443875376135111,0.3722381293773651,0.10247114300727844,-0.006443875376135111,0.3722381293773651,0.0
416,0.8643962923859689,-0.5951702747351286,1.513706600261214,0.3560262125123932,2.751626165504284,0.12061559408903122,-0.10097821801900864,-0.02871561422944069,0.12061559408903122,-0.10097821801900864,-0.02871561422944069,0.0
417,1.5098026701046168,-0.298292787994892,0.3791081532277012,-0.5369940970528824,0.9606834664862935,0.05081956833600998,-0.3037929832935333,0.2926768958568573,0.05081956833600998,-0.3037929832935333,0.2926768958568573,0.0
418,1.3651865271061148,-1.1862565769280533,1.5304026005042548,-1.634171437921406,1.171158277512689,0.05457278713583946,-0.11165926605463028,0.29626229405403137,0.05457278713583946,-0.11165926605463028,0.29626229405403137,0.0
419,1.6328128534679154,-1.299472004578045,-1.6568212357130647,0.7624554760863569,-1.2221180224168646,0.0644041895866394,0.2939230799674988,0.3242819011211395,0.0644041895866394,0.2939230799674988,0.3242819011211395,0.0
420,0.30962155314396744,0.30179365427266047,0.44984923978270874,-0.736746246548479,-1.0573578115752302,0.3760242760181427,-0.10074249655008316,0.12133724242448807,0.3760242760181427,-0.10074249655008316,0.12133724242448807,0.0
421,-0.9817436181468119,-0.2612564648420641,0.24598756041446146,-0.9083505101779321,-0.877356057409117,0.18001620471477509,0.2221018224954605,0.36390456557273865,0.18001620471477509,0.2221018224954605,0.36390456557273865,0.0
422,-0.9423718628890133,-0.5132779479735499,1.2758330008278724,-1.0535617828138109,-2.5240027264046145,0.18312165141105652,0.20580123364925385,0.19093763828277588,0.18312165141105652,0.20580123364925385,0.19093763828277588,0.0
423,-1.828590762750299,0.8830929012080291,-0.8447756363409296,0.3228556090510326,-1.4321845833299403,-0.07535287737846375,0.4029879570007324,0.10931695997714996,-0.07535287737846375,0.4029879570007324,0.10931695997714996,0.0
424,1.4527542049090365,0.7577748298770381,-0.3392812179603657,0.2637046905793661,0.10895974545704812,0.08179479092359543,-0.3696191608905792,0.022548992186784744,0.08179479092359543,-0.3696191608905792,0.022548992186784744,0.0
425,0.20814584720774887,0.9648152224104405,-1.0555357509217052,1.169886584559422,-1.9232446164782455,0.3832109570503235,-0.06539253890514374,0.03609476611018181,0.3832109570503235,-0.06539253890514374,0.03609476611018181,0.0
426,-0.08844356738642167,1.6231081117491564,1.4039821872514895,0.831521050411639,0.9036622314425022,-0.06897839158773422,-0.01586771570146084,0.1705918163061142,-0.06897839158773422,-0.01586771570146084,0.1705918163061142,0.0
427,0.6916338288231212,-1.3447697351717425,-0.2049317229864751,0.5113147996813405,2.0942799866021504,0.035967979580163956,-0.006850070785731077,0.44321516156196594,0.035967979580163956,-0.006850070785731077,0.44321516156196594,0.0
428,1.173609354351242,-1.2212455748653814,0.8760032742721839,1.5658580985062394,0.15013251078353518,0.07899729907512665,-0.09882871806621552,0.07975279539823532,0.07899729907512665,-0.09882871806621552,0.07975279539823532,0.0
429,-1.5325501525334868,-1.5258275543669444,0.4766038255228753,0.20456269443881125,1.844144797251082,0.04995374009013176,0.08579175919294357,0.3895581066608429,0.04995374009013176,0.08579175919294357,0.3895581066608429,0.0
430,-0.5164503955480908,1.7441670005451053,1.4492350908151295,-0.05807887508484,1.9018928188972808,-0.09453222155570984,-0.0845942497253418,0.06798403710126877,-0.09453222155570984,-0.0845942497253418,0.06798403710126877,0.0
431,1.8680180598530276,0.5482036561372414,0.3773364782279036,0.9547338292167262,1.866689253243793,-0.013061949983239174,-0.1428598016500473,-0.05888507142663002,-0.013061949983239174,-0.1428598016500473,-0.05888507142663002,0.0
432,0.6647878976611796,-0.5382718286589303,-1.0922174072965456,-0.7130539382116569,2.2078946539991966,-0.06830665469169617,0.07555513083934784,0.47277379035949707,-0.06830665469169617,0.07555513083934784,0.47277379035949707,0.0
433,0.5939088177916023,-0.3883908434731578,-0.937334637399104,0.02618235687263848,0.48195075828303224,0.1120627298951149,-0.05390116944909096,0.5150290727615356,0.1120627298951149,-0.05390116944909096,0.5150290727615356,0.0
434,1.364504861178061,-0.783767729013084,-1.0280547863528788,0.8164826821234927,0.6326165790423799,0.03946276754140854,-0.026017148047685623,0.4759162664413452,0.03946276754140854,-0.026017148047685623,0.4759162664413452,0.0
435,1.8624534096098064,-0.2911964468917372,-1.119818304789943,-0.8840680632369532,-1.6838771290074457,0.06487521529197693,0.060116421431303024,0.485034704208374,0.06487521529197693,0.060116421431303024,0.485034704208374,0.0
436,-0.20307376203161542,-0.3836894866706748,0.6557353399378552,1.5664908821109467,0.3107726867112057,0.13348275423049927,0.017003480345010757,0.048676468431949615,0.13348275423049927,0.017003480345010757,0.048676468431949615,0.0
437,-0.10023536015393342,-0.02844424932264622,0.5802820718513058,0.35216551460957723,-0.8590862408808746,0.3042110800743103,0.03263550624251366,0.03539189696311951,0.3042110800743103,0.03263550624251366,0.03539189696311951,0.0
438,0.9248957717034032,-0.27055783388728494,1.1584446191247948,-0.05265701440384429,-1.669920608271593,0.17979121208190918,-0.17426224052906036,0.013769363053143024,0.17979121208190918,-0.17426224052906036,0.013769363053143024,0.0
439,-1.547838664811107,1.5841929283857454,1.2373152603306456,-1.2235139365601198,0.552459925843702,0.04313189536333084,0.004935125820338726,-0.11927011609077454,0.04313189536333084,0.004935125820338726,-0.11927011609077454,0.0
