chenziming123/SO101-AI-CAE-Portfolio/data/simulation/upper_arm_v1_urdf_smoke_motion.csv
sample_id,shoulder_pan,shoulder_lift,elbow_flex,wrist_flex,wrist_roll,official_x,official_y,official_z,improved_x,improved_y,improved_z,ee_diff_m
0,0.0,0.0,0.0,0.0,0.0,0.3913614749908447,-9.212063559971284e-06,0.2264697104692459,0.3913614749908447,-9.212063559971284e-06,0.2264697104692459,0.0
1,-0.43483940016480993,0.3230840539963191,0.802176323014756,1.6080735640465769,1.9601422533397894,0.05154390633106232,-0.002422274323180318,0.02913878858089447,0.05154390633106232,-0.002422274323180318,0.02913878858089447,0.0
2,-0.385582792318766,1.1494687487124073,-0.07287810609210199,-0.3635666662893535,-2.33369506599422,0.3492661714553833,0.1318548023700714,-0.07913754880428314,0.3492661714553833,0.1318548023700714,-0.07913754880428314,0.0
3,-1.8655185024427259,-0.7970690987285862,1.345170152119605,0.3132562513806201,0.8375277816709548,-0.009777100756764412,0.18057331442832947,0.02510472573339939,-0.009777100756764412,0.18057331442832947,0.02510472573339939,0.0
4,-1.7404467917424393,-0.6972763481178201,-1.0980350484003716,-0.8966401751577567,2.5673499483288156,0.07744602113962173,-0.1980951428413391,0.4145441949367523,0.07744602113962173,-0.1980951428413391,0.4145441949367523,0.0
5,-1.0804094436119345,-0.9155563035893641,-0.8342506683761947,-1.0206330715592666,-1.2976160670641208,-0.07071343064308167,-0.18932242691516876,0.398799866437912,-0.07071343064308167,-0.18932242691516876,0.398799866437912,0.0
6,-1.647638843202954,1.2101721199675763,-0.5520102257306314,-0.06584498160831376,0.5744819085638531,0.013683578930795193,0.38306042551994324,-0.042747482657432556,0.013683578930795193,0.38306042551994324,-0.042747482657432556,0.0
7,-1.4586013247973328,0.6839243065899492,-0.7182053876314239,1.5815203868182415,-2.6492109408845104,0.06552349776029587,0.26735419034957886,0.03696572780609131,0.06552349776029587,0.26735419034957886,0.03696572780609131,0.0
8,-0.8317369539877051,1.1377723257314627,-1.6778136279143412,-1.2648954331903708,0.7571909057202464,0.19519400596618652,0.16342546045780182,0.3684846758842468,0.19519400596618652,0.16342546045780182,0.3684846758842468,0.0
9,-1.7870001213534505,-0.9119132652466061,-1.1345595299053386,0.513105333039036,1.8212927718982224,0.06877271831035614,-0.09960003197193146,0.48438331484794617,0.06877271831035614,-0.09960003197193146,0.48438331484794617,0.0
10,-1.2623499150832234,0.862988882777191,-0.44330260308695735,1.568443053205861,1.8867071056347307,0.1060153916478157,0.1853601187467575,-0.028195757418870926,0.1060153916478157,0.1853601187467575,-0.028195757418870926,0.0
11,-0.942434087670796,0.2114789474190628,-1.3931204957738408,0.6733476538993466,2.3890052552182777,0.19870039820671082,0.21032045781612396,0.43000540137290955,0.19870039820671082,0.21032045781612396,0.43000540137290955,0.0
12,0.079084644085893,1.2244429448625427,0.7689566462901105,0.19065663581790337,1.8155578405831632,0.0431947261095047,-0.00825334619730711,-0.12790937721729279,0.0431947261095047,-0.00825334619730711,-0.12790937721729279,0.0
13,-1.2186163930313174,-0.8095631529844919,-0.6734499274426444,-0.4435123848273752,-1.5867412290648237,0.003694394836202264,-0.0732434093952179,0.4985164999961853,0.003694394836202264,-0.0732434093952179,0.4985164999961853,0.0
14,1.6988273088715307,0.0009970571767146108,0.08460338986993254,-0.8593249762128577,-0.08964880644394446,-0.0004047464462928474,-0.3102773129940033,0.3284398019313812,-0.0004047464462928474,-0.3102773129940033,0.3284398019313812,0.0
15,-1.8760084848427094,-1.4128808121633412,1.0993518542005511,0.5827692589318578,1.676121003218892,-0.014792987145483494,0.19701096415519714,0.1667940467596054,-0.014792987145483494,0.19701096415519714,0.1667940467596054,0.0
16,-1.1599894939068145,-1.2827717812414434,-0.35769421816446445,-0.5487447446654048,-2.438759093528499,-0.038036685436964035,-0.1644553393125534,0.43581321835517883,-0.038036685436964035,-0.1644553393125534,0.43581321835517883,0.0
17,-0.5956682900187391,0.7020612923932985,-1.4394436078257828,-1.3184589479112026,2.7846921575558223,0.15653935074806213,0.07604166865348816,0.4164525866508484,0.15653935074806213,0.07604166865348816,0.4164525866508484,0.0
18,0.29480258799632963,1.6604664672927347,-0.8143793800131914,-1.6107428018286578,-1.8381295317394888,0.3727053701877594,-0.09364500641822815,0.09293458610773087,0.3727053701877594,-0.09364500641822815,0.09293458610773087,0.0
19,-1.5894150510988039,0.5753391495571001,-0.9187448210657182,-0.5031020986857908,-0.8244433908338002,0.026584381237626076,0.3496773838996887,0.3619133234024048,0.026584381237626076,0.3496773838996887,0.3619133234024048,0.0
20,0.9237941487843955,0.10222897014935706,0.6510460663069226,1.097423736263486,-0.5093561969273237,0.11491996049880981,-0.09437007457017899,-0.013905554078519344,0.11491996049880981,-0.09437007457017899,-0.013905554078519344,0.0
21,-0.0892619355972466,0.2580265342515973,1.6076221197715692,0.3307107443830575,2.535842697160307,0.003331586718559265,-0.008010044693946838,-0.04511420056223869,0.003331586718559265,-0.008010044693946838,-0.04511420056223869,0.0
22,-0.38593988142050395,-1.5262100139425185,1.1677440816825166,-1.6408772930077324,-2.504784441119233,0.010922900401055813,-0.006607045419514179,0.3439338505268097,0.010922900401055813,-0.006607045419514179,0.3439338505268097,0.0
23,-1.7901494354840546,0.3217425753854668,0.6300807693171855,-1.3780779059649697,0.45983640921912095,-0.02800089493393898,0.31602951884269714,0.16700610518455505,-0.02800089493393898,0.31602951884269714,0.16700610518455505,0.0
24,0.6731566426106026,1.3042443865465194,-1.061373024332215,-1.5555356972820082,1.0961488803810058,0.2868075966835022,-0.2068505734205246,0.2448381781578064,0.2868075966835022,-0.2068505734205246,0.2448381781578064,0.0
25,-1.3872322722347445,0.07108386702731084,0.0826712268112193,0.5958751613181901,-0.6162223319484963,0.09145321696996689,0.3082194924354553,0.09823577851057053,0.09145321696996689,0.3082194924354553,0.09823577851057053,0.0
26,1.4562516041459,0.8728210764373081,0.941152039757005,0.9368367848526666,0.22354568681789022,0.03216877579689026,0.04248527064919472,-0.018184056505560875,0.03216877579689026,0.04248527064919472,-0.018184056505560875,0.0
27,-0.2098054959952489,0.602580313935555,1.1179668585845493,0.400732612188069,0.8066382324315926,0.05395582318305969,-0.0026758366730064154,-0.07347434759140015,0.05395582318305969,-0.0026758366730064154,-0.07347434759140015,0.0
28,-1.5160415141421173,1.5937133094869207,0.03459097476376405,-0.6641252241464956,0.9342011351737645,0.057654425501823425,0.22585110366344452,-0.18251889944076538,0.057654425501823425,0.22585110366344452,-0.18251889944076538,0.0
29,1.6577568705510162,-0.12665804907987055,1.6173888806803238,1.0491237503861688,2.4224154284158974,0.03925612196326256,0.06825035810470581,0.0028080600313842297,0.03925612196326256,0.06825035810470581,0.0028080600313842297,0.0
30,0.017720744404556177,-1.140656936101757,0.815059467491507,-1.369533768646416,1.134666753781206,0.08832117170095444,-0.008147578686475754,0.39549919962882996,0.08832117170095444,-0.008147578686475754,0.39549919962882996,0.0
31,0.1989542439156584,0.9473608832948797,0.9035797983133573,0.7611174149211408,1.0700679666371515,0.0045363265089690685,-0.0002548001066315919,-0.048521317541599274,0.0045363265089690685,-0.0002548001066315919,-0.048521317541599274,0.0
32,0.2264599693511249,1.7298780697757605,1.2364559122075671,-0.7801555314693397,-2.0415778178979043,-0.04118736460804939,0.025404544547200203,-0.08969288319349289,-0.04118736460804939,0.025404544547200203,-0.08969288319349289,0.0
33,0.5288170104423378,-1.2907778179304565,-0.8919901202875927,0.6472490250314153,-1.2671312113173163,-0.08174269646406174,0.07903977483510971,0.4411018490791321,-0.08174269646406174,0.07903977483510971,0.4411018490791321,0.0
34,-0.1156222843512964,-0.7022867770434591,-1.2336742110113454,0.05558450630530398,-0.4654062770628382,-0.0766274705529213,-0.009870882146060467,0.4985535740852356,-0.0766274705529213,-0.009870882146060467,0.4985535740852356,0.0
35,-1.2986532037471628,-0.43755033529900866,0.7418365134157416,0.94298033241319,-0.6429673852471383,0.08351538330316544,0.1775694638490677,0.04202818125486374,0.08351538330316544,0.1775694638490677,0.04202818125486374,0.0
36,1.386406684311674,-1.3022877674094728,1.6169301167339905,0.7015874860837192,-2.565253273399603,0.07002684473991394,-0.14547955989837646,0.004829415585845709,0.07002684473991394,-0.14547955989837646,0.004829415585845709,0.0
37,-1.7013663238817476,-0.028091307683123068,-0.6784686180997026,-1.5948257051521442,0.5767994000032117,0.036218129098415375,0.053312644362449646,0.44451650977134705,0.036218129098415375,0.053312644362449646,0.44451650977134705,0.0
38,-0.8422359244891444,-0.17720586174243969,-1.1370454659894524,-0.48793835947296893,-2.6298750480118662,0.05217769369482994,0.020277725532650948,0.5175323486328125,0.05217769369482994,0.020277725532650948,0.5175323486328125,0.0
39,-1.3696675421183817,-0.5033400007247941,1.2649443887424079,-0.9587515561280469,-1.7346281681785605,0.08287917822599411,0.2540268301963806,0.17200025916099548,0.08287917822599411,0.2540268301963806,0.17200025916099548,0.0
40,-0.28898212809628565,-0.8911723680749506,-1.2685697319229152,1.0043771702488222,0.6979632683544055,-0.00659711379557848,-0.01885823719203472,0.4616110622882843,-0.00659711379557848,-0.01885823719203472,0.4616110622882843,0.0
41,-0.18227828671732849,-1.238707221193717,-1.4549654739016318,0.62022966470542,-1.5583813020290815,-0.22563739120960236,-0.0408959835767746,0.3730059266090393,-0.22563739120960236,-0.0408959835767746,0.3730059266090393,0.0
42,0.7339452984268595,-0.8576166072287954,-1.4698949277915578,1.1326197746494275,-2.151923441417477,-0.01522764191031456,0.05729750543832779,0.45569226145744324,-0.01522764191031456,0.05729750543832779,0.45569226145744324,0.0
43,-0.4474323649054328,0.5850461014066357,-0.9402771843493817,-0.1572743731578401,-0.7989946608490341,0.3807976543903351,0.17031972110271454,0.3201620876789093,0.3807976543903351,0.17031972110271454,0.3201620876789093,0.0
44,0.6661196579285815,-0.7424163328589444,-0.24753337026641198,1.636541949687236,2.5269684195172175,0.17382454872131348,-0.11228891462087631,0.24325132369995117,0.17382454872131348,-0.11228891462087631,0.24325132369995117,0.0
45,-1.6913722136439624,1.574376276297036,1.4620494201342407,-1.0738672552948354,-0.7691139873491608,0.040254876017570496,-0.056917838752269745,-0.07617556303739548,0.040254876017570496,-0.056917838752269745,-0.07617556303739548,0.0
46,-0.48793571546244263,-0.32098173748370695,-0.7626167057791968,0.13458539075288,-0.20414638271925645,0.19621969759464264,0.08532737195491791,0.47883325815200806,0.19621969759464264,0.08532737195491791,0.47883325815200806,0.0
47,-0.3236391584856966,-0.689937851992142,0.2731240421261074,0.8847987582746832,1.4740156494092398,0.2720358669757843,0.06975920498371124,0.20795996487140656,0.2720358669757843,0.06975920498371124,0.20795996487140656,0.0
48,0.8320110535527094,1.4177812041416318,-0.43995757733949525,-0.09133063630884819,-2.6835334762490124,0.2646237909793854,-0.24317696690559387,-0.12173165380954742,0.2646237909793854,-0.24317696690559387,-0.12173165380954742,0.0
49,-0.81559869929028,-0.826106792881486,0.8999500440068622,1.3895941550283257,-0.26251143381273945,0.11346296966075897,0.08224520832300186,0.04959174245595932,0.11346296966075897,0.08224520832300186,0.04959174245595932,0.0
50,1.7248519692145674,-1.006671831743992,0.4733071724563822,1.2894929871534384,0.04615230503411194,0.011738043278455734,-0.17205795645713806,0.15852022171020508,0.011738043278455734,-0.17205795645713806,0.15852022171020508,0.0
51,1.3728710114403935,0.3356917243636519,-0.5329009840860786,-0.9625957327246161,-1.1255426417547383,0.10309947282075882,-0.28470319509506226,0.3898615539073944,0.10309947282075882,-0.28470319509506226,0.3898615539073944,0.0
52,1.8472745403615667,-1.6806742745973566,0.31635544278194905,-1.3803702189468712,-2.3722731346855808,0.10145541280508041,0.20164844393730164,0.32139694690704346,0.10145541280508041,0.20164844393730164,0.32139694690704346,0.0
53,1.4387124921947225,0.36190455247985476,-0.023645255465134962,0.7536468774216247,1.1715416687954328,0.07048322260379791,-0.29432785511016846,0.02930236980319023,0.07048322260379791,-0.29432785511016846,0.02930236980319023,0.0
54,-0.036270225175708326,1.4781134909155162,0.15199916300063365,1.6084722684962915,-2.1060278499450984,0.021997297182679176,0.0059271990321576595,-0.02456687204539776,0.021997297182679176,0.0059271990321576595,-0.02456687204539776,0.0
55,1.1025398858777962,-1.6835982345264848,-0.8308273628162751,-1.4345792575050014,0.1287148969276588,-0.10319027304649353,0.2785291075706482,0.09709705412387848,-0.10319027304649353,0.2785291075706482,0.09709705412387848,0.0
56,-1.6459505551329003,-0.9485430090520601,-0.25569793895220694,-1.2892907654413355,-1.4000687679940034,0.040793079882860184,-0.12770645320415497,0.42982158064842224,0.040793079882860184,-0.12770645320415497,0.42982158064842224,0.0
57,1.9177960384113586,-0.2879684446096298,-1.0891738802912212,0.7987820507169225,2.7751468001980335,-0.0238104946911335,-0.16393110156059265,0.45903506875038147,-0.0238104946911335,-0.16393110156059265,0.45903506875038147,0.0
58,-1.7808397179194893,0.7168378245378122,1.2128381468249945,-0.8553095120781895,1.1477883845975723,0.013501115143299103,0.15390948951244354,-0.08668595552444458,0.013501115143299103,0.15390948951244354,-0.08668595552444458,0.0
59,1.1485002547700724,-1.3090027546020129,-1.3017025489478429,0.2087479889876651,0.7245543419931297,-0.09043018519878387,0.27477341890335083,0.34837010502815247,-0.09043018519878387,0.27477341890335083,0.34837010502815247,0.0
60,-1.769145506549088,1.0654125381626218,-0.927814580175716,1.3070470471954503,0.14063153680639617,-0.017024142667651176,0.2835943102836609,-0.02570038102567196,-0.017024142667651176,0.2835943102836609,-0.02570038102567196,0.0
61,-0.04102643153432073,-0.2878741782430845,0.0446313650444099,0.45357857464867046,-0.9666516455553351,0.3480837047100067,0.019121089950203896,0.23252572119235992,0.3480837047100067,0.019121089950203896,0.23252572119235992,0.0
62,-0.7039488318502487,0.2024073056383009,0.2892058732323952,1.41485069758746,1.7174482347910738,0.15861345827579498,0.09118165820837021,0.011481023393571377,0.15861345827579498,0.09118165820837021,0.011481023393571377,0.0
63,-0.6722861582938451,0.7832382193192302,-1.0683433769962587,1.6490561475015977,-0.17956006477369701,0.2592124044895172,0.17720462381839752,0.0621236190199852,0.2592124044895172,0.17720462381839752,0.0621236190199852,0.0
64,-0.09917114008566008,-0.07251789003958686,1.612848936328045,-0.42665209547387284,0.2836274652595048,0.16135703027248383,0.009951936081051826,-0.05002357065677643,0.16135703027248383,0.009951936081051826,-0.05002357065677643,0.0
65,-0.27926769199371115,0.5036208234845017,-0.32531965354478953,1.0192281150688813,1.5370963569452174,0.3300071954727173,0.07510506361722946,0.03445242717862129,0.3300071954727173,0.07510506361722946,0.03445242717862129,0.0
66,1.1157093673299392,1.1069848035476455,0.37818719165048575,-1.6438624603561338,2.0924588726086846,0.17176112532615662,-0.2878139019012451,0.036864109337329865,0.17176112532615662,-0.2878139019012451,0.036864109337329865,0.0
67,0.4816253886247175,-0.14180871631524594,-1.257933657929211,0.9872806219150261,2.3097811138741564,0.2166447937488556,-0.09985354542732239,0.4344058632850647,0.2166447937488556,-0.09985354542732239,0.4344058632850647,0.0
68,1.0257917505354164,-1.4019862244777201,-0.17150829931292288,0.9381076372552404,-2.217292010446724,0.06670722365379333,-0.0343451201915741,0.39643794298171997,0.06670722365379333,-0.0343451201915741,0.39643794298171997,0.0
69,1.797861912899652,-0.472443482395398,0.30838792767365764,0.4734566711352419,2.021097860024881,-0.03339999169111252,-0.27993741631507874,0.21139279007911682,-0.03339999169111252,-0.27993741631507874,0.21139279007911682,0.0
70,1.1810200460414402,-0.7641353947031723,-0.7278850236527368,-0.5478204520031811,2.4850796038473613,-0.003648970974609256,0.08991110324859619,0.4913851320743561,-0.003648970974609256,0.08991110324859619,0.4913851320743561,0.0
71,-0.055051951199833304,1.189286124110017,-0.16019208614415859,0.5312027360678246,0.8812034604199872,0.2546751797199249,0.005719515960663557,-0.13965249061584473,0.2546751797199249,0.005719515960663557,-0.13965249061584473,0.0
72,-1.430093308340022,-0.9415208137645568,0.053110502017433836,0.753524160173688,-0.8206922936593906,0.060576390475034714,0.19426850974559784,0.3296589255332947,0.060576390475034714,0.19426850974559784,0.3296589255332947,0.0
73,-1.836981708966909,0.4544753474240655,1.2318784616291625,0.5152324573472253,-0.9148782743605359,0.03368527442216873,-0.004626184236258268,-0.05497041717171669,0.03368527442216873,-0.004626184236258268,-0.05497041717171669,0.0
74,0.3964891560008117,1.0750894477009947,0.6742762589463314,-1.4152538882643981,2.4884747519763364,0.29176533222198486,-0.11143077909946442,-0.03454598784446716,0.29176533222198486,-0.11143077909946442,-0.03454598784446716,0.0
75,-0.0757452937278158,-1.4205181885229414,-1.5398914724714725,-1.0146584735971746,-1.9280504202842557,-0.2760303318500519,-0.016710123047232628,0.06049564108252525,-0.2760303318500519,-0.016710123047232628,0.06049564108252525,0.0
76,0.38866441560480114,1.3616903020795812,0.45736175673654866,0.4119537342814883,-2.261399119985281,0.06384699046611786,-0.003966271877288818,-0.14839766919612885,0.06384699046611786,-0.003966271877288818,-0.14839766919612885,0.0
77,1.6508376721348155,0.35706507456427294,-0.8529746542010995,0.9106864614237129,-2.582912195995807,0.013861249200999737,-0.35977116227149963,0.22309274971485138,0.013861249200999737,-0.35977116227149963,0.22309274971485138,0.0
78,0.3336819204001662,-0.2693770970927829,1.5652947829768888,0.6161420772327635,-2.0637447579253014,0.05938363075256348,-2.6999034162145108e-05,-0.0472080335021019,0.05938363075256348,-2.6999034162145108e-05,-0.0472080335021019,0.0
79,-1.3407552830758627,-1.4417663383381072,1.013860891437674,-1.5624110094200576,0.473345900648503,0.03885519504547119,-0.0158415324985981,0.3678765296936035,0.03885519504547119,-0.0158415324985981,0.3678765296936035,0.0
80,1.1954612349401086,0.22114261949486758,0.8438134052623334,1.4924024931577204,-0.15109499468084042,0.04550597071647644,-0.013720586895942688,0.02347099967300892,0.04550597071647644,-0.013720586895942688,0.02347099967300892,0.0
81,0.9582734187108946,-1.5071919954784905,0.6970813367548883,-1.4693765498234441,2.284192491980507,-0.0228557251393795,0.0769018903374672,0.3706037998199463,-0.0228557251393795,0.0769018903374672,0.3706037998199463,0.0
82,0.2442904684763021,-1.5634946185904568,-1.4683287658649309,0.21467485517305174,1.9662859852149852,-0.3205103874206543,0.08180736005306244,0.2030489146709442,-0.3205103874206543,0.08180736005306244,0.2030489146709442,0.0
83,1.3868795764000326,0.2606525650842815,0.743129292427533,-0.8768682540426332,1.322032012654934,0.08987681567668915,-0.31699874997138977,0.08491190522909164,0.08987681567668915,-0.31699874997138977,0.08491190522909164,0.0
84,0.4517511387324933,0.46953080044599727,-0.3195048880601048,1.1508430866247712,-1.7662562547777703,0.29814383387565613,-0.11743702739477158,0.03628877177834511,0.29814383387565613,-0.11743702739477158,0.03628877177834511,0.0
85,-0.21729647148194453,-1.02949811839627,1.1813432700463111,-1.101865868630533,2.4647293462020414,0.20614075660705566,0.03155558928847313,0.31637582182884216,0.20614075660705566,0.03155558928847313,0.31637582182884216,0.0
86,1.3384624103497447,1.341689555785547,-0.27421759484030805,1.093692537770267,2.270462246008906,0.06295301765203476,-0.1294182986021042,-0.13580264151096344,0.06295301765203476,-0.1294182986021042,-0.13580264151096344,0.0
87,1.2297360498842433,-0.6530932361976642,-0.36385971932667327,1.2403794118559268,-2.7350488537489346,0.1109275072813034,-0.19476041197776794,0.3123476803302765,0.1109275072813034,-0.19476041197776794,0.3123476803302765,0.0
88,0.9175512144602402,-0.30592162852685423,-1.2181144774958659,-0.762505806664871,-2.3516138628944523,-0.008274996653199196,0.07030262798070908,0.483798086643219,-0.008274996653199196,0.07030262798070908,0.483798086643219,0.0
89,1.2356359548220621,0.16402113898575976,-0.5543919340421739,-0.17557543816403154,-2.0776110918633615,0.15413513779640198,-0.3108130097389221,0.36796990036964417,0.15413513779640198,-0.3108130097389221,0.36796990036964417,0.0
90,0.7357525039198576,1.5406130777300522,-1.37951616466412,1.1459183796779546,-1.1675594494813633,0.27821046113967896,-0.20705854892730713,-0.07898369431495667,0.27821046113967896,-0.20705854892730713,-0.07898369431495667,0.0
91,-1.6032018964927461,0.47995602154133854,1.4166941781166735,-0.570469474371003,-0.15824735919277355,0.03436410427093506,0.09988202899694443,-0.08231314271688461,0.03436410427093506,0.09988202899694443,-0.08231314271688461,0.0
92,0.726212140153764,0.047828173321405876,-0.45860992376791154,0.29325859541142085,2.0315236094693407,0.2904924154281616,-0.23330135643482208,0.3083498179912567,0.2904924154281616,-0.23330135643482208,0.3083498179912567,0.0
93,0.2815049708137467,1.6440037165502899,-1.4307656472084496,-0.6542973971603172,-1.9843713499402011,0.4405314326286316,-0.10888466984033585,0.12795941531658173,0.4405314326286316,-0.10888466984033585,0.12795941531658173,0.0
94,-0.5539306479476804,-0.22645463538351218,-0.18127703780401894,0.1957841493207173,1.5086024626358352,0.3067065477371216,0.15621788799762726,0.323702335357666,0.3067065477371216,0.15621788799762726,0.323702335357666,0.0
95,-0.6838288860394299,1.1082761228265414,-0.5912414763722953,1.0729987485909829,-1.3039156973687385,0.23447291553020477,0.16910965740680695,-0.07955024391412735,0.23447291553020477,0.16910965740680695,-0.07955024391412735,0.0
96,-1.6669544095955795,0.3873978171478343,-0.04961233572238344,-0.22270022576462667,-1.2830238859789962,-0.005618071649223566,0.3832882046699524,0.1500994712114334,-0.005618071649223566,0.3832882046699524,0.1500994712114334,0.0
97,0.16881240924747098,-1.260991942847121,0.04870781342489772,0.8501536879755431,-1.1301746957976018,0.16248196363449097,-0.01393207348883152,0.35913312435150146,0.16248196363449097,-0.01393207348883152,0.35913312435150146,0.0
98,-0.012324607270530974,1.5891972265505707,-1.4842298729645935,-1.3337974265054275,-0.12859941431003685,0.3766913115978241,0.005166851915419102,0.2249586135149002,0.3766913115978241,0.005166851915419102,0.2249586135149002,0.0
99,1.0945257204364789,1.6181665263337237,-1.1025944011727264,1.2003943019462084,2.6906276000587956,0.14798276126384735,-0.21979689598083496,-0.13725614547729492,0.14798276126384735,-0.21979689598083496,-0.13725614547729492,0.0
100,1.7974533837844016,1.3740564597196903,1.2520032092640814,-1.1882243607358978,0.1426022296320011,0.027661168947815895,-0.04339996352791786,-0.11874672770500183,0.027661168947815895,-0.04339996352791786,-0.11874672770500183,0.0
101,-1.320347246639392,0.41008894315668476,-0.010511464299871598,-1.269018202136754,1.5700788968600747,0.12847831845283508,0.3178253173828125,0.28251850605010986,0.12847831845283508,0.3178253173828125,0.28251850605010986,0.0
102,1.9082766903670878,-0.9463585763656998,-1.2778503170961875,-1.0349928201011553,-2.1137687524010316,0.14043542742729187,0.26990804076194763,0.2862009108066559,0.14043542742729187,0.26990804076194763,0.2862009108066559,0.0
103,-0.2246497634880531,0.6304525928935227,0.5531025524251154,1.0826899534014587,-0.33938121618186523,0.10399571806192398,0.017567453905940056,-0.049435555934906006,0.10399571806192398,0.017567453905940056,-0.049435555934906006,0.0
104,1.5712437508959232,-0.15262267544580665,0.005654123752900864,-0.41306065247570434,-1.813184266249991,0.04615243524312973,-0.30745729804039,0.3433440327644348,0.04615243524312973,-0.30745729804039,0.3433440327644348,0.0
105,1.4486165066352972,-0.2644186605781029,0.3722780313713545,-0.8201481937406251,-0.5994652554281847,0.07824886590242386,-0.28471675515174866,0.3224225342273712,0.07824886590242386,-0.28471675515174866,0.3224225342273712,0.0
106,1.7746972825953846,-0.5290993805065303,-1.6750545009036124,0.3920869102844391,-1.5072374744754091,0.07150249183177948,0.11987044662237167,0.48826396465301514,0.07150249183177948,0.11987044662237167,0.48826396465301514,0.0
107,0.559845606083611,0.5899994898114085,0.4142516477802687,-0.24491735024695993,2.787541992181552,0.3029594421386719,-0.16915996372699738,-0.020755711942911148,0.3029594421386719,-0.16915996372699738,-0.020755711942911148,0.0
108,-0.5348715383208895,-0.9268599887752594,-0.020166105802824186,0.2906463400839958,2.7161620588996964,0.17276631295681,0.07517853379249573,0.4219236969947815,0.17276631295681,0.07517853379249573,0.4219236969947815,0.0
109,-0.6336374292177238,-1.6429895480413435,-0.03347508974910007,-0.7659731266678066,-1.2705818457800981,-0.14588536322116852,-0.12651020288467407,0.3741458058357239,-0.14588536322116852,-0.12651020288467407,0.3741458058357239,0.0
110,1.3900832409636426,-0.7160004319124107,1.0881160912906496,-1.2806604302975744,-0.3587738912864049,0.07908830791711807,-0.20499275624752045,0.2967565953731537,0.07908830791711807,-0.20499275624752045,0.2967565953731537,0.0
111,1.5232207590784874,-0.8378258364318582,1.411557316597381,1.365494609093161,-0.5334025743833419,0.0436694398522377,-0.017771368846297264,-0.0022476573940366507,0.0436694398522377,-0.017771368846297264,-0.0022476573940366507,0.0
112,-1.27235974696627,1.7099927821600978,1.4209589206382787,1.0582902215771683,2.0946399220853174,0.022192776203155518,-0.07825858891010284,0.20264501869678497,0.022192776203155518,-0.07825858891010284,0.20264501869678497,0.0
113,-1.5297179669569851,-0.30152724509184226,-0.802871070622926,-0.09748021387989758,-1.6578041035287916,0.03676074743270874,0.13654224574565887,0.5040591955184937,0.03676074743270874,0.13654224574565887,0.5040591955184937,0.0
114,-0.3531365091972425,-0.09147988619053149,0.6305714828171869,0.9840737158851509,0.135549696994679,0.19512949883937836,0.05645796284079552,0.007047435734421015,0.19512949883937836,0.05645796284079552,0.007047435734421015,0.0
115,-1.742811841178793,-0.47681812064802065,0.8357981098599372,-0.40533429298466284,-2.2441506378139504,-0.016709603369235992,0.2852627635002136,0.19937200844287872,-0.016709603369235992,0.2852627635002136,0.19937200844287872,0.0
116,0.9067952063629718,-0.9041733537827108,-0.9191989148331019,-1.551247882154574,-1.8956321879264806,-0.0995408222079277,0.188603475689888,0.2981548309326172,-0.0995408222079277,0.188603475689888,0.2981548309326172,0.0
117,-1.4453669503927018,1.4899353498955308,1.4880980250240183,-1.1010145130691804,2.001386147895203,0.04215233400464058,-0.03306358680129051,-0.08208094537258148,0.04215233400464058,-0.03306358680129051,-0.08208094537258148,0.0
118,0.6537053171353655,-0.4453216297803331,1.6740283505137463,0.020554500727158365,2.344336743993156,0.12474431842565536,-0.07330216467380524,-0.04444700479507446,0.12474431842565536,-0.07330216467380524,-0.04444700479507446,0.0
119,-0.9981153527275454,-0.5168054088751646,1.1540169333171182,0.9765242012454329,2.7676779640643083,0.10174070298671722,0.09162624180316925,-0.0071701789274811745,0.10174070298671722,0.09162624180316925,-0.0071701789274811745,0.0
120,-1.800196113908847,-1.4049738398115672,1.3178629421175612,-1.3020358864697998,-0.45811143062922177,0.014177067205309868,0.09035149961709976,0.3350546061992645,0.014177067205309868,0.09035149961709976,0.3350546061992645,0.0
121,-0.8311160072238684,-0.9752041411423391,-0.3249707436163898,-0.06027711061964136,-0.7894469059880449,0.049931105226278305,0.02039163000881672,0.4888916611671448,0.049931105226278305,0.02039163000881672,0.4888916611671448,0.0
122,0.4928111154189221,-0.28324457457302676,-1.4334285318948474,-1.2415687108796654,-0.4916755647821893,-0.09529614448547363,0.07622632384300232,0.4010228216648102,-0.09529614448547363,0.07622632384300232,0.4010228216648102,0.0
123,-1.616318571125129,-0.3325481802684309,0.9773015018908335,-0.5791973064662517,-0.8534942882859298,0.01977410726249218,0.28904488682746887,0.13973760604858398,0.01977410726249218,0.28904488682746887,0.13973760604858398,0.0
124,-1.8399583436421034,-1.7188790212370302,-0.8503457053497231,-1.505399114399728,1.037884767220695,0.1251128613948822,-0.2868139445781708,0.07092452049255371,0.1251128613948822,-0.2868139445781708,0.07092452049255371,0.0
125,-0.4639744963956034,-0.9476104144203036,-0.6222158564673836,-0.20024836694933845,0.5468687261484035,-0.02598743513226509,-0.03707350790500641,0.4973692297935486,-0.02598743513226509,-0.03707350790500641,0.4973692297935486,0.0
126,1.382719386220559,-0.6046462703378561,-1.524251005107836,-0.7682994773142822,-0.6658286487568001,-0.0011829233262687922,0.23610712587833405,0.38126274943351746,-0.0011829233262687922,0.23610712587833405,0.38126274943351746,0.0
127,1.705057936907024,-1.645489484954882,0.8721083271059977,-0.22551328477666122,2.071427893299563,0.01938827894628048,-0.09027133882045746,0.3699413239955902,0.01938827894628048,-0.09027133882045746,0.3699413239955902,0.0
128,1.5851198109822224,1.5727527764324942,-0.9409027860259578,0.19652240043935265,-1.6161974176380511,0.04134730249643326,-0.36295124888420105,-0.10407011210918427,0.04134730249643326,-0.36295124888420105,-0.10407011210918427,0.0
129,0.08252634868088604,-1.0180283937154,1.104049390260549,0.5820944957170011,0.10316252805241,0.24232788383960724,-0.017658879980444908,0.08830003440380096,0.24232788383960724,-0.017658879980444908,0.08830003440380096,0.0
130,1.4933220996105274,1.004626376282387,0.6612227864959594,-1.5862709402442998,-1.589390876972596,0.06909783184528351,-0.29007241129875183,0.006222727242857218,0.06909783184528351,-0.29007241129875183,0.006222727242857218,0.0
131,0.2083091262646426,-1.6374668657660707,0.6307121872086232,0.20048951117009262,-0.38756164851747554,0.13668760657310486,-0.01765548251569271,0.36371803283691406,0.13668760657310486,-0.01765548251569271,0.36371803283691406,0.0
132,0.11611248038502753,0.9927494239165995,-0.04031806257043846,1.6490740209532018,-1.4104690651194212,0.12443790584802628,-0.002282840432599187,-0.033185575157403946,0.12443790584802628,-0.002282840432599187,-0.033185575157403946,0.0
133,0.25276979775580743,0.1484868016344547,0.925179674163354,0.6638294106520777,0.30694633853814457,0.14449892938137054,-0.029776429757475853,-0.04806435480713844,0.14449892938137054,-0.029776429757475853,-0.04806435480713844,0.0
134,0.4965303417960407,-0.41684150063707914,-0.7623042683606188,-1.0847077239336929,2.644669707016713,-0.006988059729337692,0.020173395052552223,0.4756433963775635,-0.006988059729337692,0.020173395052552223,0.4756433963775635,0.0
135,0.27820547784750094,-0.17694322510536753,0.03441790737187422,0.7528335453733208,1.192819025459173,0.3249284327030182,-0.08946796506643295,0.16287758946418762,0.3249284327030182,-0.08946796506643295,0.16287758946418762,0.0
136,1.761355794198241,-1.4635032884438635,-1.3312096766266128,-1.5306315894830613,-1.876737862344106,0.09618368744850159,0.25872862339019775,0.04905746504664421,0.09618368744850159,0.25872862339019775,0.04905746504664421,0.0
137,0.6117678845091983,-0.4915470770647803,-0.6680520617194834,-0.36042277788439714,-1.9659953162971882,0.08872364461421967,-0.026387540623545647,0.5139756798744202,0.08872364461421967,-0.026387540623545647,0.5139756798744202,0.0
138,-0.8937447143320243,-1.222710081869824,-0.3944423312780774,0.03946788911669219,1.109294617143143,-0.002397147472947836,-0.06275640428066254,0.47508084774017334,-0.002397147472947836,-0.06275640428066254,0.47508084774017334,0.0
139,-1.1623834085575324,-0.5237252389769338,-0.7734006275319755,1.2267028991041669,2.189444332950562,0.11978543549776077,0.17016610503196716,0.37501025199890137,0.11978543549776077,0.17016610503196716,0.37501025199890137,0.0
140,-0.4880013632432689,1.0991193401206822,1.4961023256053405,0.7550091586889198,-1.86441830542925,-0.07540225982666016,-0.05233399569988251,0.0988580659031868,-0.07540225982666016,-0.05233399569988251,0.0988580659031868,0.0
141,1.8582283121533005,-0.7079229597464862,0.7893624741824223,-0.27349001819923147,2.0683854373648956,-0.04431408271193504,-0.25588110089302063,0.24848730862140656,-0.04431408271193504,-0.25588110089302063,0.24848730862140656,0.0
142,1.4510252832769517,1.247110956778731,-0.6510328234550997,-0.6125424068974585,1.0974555878631684,0.08192083239555359,-0.41769590973854065,0.05330057069659233,0.08192083239555359,-0.41769590973854065,0.05330057069659233,0.0
143,0.6731458908897863,1.0633635831486505,1.5418388703023664,-0.26297181172405204,0.24585002841116532,-0.03073747642338276,0.05299600586295128,-0.035359613597393036,-0.03073747642338276,0.05299600586295128,-0.035359613597393036,0.0
144,0.2913613433411304,0.7027819498188306,1.3412020456470803,-0.14690206434916853,2.8319377649754287,0.06076622009277344,-0.009441106580197811,-0.09127061069011688,0.06076622009277344,-0.009441106580197811,-0.09127061069011688,0.0
145,1.2131893109987062,0.5120828964156305,0.2965741541994402,0.7564793081322045,-1.7934383938638505,0.11924982815980911,-0.19379262626171112,-0.052194785326719284,0.11924982815980911,-0.19379262626171112,-0.052194785326719284,0.0
146,-0.028886954493375194,-0.822983525949908,1.6276880416025072,-0.8849507999961652,-1.0170465769292263,0.2617698907852173,0.013076203875243664,0.12883740663528442,0.2617698907852173,0.013076203875243664,0.12883740663528442,0.0
147,-0.8329107762934203,0.6558100910335694,-0.6472892682272544,-0.1738153405608085,-0.508923702344072,0.31475502252578735,0.3091471791267395,0.2122696489095688,0.31475502252578735,0.3091471791267395,0.2122696489095688,0.0
148,-0.5927936367000555,-0.07626852171017173,0.980715889433855,-0.43599935566574066,2.8036027895352476,0.27489110827445984,0.1554490327835083,0.0628594234585762,0.27489110827445984,0.1554490327835083,0.0628594234585762,0.0
149,1.3676245463347936,-1.5470997692203616,0.9259281989631294,1.5650553082885523,-0.5368045221533473,0.06559677422046661,-0.11004290729761124,0.09711558371782303,0.06559677422046661,-0.11004290729761124,0.09711558371782303,0.0
150,-0.977814555231689,-1.2606261233851714,0.025369547647877466,-0.42710760316445495,-0.20458289973543708,0.017602870240807533,-0.028662562370300293,0.4659759998321533,0.017602870240807533,-0.028662562370300293,0.4659759998321533,0.0
151,-0.24180705081036935,-0.07807794182924677,0.435910067144321,-1.4483486438120217,-2.187752244879193,0.2772698998451233,0.0651622787117958,0.33202239871025085,0.2772698998451233,0.0651622787117958,0.33202239871025085,0.0
152,-0.44978082080099213,-1.6555420811578203,1.3191109988389522,1.6374844596258902,2.5698046606089084,0.12209106236696243,0.03509476035833359,0.032689716666936874,0.12209106236696243,0.03509476035833359,0.032689716666936874,0.0
153,1.1067343055224996,0.28958044190541665,-0.5503754978726172,0.5180372027816091,-0.7277942279077694,0.20949478447437286,-0.32933637499809265,0.2101878523826599,0.20949478447437286,-0.32933637499809265,0.2101878523826599,0.0
154,1.3442480818783262,-0.6032622714684432,1.0899444120531032,-0.28836109421842826,0.8901463836216115,0.0926113873720169,-0.2609512507915497,0.13031628727912903,0.0926113873720169,-0.2609512507915497,0.13031628727912903,0.0
155,1.549960394500547,0.14558782194624964,-1.262582664419973,-1.1286286963545433,1.5841110721725222,0.031370822340250015,-0.02962901070713997,0.4718080163002014,0.031370822340250015,-0.02962901070713997,0.4718080163002014,0.0
156,-0.510065306885565,0.5231269984923959,-1.4023861800317303,-0.8998570704229218,-2.0581309990343812,0.1718868762254715,0.08214189112186432,0.4623410999774933,0.1718868762254715,0.08214189112186432,0.4623410999774933,0.0
157,-0.5464200236320726,0.9415213890690892,0.7227547362336861,-1.1652489095293344,-1.7446253552117712,0.26644930243492126,0.14730186760425568,-0.04943528026342392,0.26644930243492126,0.14730186760425568,-0.04943528026342392,0.0
158,-0.07363374138991952,-1.4364964433196659,-0.002492899815737193,0.35665705242444257,0.7048449172176872,0.0544702485203743,-0.0040316274389624596,0.431565523147583,0.0544702485203743,-0.0040316274389624596,0.431565523147583,0.0
159,0.8712032650303203,-1.1445515894386262,-0.8928523710041231,-0.5429726563913857,-0.8654517769225651,-0.12274253368377686,0.20122183859348297,0.3957492411136627,-0.12274253368377686,0.20122183859348297,0.3957492411136627,0.0
160,0.8079106666694673,1.5873836857413242,1.687025682272962,0.5508915226973039,-1.0004099536816606,-0.03432869538664818,0.08603064715862274,0.2032250612974167,-0.03432869538664818,0.08603064715862274,0.2032250612974167,0.0
161,-0.17208035927633558,0.23128102104244852,1.4499677279910572,-1.397810441384308,-1.2120618110549801,0.2601500153541565,0.04585415869951248,0.03806145489215851,0.2601500153541565,0.04585415869951248,0.03806145489215851,0.0
162,-0.7167353275440225,-0.22446953673320658,-1.241163780469314,1.0327732787445625,1.140159465650521,0.18507684767246246,0.11775583773851395,0.4309394359588623,0.18507684767246246,0.11775583773851395,0.4309394359588623,0.0
163,0.9802718392481085,0.16239470381384336,-1.1629910915679673,-0.3760560130446635,-1.0731980419498186,0.14415964484214783,-0.1448320597410202,0.49506327509880066,0.14415964484214783,-0.1448320597410202,0.49506327509880066,0.0
164,1.7178040611978846,1.0068236231031045,-0.12056852026920861,0.8929940390860536,-0.3270401062894588,0.013553449884057045,-0.18793624639511108,-0.10235343873500824,0.013553449884057045,-0.18793624639511108,-0.10235343873500824,0.0
165,-0.4957039119567792,0.32750783738693245,0.10293660455292697,-0.3318891620816584,-1.5303992102247086,0.3661898672580719,0.18579620122909546,0.1467970311641693,0.3661898672580719,0.18579620122909546,0.1467970311641693,0.0
166,1.3668166689160244,1.0919552721425334,0.982069475085523,-0.41372039369196845,1.4779982914483183,0.04466268792748451,-0.0678064376115799,-0.13557790219783783,0.04466268792748451,-0.0678064376115799,-0.13557790219783783,0.0
167,-0.9665320634028486,-0.595303236819761,-1.0564305130704619,0.026224379354447214,-2.73720552648854,0.01288050040602684,-0.032705001533031464,0.518132746219635,0.01288050040602684,-0.032705001533031464,0.518132746219635,0.0
168,-1.3048294359608863,-1.7005295261594395,0.14447558598015853,-1.0302813921854999,-2.5490715366737615,-0.024746691808104515,-0.21781592071056366,0.3430517315864563,-0.024746691808104515,-0.21781592071056366,0.3430517315864563,0.0
169,1.37340738358699,0.03885685656768345,-0.49188753277861896,0.5442937059767992,-0.179755183023242,0.10681308060884476,-0.33275654911994934,0.2694942057132721,0.10681308060884476,-0.33275654911994934,0.2694942057132721,0.0
170,0.18507991669612744,0.15289054974031457,1.6574340865331583,0.5925833486139271,0.11539616931167673,-0.0348169319331646,0.012851185165345669,-0.010083355009555817,-0.0348169319331646,0.012851185165345669,-0.010083355009555817,0.0
171,0.5708181443359996,-1.5376531698322444,0.8738014204776197,1.009482600626819,-0.5457600873745987,0.1835910677909851,-0.08811790496110916,0.1753125637769699,0.1835910677909851,-0.08811790496110916,0.1753125637769699,0.0
172,-0.4204071004038825,0.9447526792952585,-0.462296217388219,-1.1689650193664571,-2.3513248540801115,0.3831161558628082,0.1597435623407364,0.20720653235912323,0.3831161558628082,0.1597435623407364,0.20720653235912323,0.0
173,-1.3113509983713092,-0.2163588592027439,-0.48408145912222,0.7428229459997919,2.5995547162326496,0.1181822270154953,0.28180959820747375,0.3234144151210785,0.1181822270154953,0.28180959820747375,0.3234144151210785,0.0
174,0.10497685586070338,-1.2967864597340442,-1.0834063311851843,1.2961972153872174,0.8830406451088724,-0.05390213057398796,0.003558606607839465,0.4016484320163727,-0.05390213057398796,0.003558606607839465,0.4016484320163727,0.0
175,0.8001399274620629,-0.3952790776029327,-0.17358906859958667,1.204456734950017,-0.1383537320778525,0.21184416115283966,-0.1766384243965149,0.20751580595970154,0.21184416115283966,-0.1766384243965149,0.20751580595970154,0.0
176,-1.2780862850062003,-1.6544804647247155,-1.2582489252558884,-0.7715475374207088,2.232144050292068,-0.05608690157532692,-0.33755970001220703,0.07435720413923264,-0.05608690157532692,-0.33755970001220703,0.07435720413923264,0.0
177,0.4080129821188674,-0.5236467187867067,-1.6429589099890305,-0.3714798822904366,1.5147725686372135,-0.15933094918727875,0.07688142359256744,0.4276922941207886,-0.15933094918727875,0.07688142359256744,0.4276922941207886,0.0
178,0.5300426459358358,-0.3374215531903595,-1.338616602333608,1.1376565341461562,-2.5966583790593223,0.1558440774679184,-0.06418799608945847,0.4532183110713959,0.1558440774679184,-0.06418799608945847,0.4532183110713959,0.0
179,-0.9805357632190514,-1.115411766688609,-0.6280405978259365,-0.2111932225282065,2.44905311066392,-0.04123673960566521,-0.12913872301578522,0.46865859627723694,-0.04123673960566521,-0.12913872301578522,0.46865859627723694,0.0
180,-0.6874134160346401,-1.3173839168830315,-1.259104934650652,1.5776565821073187,-1.0584903549318059,-0.04194856435060501,-0.05753849074244499,0.3716426491737366,-0.04194856435060501,-0.05753849074244499,0.3716426491737366,0.0
181,0.7362734161938436,-1.3607409601677367,-0.5943084432241261,0.9444053856839811,0.2740299848344496,0.00910672266036272,0.024032240733504295,0.42139872908592224,0.00910672266036272,0.024032240733504295,0.42139872908592224,0.0
182,0.27164575921976164,0.6290147423245775,0.9355438658225959,1.652541513631664,2.610164285565604,0.004950779024511576,0.004947795066982508,0.06158920004963875,0.004950779024511576,0.004947795066982508,0.06158920004963875,0.0
183,-1.4087823859305404,-0.9903892898094825,-0.48383130327944657,-0.6047947883884799,-2.2636817460825713,0.013347621075809002,-0.12001729011535645,0.4731005132198334,0.013347621075809002,-0.12001729011535645,0.4731005132198334,0.0
184,0.6276275990802267,-0.44514000029377,0.9658285228864862,-1.1875819633692377,-1.276906203562602,0.2481776475906372,-0.1426904946565628,0.26447445154190063,0.2481776475906372,-0.1426904946565628,0.26447445154190063,0.0
185,0.58617723872388,-0.047904228535365245,-0.15725909537604088,-0.18874237384381587,0.6278361624832702,0.31408166885375977,-0.18839342892169952,0.31807181239128113,0.31408166885375977,-0.18839342892169952,0.31807181239128113,0.0
186,1.0015983413459435,1.5889976044604617,0.5779341807813614,-1.28581816693191,-1.0828457518425696,0.13602545857429504,-0.13913080096244812,-0.15309342741966248,0.13602545857429504,-0.13913080096244812,-0.15309342741966248,0.0
187,1.008749774947165,-0.590983213899938,-1.0588822118025225,-0.7079617773659895,0.5419911887471924,-0.03544028475880623,0.11021821945905685,0.4770074784755707,-0.03544028475880623,0.11021821945905685,0.4770074784755707,0.0
188,1.3480695383785313,1.1167653884954793,-0.2659042954814381,-1.6341188985158501,0.9755873827996684,0.11029405146837234,-0.34550297260284424,0.1519259363412857,0.11029405146837234,-0.34550297260284424,0.1519259363412857,0.0
189,0.7248419667933885,0.9867325682698342,-0.5232940570207973,0.6907916898318629,-2.7311662059792225,0.2906349003314972,-0.21923841536045074,-0.042989831417798996,0.2906349003314972,-0.21923841536045074,-0.042989831417798996,0.0
190,0.026615268356234623,-0.0855556422745467,-1.206575576608484,0.7336546780283932,-1.6318725317066531,0.2544395625591278,0.001962145557627082,0.44720184803009033,0.2544395625591278,0.001962145557627082,0.44720184803009033,0.0
191,0.5559315817189123,1.5044243886745434,1.3604307943814087,1.1690252110029198,-0.8660130018979131,-0.02582422085106373,0.04717567190527916,0.181361585855484,-0.02582422085106373,0.04717567190527916,0.181361585855484,0.0
192,1.0938913891416826,1.072549984269453,-1.1713387264878419,1.6046265761760303,-1.9819654679284782,0.178189218044281,-0.2544580399990082,0.005602539982646704,0.178189218044281,-0.2544580399990082,0.005602539982646704,0.0
193,0.4518629695486118,-0.5575117182625879,0.7596829330924595,-1.6408925160847054,0.5959660892274838,0.1766313910484314,-0.07185367494821548,0.3619117736816406,0.1766313910484314,-0.07185367494821548,0.3619117736816406,0.0
194,0.7150916180517508,-1.242060622485493,1.2504576622925403,1.2659285194399386,-0.4655798171393126,0.12243971228599548,-0.06794281303882599,0.02918858826160431,0.12243971228599548,-0.06794281303882599,0.02918858826160431,0.0
195,-0.5938882366185751,-0.3633372441862368,-1.1118546808690537,-0.9005458266219332,1.9014015970900244,-0.03324367478489876,-0.05796653777360916,0.47518542408943176,-0.03324367478489876,-0.05796653777360916,0.47518542408943176,0.0
196,-0.6407439897482001,0.6448305442420819,-0.655730322303679,0.31444818387211626,1.7882354859321774,0.37039265036582947,0.23735514283180237,0.15028521418571472,0.37039265036582947,0.23735514283180237,0.15028521418571472,0.0
197,-1.2688640441717083,0.42576200232065364,0.32458046961521836,-1.0542224894966195,-0.20702532308792065,0.14400506019592285,0.34309276938438416,0.15967370569705963,0.14400506019592285,0.34309276938438416,0.15967370569705963,0.0
198,0.17447327664673296,-0.8003104722678401,0.5642968217573499,-0.6559501961012655,-0.8877503660294517,0.23963171243667603,-0.029243433848023415,0.3725723922252655,0.23963171243667603,-0.029243433848023415,0.3725723922252655,0.0
199,-1.1263438774077579,-0.6219377230219729,-1.4732961840256715,0.4419344256408253,-1.3120661335659423,-0.009105987846851349,-0.08321957290172577,0.4974095821380615,-0.009105987846851349,-0.08321957290172577,0.4974095821380615,0.0
200,0.6197940549488146,-0.5080911451023897,1.302468236446694,0.9535660426379511,-2.40219817338551,0.10372491925954819,-0.04013282433152199,-0.02181013487279415,0.10372491925954819,-0.04013282433152199,-0.02181013487279415,0.0
201,-0.836026222229358,1.6722694239839284,0.5000625350652688,-1.0888147661368395,-1.2835233789118667,0.12731321156024933,0.10903323441743851,-0.17848986387252808,0.12731321156024933,0.10903323441743851,-0.17848986387252808,0.0
202,1.5782915856770239,-0.12029547289312115,0.5485042707661307,-0.697450836382706,-0.5205502833469602,0.04029906168580055,-0.32487910985946655,0.2162577509880066,0.04029906168580055,-0.32487910985946655,0.2162577509880066,0.0
203,-1.0836262823222227,1.3554135222190573,-1.2009612331749744,-1.6336916493041838,1.63206677872987,0.18391965329647064,0.2566244602203369,0.2562815248966217,0.18391965329647064,0.2566244602203369,0.2562815248966217,0.0
204,0.24331592480251452,-1.0839160113379402,1.1395248790481807,-1.2378977922967038,2.7599504074830072,0.16671891510486603,-0.035119254142045975,0.34182390570640564,0.16671891510486603,-0.035119254142045975,0.34182390570640564,0.0
205,-0.5272779549460533,-0.29738815952505027,1.47623087087343,-0.1550583749721266,-2.128699048715368,0.17994366586208344,0.08961328119039536,-0.023993410170078278,0.17994366586208344,0.08961328119039536,-0.023993410170078278,0.0
206,-0.5163843298555826,0.22017617666762446,-0.4926454075410418,0.8004852055502865,2.060763746499825,0.34691765904426575,0.16661107540130615,0.1845126748085022,0.34691765904426575,0.16661107540130615,0.1845126748085022,0.0
207,0.6615870396488939,0.20432474386425592,-0.9738816737549807,-0.9073540988879045,0.8314334677045854,0.16340695321559906,-0.10447979718446732,0.4776560068130493,0.16340695321559906,-0.10447979718446732,0.4776560068130493,0.0
208,-0.9646452114173566,-1.3043764241426072,1.5121249034807818,1.3387186607128159,-1.963262864828978,0.07251033931970596,0.060970697551965714,-0.008589579723775387,0.07251033931970596,0.060970697551965714,-0.008589579723775387,0.0
209,-0.9623780643450773,-1.0652054460210603,1.5563569622328681,0.5664338650892125,0.002697389644276349,0.11783716082572937,0.1133611798286438,-0.006015563849359751,0.11783716082572937,0.1133611798286438,-0.006015563849359751,0.0
210,0.198387802325108,-0.5929941953620803,1.6698489362066784,0.47229917099217045,-1.1881872668957945,0.09897789359092712,-0.004731002729386091,-0.04996220022439957,0.09897789359092712,-0.004731002729386091,-0.04996220022439957,0.0
211,-1.7153780410485284,-0.9936759788849683,-0.15215263085055564,0.41881421210554914,2.1862530527262773,0.028452925384044647,0.11797953397035599,0.4356660842895508,0.028452925384044647,0.11797953397035599,0.4356660842895508,0.0
212,-1.008193189082525,0.9948160068990384,-1.2904131505771748,-0.16037704206073577,-2.1877284327695437,0.2514914274215698,0.3488112986087799,0.2730438709259033,0.2514914274215698,0.3488112986087799,0.2730438709259033,0.0
213,1.9173349116041685,0.7656741199415502,0.5276573348733837,0.5970590924335017,-2.2427714480051337,0.0018236014293506742,-0.11987362802028656,-0.10271842777729034,0.0018236014293506742,-0.11987362802028656,-0.10271842777729034,0.0
214,0.239057861723182,-0.14220641690467528,-0.6474242742165353,0.717552727345496,1.8744712375428918,0.3207981288433075,-0.07671281695365906,0.3451206088066101,0.3207981288433075,-0.07671281695365906,0.3451206088066101,0.0
215,0.20334353111921555,-1.5790823058801777,-0.729016052083866,-1.3176087077603498,-1.6076579569336786,-0.27072063088417053,0.07170047610998154,0.16552044451236725,-0.27072063088417053,0.07170047610998154,0.16552044451236725,0.0
216,-1.6331093436936603,-1.1621758986907458,-0.8887694982790525,-1.0659025814608762,0.0032950392796631256,0.05678898096084595,-0.2871246039867401,0.3161051273345947,0.05678898096084595,-0.2871246039867401,0.3161051273345947,0.0
217,1.166045913706526,1.3540961297547915,-0.5564657020429762,1.0752479272659123,-1.048828213607907,0.12116438150405884,-0.1750197559595108,-0.13034699857234955,0.12116438150405884,-0.1750197559595108,-0.13034699857234955,0.0
218,-1.6769697292003913,0.3669407360584338,-0.5229690986884126,0.5253934690627748,2.3374372297407753,0.004534391686320305,0.37829312682151794,0.1852475255727768,0.004534391686320305,0.37829312682151794,0.1852475255727768,0.0
219,0.09290661804425682,0.06268277709820924,1.516550729715123,-0.557883826355178,-1.5528693194871306,0.1915237158536911,-0.006466597784310579,-0.04352182894945145,0.1915237158536911,-0.006466597784310579,-0.04352182894945145,0.0
220,0.5611267020643731,-0.4961236689329436,0.26390021743980796,-1.4679456684800913,2.721258419798745,0.1249040737748146,-0.058293651789426804,0.4220075309276581,0.1249040737748146,-0.058293651789426804,0.4220075309276581,0.0
221,1.1781430497021277,0.9976575832631118,1.6158579625666247,-1.1879467547654203,2.3700875455127672,0.054438188672065735,-0.052845340222120285,-0.07509421557188034,0.054438188672065735,-0.052845340222120285,-0.07509421557188034,0.0
222,-1.6491822360449986,-0.26842807132134205,0.13310272592845185,-1.0598665146252078,0.6125009057579875,0.025783415883779526,0.2246854305267334,0.40163829922676086,0.025783415883779526,0.2246854305267334,0.40163829922676086,0.0
223,1.7602340251780677,-1.3492394971304817,0.3188985823764905,-0.2312699880945872,-2.440528407029114,0.03708641976118088,-0.034569840878248215,0.44054827094078064,0.03708641976118088,-0.034569840878248215,0.44054827094078064,0.0
224,0.10367494590614257,-1.56007729066703,-1.3764599563781617,1.4629850788231333,-1.4426872126821924,-0.15800121426582336,0.028200166299939156,0.326575368642807,-0.15800121426582336,0.028200166299939156,0.326575368642807,0.0
225,1.4849691504125384,-0.8181663606967862,1.4459273136120658,-1.411196748095034,0.5165798863098336,0.05183098837733269,-0.1969379335641861,0.24640639126300812,0.05183098837733269,-0.1969379335641861,0.24640639126300812,0.0
226,0.31925401920405205,1.345956674376224,0.2502557743601723,0.9244243462482127,-0.12419312324007015,0.05252235010266304,-0.003505964297801256,-0.10686719417572021,0.05252235010266304,-0.003505964297801256,-0.10686719417572021,0.0
227,0.30207958693021997,-1.2094132575024927,0.692453782765492,-0.14690104215121247,-0.8230159194539357,0.21081170439720154,-0.04758961871266365,0.347760409116745,0.21081170439720154,-0.04758961871266365,0.347760409116745,0.0
228,-1.7813034345647618,-0.2062901521912044,1.413919239442765,-1.2086420921319188,2.3090484918663305,-0.006728055886924267,0.24258585274219513,0.11362151801586151,-0.006728055886924267,0.24258585274219513,0.11362151801586151,0.0
229,1.2408675475205988,-0.02573103041580449,-1.034437419946784,-1.377057717247617,2.677447312741993,0.03227187320590019,0.007239704951643944,0.4478665590286255,0.03227187320590019,0.007239704951643944,0.4478665590286255,0.0
230,0.7208615068548307,1.5478305104492098,-0.2224926640636571,-1.526021735559056,1.0017252075757486,0.28854110836982727,-0.2283637821674347,-0.010969134047627449,0.28854110836982727,-0.2283637821674347,-0.010969134047627449,0.0
231,1.0280603598158735,1.1414150839876078,0.10737076965788006,1.2587855298361135,-1.5996861903309527,0.078489288687706,-0.05080435425043106,-0.08295805752277374,0.078489288687706,-0.05080435425043106,-0.08295805752277374,0.0
232,1.1485611355849712,1.5427696293513464,-1.2583904603404348,-1.5665044997131388,0.9580845342458693,0.16583213210105896,-0.2986507713794708,0.21021556854248047,0.16583213210105896,-0.2986507713794708,0.21021556854248047,0.0
233,0.20348035686325971,-1.2830810905102026,-0.13983354226762268,1.3524886466261818,-0.007781783647246243,0.14121264219284058,-0.02107258327305317,0.3129107356071472,0.14121264219284058,-0.02107258327305317,0.3129107356071472,0.0
234,-0.815186089369635,1.3942367933053528,1.5809104834123535,-0.2566484363107491,1.1784704818980263,-0.046645600348711014,-0.1015455350279808,0.01884753629565239,-0.046645600348711014,-0.1015455350279808,0.01884753629565239,0.0
235,-1.7463997657973531,-0.21902785556031734,-0.38527159333535477,0.900599530097357,2.4686773236584507,-0.007619583513587713,0.29175856709480286,0.2728119492530823,-0.007619583513587713,0.29175856709480286,0.2728119492530823,0.0
236,-0.333305361747265,1.1505316732682123,-0.20022927891778952,1.2406533666066102,-1.2768615480817558,0.16207802295684814,0.050536658614873886,-0.09810387343168259,0.16207802295684814,0.050536658614873886,-0.09810387343168259,0.0
237,1.348921472642881,-1.7352174637248607,1.2862936346008382,0.4608785971308993,2.6994338357377847,0.07776493579149246,-0.18941819667816162,0.19419369101524353,0.07776493579149246,-0.18941819667816162,0.19419369101524353,0.0
238,-0.9262671303180804,-1.378077501381518,-0.5973848326916933,-0.15210026908190377,1.7271540881102734,-0.08553938567638397,-0.1788104623556137,0.4222137928009033,-0.08553938567638397,-0.1788104623556137,0.4222137928009033,0.0
239,-0.5994426558359325,1.511078021595739,-1.0425023804466909,-0.36705647541328146,2.7159664106700525,0.3928162157535553,0.23753517866134644,0.0300407987087965,0.3928162157535553,0.23753517866134644,0.0300407987087965,0.0
240,-0.5124487272122127,0.5567455234221845,0.8583224839915267,-0.6309484431096528,2.6798190596463245,0.26505112648010254,0.12285223603248596,-0.042577095329761505,0.26505112648010254,0.12285223603248596,-0.042577095329761505,0.0
241,0.7043883562517776,0.38014137506790524,-0.21771341877541284,1.0327398821125964,0.18085986215750527,0.2537769675254822,-0.18454203009605408,0.04307272285223007,0.2537769675254822,-0.18454203009605408,0.04307272285223007,0.0
242,-0.40466573755806046,0.9703241826876683,0.1886271893768543,-0.725349607036341,-0.6525978417098117,0.3492833077907562,0.13813911378383636,-0.036936357617378235,0.3492833077907562,0.13813911378383636,-0.036936357617378235,0.0
243,1.0737917976658835,1.6274801843043614,0.08348178953091168,1.6253816329912938,-2.642870037532698,0.02753475494682789,0.028080539777874947,-0.02810817025601864,0.02753475494682789,0.028080539777874947,-0.02810817025601864,0.0
244,0.335170715311758,1.6687579170206517,0.281281034508307,0.64984912892077,0.9980443966636416,-0.005053241737186909,0.00816310290247202,-0.12782412767410278,-0.005053241737186909,0.00816310290247202,-0.12782412767410278,0.0
245,0.7991382687639796,1.6189861989116068,-1.442115166961817,-1.5154363678405003,-1.255574144473247,0.26314297318458557,-0.21996359527111053,0.21901872754096985,0.26314297318458557,-0.21996359527111053,0.21901872754096985,0.0
246,-0.37668373980988124,1.6691596719172734,-1.669617491477077,0.8064803477804963,-1.2347007331985258,0.3923315107822418,0.1477259248495102,-0.033640556037425995,0.3923315107822418,0.1477259248495102,-0.033640556037425995,0.0
247,0.487194402321554,0.26407932540563017,1.385158424517798,-1.6316632704926743,1.0515325667296884,0.24814724922180176,-0.11876001209020615,0.07620397955179214,0.24814724922180176,-0.11876001209020615,0.07620397955179214,0.0
248,0.9658154093405331,0.12014042873447628,0.28230717622268964,1.315758801933469,-0.9193041509622706,0.14054445922374725,-0.1361760050058365,0.02013414353132248,0.14054445922374725,-0.1361760050058365,0.02013414353132248,0.0
249,1.828340041104934,-1.622285678554073,0.9650313834258837,-0.7729013635220556,-2.1559891756787497,0.03526091203093529,-0.03837340697646141,0.383588582277298,0.03526091203093529,-0.03837340697646141,0.383588582277298,0.0
250,-1.2253180591004542,0.10051783200132802,1.1778977775668187,-0.3858262450822947,-0.13702515921719938,0.10801079124212265,0.19535483419895172,-0.0307695921510458,0.10801079124212265,0.19535483419895172,-0.0307695921510458,0.0
251,1.7634054418067588,-0.15656867449127088,1.2690395775612289,-0.15169825425874284,-0.5427014813820894,0.006323105189949274,-0.18784743547439575,-0.020852897316217422,0.006323105189949274,-0.18784743547439575,-0.020852897316217422,0.0
252,1.8495773779979592,1.637143091532586,-1.0990476621272296,1.3167806466294547,1.4203508044351985,-0.027557341381907463,-0.20301306247711182,-0.1359407603740692,-0.027557341381907463,-0.20301306247711182,-0.1359407603740692,0.0
253,0.3738199406234206,0.6875441667103082,-0.858145967521585,-0.3389329889965027,0.07655509309402042,0.409485787153244,-0.1460523009300232,0.2846309244632721,0.409485787153244,-0.1460523009300232,0.2846309244632721,0.0
254,-1.7660017561786598,-0.27533086412080743,1.2978839776777638,1.4908549557505462,1.3208854001313952,0.05202450603246689,-0.02653198316693306,0.028259817510843277,0.05202450603246689,-0.02653198316693306,0.028259817510843277,0.0
255,-0.2139773630445858,-0.10110592360275805,0.4787097836277363,-0.9461467115834756,0.9993198370815515,0.3439393937587738,0.0594114325940609,0.2685284912586212,0.3439393937587738,0.0594114325940609,0.2685284912586212,0.0
256,0.07495380354511849,0.2959969344145619,0.8043205851439046,1.4572680054848284,2.5766150091839535,0.06501787900924683,-0.006527192424982786,0.004934157710522413,0.06501787900924683,-0.006527192424982786,0.004934157710522413,0.0
257,-0.535948575231139,0.2709831472958859,-1.073485115775789,0.9808303651850456,2.6584190165371693,0.32928386330604553,0.16786208748817444,0.296753466129303,0.32928386330604553,0.16786208748817444,0.296753466129303,0.0
258,-1.1469550098517671,-1.7248738256082834,-0.7616360413523865,-0.748230616935453,-0.24359472439654173,-0.10868868231773376,-0.3223786950111389,0.1978355497121811,-0.10868868231773376,-0.3223786950111389,0.1978355497121811,0.0
259,-0.4316791095256618,0.17518415842263368,1.6033587578646022,1.468069932066608,-2.165024435817698,-0.05822628736495972,-0.037802815437316895,0.10164905339479446,-0.05822628736495972,-0.037802815437316895,0.10164905339479446,0.0
260,0.058935827036507904,1.189686365647861,0.8033199328767906,1.0774796877980746,0.5867371531016374,-0.025840196758508682,-0.0006051708478480577,0.0026368836406618357,-0.025840196758508682,-0.0006051708478480577,0.0026368836406618357,0.0
261,-1.8454658821708663,1.2014556023099963,0.18675314340935323,0.05497004696461705,-1.6559374562429108,-0.021771546453237534,0.18675366044044495,-0.15841223299503326,-0.021771546453237534,0.18675366044044495,-0.15841223299503326,0.0
262,-1.4996517908102671,-0.11912038814144665,-1.6269694177514997,-0.8008794265506806,-0.4645553806187577,0.027385855093598366,-0.11127525568008423,0.45861297845840454,0.027385855093598366,-0.11127525568008423,0.45861297845840454,0.0
263,1.4721180026982257,0.9087711263272382,1.4090525394162632,-1.1314226789920374,2.0106257162926404,0.04243408143520355,-0.11143362522125244,-0.085199736058712,0.04243408143520355,-0.11143362522125244,-0.085199736058712,0.0
264,0.5030939987079472,-0.9948486986267914,1.5765870327650098,1.650080329279455,1.1745293973432984,0.005938644055277109,0.009654673747718334,0.007889341562986374,0.005938644055277109,0.009654673747718334,0.007889341562986374,0.0
265,1.8999341720346958,0.5394406117473745,0.2787742008860399,1.046572986939635,-1.2243861090067352,-0.005861855112016201,-0.1534823775291443,-0.04777463898062706,-0.005861855112016201,-0.1534823775291443,-0.04777463898062706,0.0
266,-0.9175502897937755,1.6526946287106337,0.8364100267907251,-0.05262632420727109,-0.6977099874928077,-0.01915082335472107,-0.06749556213617325,-0.10522305220365524,-0.01915082335472107,-0.06749556213617325,-0.10522305220365524,0.0
267,-0.33188019025714244,-0.0003978475860975106,1.4160867995317457,0.10737093743289838,1.9840195462535197,0.1310388445854187,0.023864369839429855,-0.06219774857163429,0.1310388445854187,0.023864369839429855,-0.06219774857163429,0.0
268,-1.8562717433002036,0.9800004937307385,-0.8081162009869766,-1.424018868137402,0.2217442369791751,-0.052565280348062515,0.3176406919956207,0.28688669204711914,-0.052565280348062515,0.3176406919956207,0.28688669204711914,0.0
269,-0.33792836639349333,-1.7241461994418898,-0.328195508927148,-0.6071759660698459,2.2531090794159887,-0.23786808550357819,-0.10403779149055481,0.31374645233154297,-0.23786808550357819,-0.10403779149055481,0.31374645233154297,0.0
270,1.2155863034277412,0.2420221124505355,-0.7365842342288752,-0.12868766602499426,0.6416988453977597,0.1504782885313034,-0.314689964056015,0.37550225853919983,0.1504782885313034,-0.314689964056015,0.37550225853919983,0.0
271,-0.08010933876190807,1.382020662529194,-0.529485661725567,-0.7593153794296054,-0.06732151704649336,0.43423816561698914,0.032267920672893524,-0.010587422177195549,0.43423816561698914,0.032267920672893524,-0.010587422177195549,0.0
272,-0.6809773465976727,-0.22553386263863806,-1.0515830791634202,-0.5640374231655083,0.5952215082194985,0.0653129294514656,0.015700330957770348,0.5184259414672852,0.0653129294514656,0.015700330957770348,0.5184259414672852,0.0
273,-0.7219373308061041,0.8005160808942544,0.1723290031668614,-0.20713612391803138,0.5281767015568177,0.2823525071144104,0.2090698480606079,-0.04900671914219856,0.2823525071144104,0.2090698480606079,-0.04900671914219856,0.0
274,1.7781317740743656,0.18594706383348591,1.2759829310881896,0.26053375452064875,-0.5725437158440538,0.028985437005758286,-0.06743830442428589,-0.06789343059062958,0.028985437005758286,-0.06743830442428589,-0.06789343059062958,0.0
275,-0.6134166484803152,0.6028429033586766,-0.2689540369346597,-0.07457459616579731,2.4891029499877915,0.37042731046676636,0.22720326483249664,0.1192982941865921,0.37042731046676636,0.22720326483249664,0.1192982941865921,0.0
276,-0.13802180158429733,1.1696504299538488,-0.622696633588306,0.009730353451800067,0.9259382668398755,0.43145012855529785,0.04808551073074341,-0.019215650856494904,0.43145012855529785,0.04808551073074341,-0.019215650856494904,0.0
277,-1.0343335922537067,-1.2211920013257962,1.4525379462884263,-0.06220248058041067,-1.6221871807954669,0.14658492803573608,0.19628141820430756,0.12935596704483032,0.14658492803573608,0.19628141820430756,0.12935596704483032,0.0
278,0.3345013579553737,-1.3127406433799034,0.5076565333781939,1.2017346814339234,-0.20061956551012816,0.19268320500850677,-0.05181926116347313,0.2046273797750473,0.19268320500850677,-0.05181926116347313,0.2046273797750473,0.0
279,1.6980834459674337,0.263351268515172,-1.3278428176078092,-0.7384740267751296,1.32875788231578,0.016749471426010132,-0.11106844991445541,0.4939255118370056,0.016749471426010132,-0.11106844991445541,0.4939255118370056,0.0
280,0.2630302892340768,0.1585917331595892,1.6174492458445746,1.5385819805442582,0.3787346548113013,-0.060569774359464645,0.023716729134321213,0.12491258978843689,-0.060569774359464645,0.023716729134321213,0.12491258978843689,0.0
281,-1.6693479990150617,0.16208626085365352,0.823609870985508,-0.15354605895642837,1.1038830790784973,0.020423969253897667,0.2589479982852936,-0.006635498721152544,0.020423969253897667,0.2589479982852936,-0.006635498721152544,0.0
282,0.5646139372919943,-1.166145701572996,1.0255808786029381,-0.490926278363895,-2.284059594698326,0.2076098471879959,-0.10016652196645737,0.3089800477027893,0.2076098471879959,-0.10016652196645737,0.3089800477027893,0.0
283,1.7713002597041703,-1.0930673366679313,1.28610586565115,-1.5273946388889676,-0.1862987223340271,0.01605571061372757,-0.11936821043491364,0.32543012499809265,0.01605571061372757,-0.11936821043491364,0.32543012499809265,0.0
284,0.43194146291815505,1.2666888237036806,1.3554722630803968,0.42985091480507776,-1.7967985095711323,-0.0731431394815445,0.05986069515347481,0.03594624623656273,-0.0731431394815445,0.05986069515347481,0.03594624623656273,0.0
285,0.8758483374425237,0.24970379309832857,0.2453721911835749,1.1953575303229476,-0.24752389531022034,0.1555429995059967,-0.13698959350585938,0.0020641707815229893,0.1555429995059967,-0.13698959350585938,0.0020641707815229893,0.0
286,-1.5613833423423684,-0.701832558944866,0.8864297213761487,-0.2839824077074027,-2.3943634554527535,0.036310162395238876,0.2705570161342621,0.22267362475395203,0.036310162395238876,0.2705570161342621,0.22267362475395203,0.0
287,-1.8032346741929473,-0.612811872032903,0.16107492415866442,0.30807707451232047,-0.9186225706473867,-0.028455249965190887,0.25732874870300293,0.3065393567085266,-0.028455249965190887,0.25732874870300293,0.3065393567085266,0.0
288,-1.0183580456777968,0.013250766071753572,0.6017812397511904,-1.5872529413099872,-0.7026190295914794,0.17499905824661255,0.2305147647857666,0.2834092378616333,0.17499905824661255,0.2305147647857666,0.2834092378616333,0.0
289,-0.3449123582589113,-0.8152910271678716,-1.2115126489482022,1.0756673482397192,-1.0943761707753978,0.03544304519891739,0.006133470218628645,0.46059703826904297,0.03544304519891739,0.006133470218628645,0.46059703826904297,0.0
290,1.278962431361927,1.484757654668082,0.2500920413279917,1.0792758180094502,-0.5515424766999604,0.035618070513010025,0.024975653737783432,-0.08048678189516068,0.035618070513010025,0.024975653737783432,-0.08048678189516068,0.0
291,0.26598913757548237,-1.1125779349908553,1.444766610056357,1.0789331496074717,0.4572780365514286,0.12406463176012039,-0.02686428092420101,-0.005910967011004686,0.12406463176012039,-0.02686428092420101,-0.005910967011004686,0.0
292,-0.04503448728866344,1.7192387180228734,-0.855560234964688,1.1403295544389545,1.4537065733671843,0.20038379728794098,-0.0007315651746466756,-0.17098021507263184,0.20038379728794098,-0.0007315651746466756,-0.17098021507263184,0.0
293,-1.7443229147392905,0.7890894013114451,0.3491173554013942,0.7264542886076477,-0.978980513322556,0.00809953548014164,0.13784846663475037,-0.09542515128850937,0.00809953548014164,0.13784846663475037,-0.09542515128850937,0.0
294,-1.5475296641968324,1.1640431612665365,-1.6191323223956104,-0.8751053494005113,-2.604305808293162,0.041974496096372604,0.29501840472221375,0.35566550493240356,0.041974496096372604,0.29501840472221375,0.35566550493240356,0.0
295,-0.9852912943996903,-1.1950069331268347,1.4343612587524146,1.4701339244675908,1.5260026075869098,0.07082132995128632,0.033649079501628876,-0.0005965770687907934,0.07082132995128632,0.033649079501628876,-0.0005965770687907934,0.0
296,1.628495068260281,0.8786045379856762,-0.2629693827001456,-1.3672678984890871,-1.5271367129045454,0.025527741760015488,-0.3643553853034973,0.201828271150589,0.025527741760015488,-0.3643553853034973,0.201828271150589,0.0
297,-0.13672053681390106,-0.8997125641544208,-1.6482283027343712,1.0756024543101599,2.8021625370535093,-0.10617552697658539,-0.022945621982216835,0.438862681388855,-0.10617552697658539,-0.022945621982216835,0.438862681388855,0.0
298,1.1667692816573885,0.38828114127774205,1.4916550818287329,1.2120456961186166,0.5669056794898295,-0.003045834833756089,0.08706720918416977,0.07895232737064362,-0.003045834833756089,0.08706720918416977,0.07895232737064362,0.0
299,1.1820125189113004,1.1267142517799842,-0.2707816100788756,-1.4431188400354735,-1.5785300516801506,0.18580704927444458,-0.33841031789779663,0.12961876392364502,0.18580704927444458,-0.33841031789779663,0.12961876392364502,0.0
300,0.15006387222901774,1.4960645920763014,-1.22475579002147,-0.01749611791985317,-2.5641434177699143,0.46649500727653503,-0.060618020594120026,0.03245620056986809,0.46649500727653503,-0.060618020594120026,0.03245620056986809,0.0
301,0.27374896000758797,-1.1597104768764614,1.1951985237048768,-0.9196363932642013,-2.656116520240184,0.20232881605625153,-0.04241616651415825,0.31528323888778687,0.20232881605625153,-0.04241616651415825,0.31528323888778687,0.0
302,-0.1287029619458504,1.6769542268758517,-0.3718624701184978,-1.159868843809198,0.4434795603385133,0.3728099465370178,0.03977904096245766,-0.08214415609836578,0.3728099465370178,0.03977904096245766,-0.08214415609836578,0.0
303,-1.897550328901327,1.5238784218623334,0.2791461438730365,-0.24330177219239868,-1.6874210452691878,-0.007255422882735729,0.11216243356466293,-0.19776993989944458,-0.007255422882735729,0.11216243356466293,-0.19776993989944458,0.0
304,-0.06658068154847552,-0.4905524621168833,0.1198158671139693,-0.7280182270098582,-1.2865037306595848,0.23804257810115814,0.020753106102347374,0.42368727922439575,0.23804257810115814,0.020753106102347374,0.42368727922439575,0.0
305,1.5735776880873864,-0.7900123180968398,-0.3369907161951575,0.9066307468236154,1.3418865558420823,0.030503222718834877,-0.1791485697031021,0.37268418073654175,0.030503222718834877,-0.1791485697031021,0.37268418073654175,0.0
306,-1.076303253290984,1.466630677132159,-0.7621433366364446,-1.0224331037776202,2.2207370551073824,0.2350269854068756,0.35003936290740967,0.07124648988246918,0.2350269854068756,0.35003936290740967,0.07124648988246918,0.0
307,-1.2653633285647556,1.41387638042672,1.637191861803743,-0.9859614373251472,0.5604274663214857,0.02199925109744072,-0.06748631596565247,-0.04778801649808884,0.02199925109744072,-0.06748631596565247,-0.04778801649808884,0.0
308,-0.829172638740064,-1.180286604288905,-0.5932692398035715,1.1937226091632558,-2.6476153870855414,0.05931247025728226,0.027418678626418114,0.40955662727355957,0.05931247025728226,0.027418678626418114,0.40955662727355957,0.0
309,-0.9543959953805471,1.2158911329425246,-0.5580703717003339,1.4688113611843623,2.0778039490310425,0.145694300532341,0.13843373954296112,-0.08610338717699051,0.145694300532341,0.13843373954296112,-0.08610338717699051,0.0
310,1.038204534337173,0.23055345900859048,0.21432857748430711,-1.4937295425660908,2.510301027958869,0.17740115523338318,-0.24489031732082367,0.3075895607471466,0.17740115523338318,-0.24489031732082367,0.3075895607471466,0.0
311,-0.6090051723323078,-1.3809095528859512,0.5026903302088686,0.4795441777631606,2.2527412302205203,0.16728411614894867,0.08176254481077194,0.33876660466194153,0.16728411614894867,0.08176254481077194,0.33876660466194153,0.0
312,0.2350874616542713,0.5420268480318255,-0.6364219882153999,-1.2784333577412186,-1.194154291788948,0.3130902647972107,-0.05825186148285866,0.37205877900123596,0.3130902647972107,-0.05825186148285866,0.37205877900123596,0.0
313,1.7772532049904157,1.3562077121942164,-0.7849310342097815,-0.23696103059313622,0.13313953494359865,-0.046345800161361694,-0.40154168009757996,-0.015018134377896786,-0.046345800161361694,-0.40154168009757996,-0.015018134377896786,0.0
314,0.6838312831276632,-0.5013176995079844,-1.2143029760119952,0.5604793739878307,-0.7926988961457269,0.07762141525745392,-0.02443038672208786,0.5049899816513062,0.07762141525745392,-0.02443038672208786,0.5049899816513062,0.0
315,-0.6953311555557644,1.2265358556966897,-1.653640055756204,-0.04947749372444954,2.7373709805252204,0.3517230153083801,0.25657919049263,0.268292099237442,0.3517230153083801,0.25657919049263,0.268292099237442,0.0
316,-0.542250490660982,0.07040282058200575,1.0578544434381696,0.37753077458650774,-0.1678581802391057,0.15063810348510742,0.06888723373413086,-0.052151408046483994,0.15063810348510742,0.06888723373413086,-0.052151408046483994,0.0
317,0.5656712291027506,0.6231318986075696,-1.1220003847472946,-1.0933359124023454,-1.5230344421201683,0.23850101232528687,-0.11761505901813507,0.4199748635292053,0.23850101232528687,-0.11761505901813507,0.4199748635292053,0.0
318,-0.567135351414793,1.5050137477405188,-0.41982327923719875,1.4307085796624046,-1.0512005743644122,0.10339687019586563,0.049141570925712585,-0.11100749671459198,0.10339687019586563,0.049141570925712585,-0.11100749671459198,0.0
319,0.5769992744866332,0.6915007175452432,-1.2401236556608608,-0.45970530086466166,1.9878414604508832,0.30167749524116516,-0.17999118566513062,0.3965679705142975,0.30167749524116516,-0.17999118566513062,0.3965679705142975,0.0
320,0.377216442905175,-0.3514686858781204,-0.4104022229504767,0.08415647816807126,-2.151019173427162,0.25796058773994446,-0.07999568432569504,0.4321298897266388,0.25796058773994446,-0.07999568432569504,0.4321298897266388,0.0
321,-1.7202522956826793,0.7465644692826556,-0.30879600181661626,1.0741309038319355,-2.3637251201153524,-0.006096850149333477,0.263136088848114,-0.03087506629526615,-0.006096850149333477,0.263136088848114,-0.03087506629526615,0.0
322,1.5323941751064845,-1.1975230611823529,0.03583512252914134,0.8761114222956781,-0.14159974645857742,0.045299626886844635,-0.13951322436332703,0.3469316065311432,0.045299626886844635,-0.13951322436332703,0.3469316065311432,0.0
323,-1.6680705411586463,0.7237887144021227,1.110600089126248,1.4456697942225316,-0.9393818857582641,0.03851841390132904,-0.06160192936658859,0.07727383822202682,0.03851841390132904,-0.06160192936658859,0.07727383822202682,0.0
324,-0.2465865490596042,1.5120305138762533,-1.5161467299957248,1.5774922869664405,-2.444250960226396,0.31409895420074463,0.07420610636472702,-0.05822707340121269,0.31409895420074463,0.07420610636472702,-0.05822707340121269,0.0
325,-0.3549240014662707,1.5141080210077025,1.1886883312250731,-0.7408024337398,-1.8527779160130131,0.004331500269472599,-0.0049326433800160885,-0.1150941476225853,0.004331500269472599,-0.0049326433800160885,-0.1150941476225853,0.0
326,0.6779852223059049,1.4568807297375574,-0.7673570544430017,1.487658034212332,-0.09514764861643821,0.1605013757944107,-0.09703145921230316,-0.10659610480070114,0.1605013757944107,-0.09703145921230316,-0.10659610480070114,0.0
327,-1.6766491577289313,-0.8408503412788108,-1.675371621453376,1.0395494443223197,1.6006863367880166,0.06085328757762909,-0.13074374198913574,0.4458138346672058,0.06085328757762909,-0.13074374198913574,0.4458138346672058,0.0
328,-1.1792880644029609,-1.2592260618160231,-0.47611663843347185,-1.5784527693831119,-2.305865742130799,-0.06221965327858925,-0.2301953285932541,0.2773585915565491,-0.06221965327858925,-0.2301953285932541,0.2773585915565491,0.0
329,-0.418478464800744,0.11091987522822722,0.22147074623613716,-0.2635002648212146,1.9106780365940734,0.3699050843715668,0.13883720338344574,0.17778784036636353,0.3699050843715668,0.13883720338344574,0.17778784036636353,0.0
330,-1.6063289134532674,0.17197866391234706,-0.9651371669407077,0.42367895475612793,0.9978657975958138,0.03424930199980736,0.3183065354824066,0.3758710026741028,0.03424930199980736,0.3183065354824066,0.3758710026741028,0.0
331,-0.9012381628952864,-1.430369214545565,1.3676301359942924,0.5488994827956934,-2.11867105546587,0.1578391045331955,0.16078907251358032,0.10309674590826035,0.1578391045331955,0.16078907251358032,0.10309674590826035,0.0
332,0.9848667097281028,1.2547185641029923,1.6694553904605538,-0.9482038444890954,-0.2984030901449799,0.01080324873328209,0.04640478268265724,-0.052576035261154175,0.01080324873328209,0.04640478268265724,-0.052576035261154175,0.0
333,-0.08154412318771853,-0.552170567697607,-1.3786281603284263,0.22574870771125277,1.1269790160878088,-0.03532607480883598,-0.01332848984748125,0.5098168849945068,-0.03532607480883598,-0.01332848984748125,0.5098168849945068,0.0
334,-1.0969341027497679,0.8442828080506573,0.13610382790831688,-0.6525966509863077,-0.5507225711298616,0.19999846816062927,0.3232478201389313,0.0037249778397381306,0.19999846816062927,0.3232478201389313,0.0037249778397381306,0.0
335,0.4839258712260448,0.15284008728580645,1.3746667296545811,-0.11422052736505006,0.09273914358705193,0.1300484836101532,-0.04878143221139908,-0.06944640725851059,0.1300484836101532,-0.04878143221139908,-0.06944640725851059,0.0
336,1.2035466991213353,0.227353327996485,0.8977776123703132,-0.5212841415984875,1.8804415121613784,0.13150225579738617,-0.2624698579311371,0.011920060962438583,0.13150225579738617,-0.2624698579311371,0.011920060962438583,0.0
337,0.4222228209467125,-1.3409301857464033,-0.7688258358669388,0.23951313285085551,-1.0460356678796152,-0.13158512115478516,0.08395083993673325,0.4358869791030884,-0.13158512115478516,0.08395083993673325,0.4358869791030884,0.0
338,0.6177571032835267,0.997654328104653,-0.5546619941414845,-0.05681687305924665,0.6077410703533852,0.369848370552063,-0.2407756745815277,0.03492302820086479,0.369848370552063,-0.2407756745815277,0.03492302820086479,0.0
339,1.8356506264038712,-0.43529574558417505,-1.6045801152088914,0.7300779899558927,0.3484496517122122,0.038563426584005356,0.009383008815348148,0.5003613233566284,0.038563426584005356,0.009383008815348148,0.5003613233566284,0.0
340,0.5565507761744515,-1.5924511524350473,-0.3606319897685146,-0.2799970771256848,-0.24165460647046988,-0.1552884727716446,0.12298072129487991,0.3956356942653656,-0.1552884727716446,0.12298072129487991,0.3956356942653656,0.0
341,0.9650715349907193,0.0441371120505718,1.6211672744675796,0.5440223922589948,-0.334100741917736,0.01528962329030037,0.038512278348207474,-0.030402997508645058,0.01528962329030037,0.038512278348207474,-0.030402997508645058,0.0
342,1.127626537477076,1.1858554192147586,0.4657563315324995,-0.9659193762667656,-0.3628723284161248,0.15204161405563354,-0.23200656473636627,-0.10845515877008438,0.15204161405563354,-0.23200656473636627,-0.10845515877008438,0.0
343,-1.5868314428234285,1.1937851275920721,-0.6753228906197628,1.4161727653462186,1.2957795302670796,0.04326171427965164,0.20640012621879578,-0.07830681651830673,0.04326171427965164,0.20640012621879578,-0.07830681651830673,0.0
344,-1.8694974483168791,-0.32217245818314155,-1.4966669419439949,-0.6989102940041523,2.405985992799934,0.08816736936569214,-0.14117178320884705,0.45008745789527893,0.08816736936569214,-0.14117178320884705,0.45008745789527893,0.0
345,1.677250560459541,-1.4426377982368421,-1.6710845772146519,1.219637899502979,1.45011085112003,0.05873600393533707,0.2615535259246826,0.30865252017974854,0.05873600393533707,0.2615535259246826,0.30865252017974854,0.0
346,1.1566038471261115,0.9997015225615038,0.24198204119340527,1.306687710865084,-1.972599624331408,0.06883522123098373,-0.05077236518263817,-0.0637890174984932,0.06883522123098373,-0.05077236518263817,-0.0637890174984932,0.0
347,0.34092040471290996,-0.7611135482806627,-0.6005118376454501,0.7114453880606846,-2.4055618443109554,0.1527380794286728,-0.03510076552629471,0.4515957832336426,0.1527380794286728,-0.03510076552629471,0.4515957832336426,0.0
348,0.3774712885306877,1.5487071441679583,-0.5872909479345141,-1.2952173468854085,-0.5771965151608205,0.39144060015678406,-0.1352023482322693,0.02945081703364849,0.39144060015678406,-0.1352023482322693,0.02945081703364849,0.0
349,0.9366104152293384,-0.28543985108771963,-1.572819408788299,-0.3582735820568008,-0.41642398285132787,-0.02246681973338127,0.08869139105081558,0.4918653964996338,-0.02246681973338127,0.08869139105081558,0.4918653964996338,0.0
350,1.882930924890422,-0.6290352899808036,0.502083673134599,-0.07153531109386413,1.6604347575018341,-0.05357947200536728,-0.2601486146450043,0.27826401591300964,-0.05357947200536728,-0.2601486146450043,0.27826401591300964,0.0
351,0.9207615943198078,1.6006733332911458,0.8924362127886574,-0.44287644678887483,0.09788253879549158,0.01234956830739975,0.03354250639677048,-0.13801179826259613,0.01234956830739975,0.03354250639677048,-0.13801179826259613,0.0
352,-1.5552087614261467,1.0632294371659077,-0.3019709271740103,1.5596871675242123,-1.6141821073912184,0.033237699419260025,0.13556134700775146,-0.05928454548120499,0.033237699419260025,0.13556134700775146,-0.05928454548120499,0.0
353,0.7094761894364452,-0.18915705025091567,1.4844088407970126,1.0281059196626974,0.513196077021377,0.009369402192533016,0.020144086331129074,-0.00743576604872942,0.009369402192533016,0.020144086331129074,-0.00743576604872942,0.0
354,0.9967969910474812,0.2784771258800234,1.0158863340029582,0.29642343394301185,0.11844755893355208,0.10267917066812515,-0.10047412663698196,-0.07026151567697525,0.10267917066812515,-0.10047412663698196,-0.07026151567697525,0.0
355,0.5458940365511804,1.5634430211945465,-0.30413515449096695,0.8747546248728819,1.8817803975924239,0.1257108598947525,-0.0618416927754879,-0.17322199046611786,0.1257108598947525,-0.0618416927754879,-0.17322199046611786,0.0
356,1.1730765782331627,0.8476166016000852,0.6487488671495774,-0.038183945814683984,2.6160086384706593,0.10194616764783859,-0.16128748655319214,-0.12149593979120255,0.10194616764783859,-0.16128748655319214,-0.12149593979120255,0.0
357,-0.718533663024937,1.1634275413510546,0.05776547792705289,0.4998288967923068,2.512813076301346,0.17634452879428864,0.11366245895624161,-0.14784274995326996,0.17634452879428864,0.11366245895624161,-0.14784274995326996,0.0
358,-0.8257777215918403,-1.3713236805088393,-0.05984454184802024,-0.06722940003668132,-0.9756471252964463,0.0036003640852868557,-0.02867724932730198,0.45916110277175903,0.0036003640852868557,-0.02867724932730198,0.45916110277175903,0.0
359,-1.0492026899893296,1.34516606027565,1.2667159135443526,-0.7583440566654036,-1.0205609242604246,0.025272591039538383,-0.010264711454510689,-0.10994813591241837,0.025272591039538383,-0.010264711454510689,-0.10994813591241837,0.0
360,-0.4578815425936482,0.1147632547205335,0.08349343779696938,-0.020159971061237014,1.7286209965976198,0.3664446175098419,0.1525261104106903,0.17660486698150635,0.3664446175098419,0.1525261104106903,0.17660486698150635,0.0
361,-1.169457522831479,-0.30143694204807914,-0.9870608451344567,-0.5840150684282552,2.462927242111551,0.044937822967767715,0.0008957079844549298,0.5136540532112122,0.044937822967767715,0.0008957079844549298,0.5136540532112122,0.0
362,0.2322726802245474,-0.08384703278819261,-1.00602465363432,1.4075296189648074,2.392468286561898,0.29025453329086304,-0.06530717015266418,0.3087789714336395,0.29025453329086304,-0.06530717015266418,0.3087789714336395,0.0
363,-1.1227733927422774,-0.06377477291024336,-0.29870481768474266,0.8800370415193923,1.3605145563451488,0.18148547410964966,0.2786415219306946,0.20306998491287231,0.18148547410964966,0.2786415219306946,0.20306998491287231,0.0
364,-1.1492021382060065,-0.13618886222233928,-0.09723937688927031,0.4480900524234268,1.635379280399384,0.18064366281032562,0.29646989703178406,0.23461179435253143,0.18064366281032562,0.29646989703178406,0.23461179435253143,0.0
365,1.7094640285314435,-0.4177688076631627,-1.4612029484832338,-0.49605010093356294,-2.140267319809644,0.06634943932294846,0.15094280242919922,0.4650973677635193,0.06634943932294846,0.15094280242919922,0.4650973677635193,0.0
366,-1.556010531004799,0.028620209875693137,-0.8056929370993279,-0.2562134843765036,-1.6526341965959943,0.03462507203221321,0.23505480587482452,0.46381232142448425,0.03462507203221321,0.23505480587482452,0.46381232142448425,0.0
367,-0.1195017162252574,1.241456924725326,-1.2243233506310494,-1.1839127423429483,-1.0654166966459633,0.3824695646762848,0.04812869802117348,0.2743622958660126,0.3824695646762848,0.04812869802117348,0.2743622958660126,0.0
368,1.4895468300630577,0.21462338919923774,-0.3077897270406389,1.6197657411535846,-0.4456217236397162,0.0596977137029171,-0.21456226706504822,0.0789671391248703,0.0596977137029171,-0.21456226706504822,0.0789671391248703,0.0
369,0.908110740238707,-1.7318074139637876,-1.6593236830575084,1.0345885617173705,-0.2943238940605082,-0.15745578706264496,0.25521308183670044,0.20570334792137146,-0.15745578706264496,0.25521308183670044,0.20570334792137146,0.0
370,-1.1509698800310821,1.6495470631087765,-0.2832325776400635,0.7537021722005959,2.216173843502938,0.08305390924215317,0.08289871364831924,-0.18942409753799438,0.08305390924215317,0.08289871364831924,-0.18942409753799438,0.0
371,-0.5032070761589427,-1.20914547275191,1.5759525924913231,-1.3306585625849614,0.03430313934540674,0.17923876643180847,0.07696707546710968,0.2653738558292389,0.17923876643180847,0.07696707546710968,0.2653738558292389,0.0
372,0.26655467054886417,-1.2169867917849424,0.28941683377276917,1.1739630188843322,-0.09245048933251043,0.1969972848892212,-0.04244193807244301,0.24647793173789978,0.1969972848892212,-0.04244193807244301,0.24647793173789978,0.0
373,-0.9589043498473553,0.011591185778083934,-1.264421113266156,0.12883300314398372,0.23344507331108355,0.1395464837551117,0.14030833542346954,0.4988611340522766,0.1395464837551117,0.14030833542346954,0.4988611340522766,0.0
374,1.3664619552831683,-0.16614289770629065,-0.8105698085621317,-0.4006458840696203,1.876204275938691,0.05944575369358063,-0.1377139836549759,0.5036314129829407,0.05944575369358063,-0.1377139836549759,0.5036314129829407,0.0
375,1.6799461596250147,0.42287673740127474,0.30410540976019496,1.0804959761296529,0.6520453542513636,0.016286402940750122,-0.1613461673259735,-0.031300924718379974,0.016286402940750122,-0.1613461673259735,-0.031300924718379974,0.0
376,-0.8311995092285611,0.45455949585294464,-0.8701370258772686,-0.41432232396736435,0.9581546761060951,0.2709542512893677,0.2447085678577423,0.37899526953697205,0.2709542512893677,0.2447085678577423,0.37899526953697205,0.0
377,-0.965780838665524,0.8370635751314501,0.019804373202095382,-0.49206081078439756,0.39952712981892624,0.2524794042110443,0.30350443720817566,0.008969317190349102,0.2524794042110443,0.30350443720817566,0.008969317190349102,0.0
378,-0.6626170564665943,-0.9409849297436339,1.3749942064785352,0.9057647692164441,1.5553160659218337,0.1357886791229248,0.06541167199611664,-0.0015416383976116776,0.1357886791229248,0.06541167199611664,-0.0015416383976116776,0.0
379,-0.6769279741655423,0.8412896902154268,0.5557412307733158,0.7513278057836554,-0.35542776102305096,0.09039328247308731,0.04493246600031853,-0.09060285240411758,0.09039328247308731,0.04493246600031853,-0.09060285240411758,0.0
380,-0.3590648901465485,-1.0575780635501704,1.4527723313924161,-0.6601834138076891,-0.9191054888096055,0.24962009489536285,0.08574438095092773,0.18633204698562622,0.24962009489536285,0.08574438095092773,0.18633204698562622,0.0
381,0.31314778617994765,-1.2588587072256345,1.5475854909007145,0.7949391814645452,-0.07183896088226538,0.16290509700775146,-0.039588894695043564,-1.8248887499794364e-05,0.16290509700775146,-0.039588894695043564,-1.8248887499794364e-05,0.0
382,1.0009305415653236,-1.7078408068547521,0.45737447914285934,-0.9570968677122801,-2.5866469657418927,-0.03753280267119408,0.12630240619182587,0.38261038064956665,-0.03753280267119408,0.12630240619182587,0.38261038064956665,0.0
383,1.5884949817942196,0.5160950520488186,-1.4072118490784038,-0.9041128297271662,-0.5649679125449585,0.04016144201159477,-0.16208145022392273,0.46557968854904175,0.04016144201159477,-0.16208145022392273,0.46557968854904175,0.0
384,-0.6907293745373053,0.2567630723875678,-1.0057729313619612,0.10155218719286796,0.6399675283454505,0.2825125455856323,0.1952376514673233,0.40493929386138916,0.2825125455856323,0.1952376514673233,0.40493929386138916,0.0
385,-1.7467485130703158,0.43615691849497606,0.022089963325242934,0.39270398563657527,-1.4092965748583377,-0.026594270020723343,0.32431307435035706,0.03133765235543251,-0.026594270020723343,0.32431307435035706,0.03133765235543251,0.0
386,-0.5120248520015311,1.379946320335414,0.2256939650282732,-1.066379094416908,2.6650083889673946,0.29090362787246704,0.13713863492012024,-0.10034025460481644,0.29090362787246704,0.13713863492012024,-0.10034025460481644,0.0
387,-1.881822875024056,0.933016611314708,1.290525326091219,1.3212048566646073,0.7422063812464827,0.06980949640274048,-0.07872332632541656,0.11873194575309753,0.06980949640274048,-0.07872332632541656,0.11873194575309753,0.0
388,-0.560951784155062,-0.42005368457242187,-0.5300065008147372,-0.5888257648645747,1.0540916830186808,0.12163975834846497,0.04379797726869583,0.5025789141654968,0.12163975834846497,0.04379797726869583,0.5025789141654968,0.0
389,-0.8039354178274842,1.630697675697998,-0.9260706409156721,0.904995395163356,-2.2175755808157973,0.20514920353889465,0.18128663301467896,-0.1608051210641861,0.20514920353889465,0.18128663301467896,-0.1608051210641861,0.0
390,-1.7416409074646135,1.5796642778127747,0.29349797574583025,-1.1958804988558964,1.4687833232994754,0.007466970011591911,0.22898639738559723,-0.14326445758342743,0.007466970011591911,0.22898639738559723,-0.14326445758342743,0.0
391,-1.0752244561256505,1.1014645152228435,0.08470915161794101,-1.5273654037736217,-2.176788378436206,0.1985578089952469,0.3085609972476959,0.07709996402263641,0.1985578089952469,0.3085609972476959,0.07709996402263641,0.0
392,0.9594662600024373,-1.2846217460703633,1.6441239745902125,-1.444637074572314,-2.031923041358994,0.11875228583812714,-0.10212964564561844,0.27517247200012207,0.11875228583812714,-0.10212964564561844,0.27517247200012207,0.0
393,-0.9105702454440612,-0.9080678172484035,0.6679704699205078,0.04661609817698742,-2.1822057988537304,0.18360649049282074,0.19655443727970123,0.2802649438381195,0.18360649049282074,0.19655443727970123,0.2802649438381195,0.0
394,0.6740071102040188,-0.7098477579234821,1.388685544497156,-1.0305982537134852,-2.5934550962301923,0.22376622259616852,-0.1428603082895279,0.20084746181964874,0.22376622259616852,-0.1428603082895279,0.20084746181964874,0.0
395,-1.4360972433646437,-0.3951907569790669,0.7966637088617659,-0.21774198593523186,-2.4458384473442956,0.07397320866584778,0.29473429918289185,0.16032259166240692,0.07397320866584778,0.29473429918289185,0.16032259166240692,0.0
396,0.40774703278532787,-0.8901389255548234,1.1844415365537704,-0.762181936502765,1.5091386368600492,0.2500467002391815,-0.10000550746917725,0.2462749034166336,0.2500467002391815,-0.10000550746917725,0.2462749034166336,0.0
397,0.15875064021109386,-1.208342002417976,-1.43487145676451,-0.6558942825653176,-0.21830007922934946,-0.30093270540237427,0.05611129850149155,0.22521428763866425,-0.30093270540237427,0.05611129850149155,0.22521428763866425,0.0
398,-1.5599305073263454,1.1537536895025902,-0.3624766843386995,1.2939919658419028,0.39849231484543024,0.04364563152194023,0.15839770436286926,-0.09069552272558212,0.04364563152194023,0.15839770436286926,-0.09069552272558212,0.0
399,-0.29945256817410093,-1.3381478156248863,-1.3232025481953391,-0.7322944431533035,2.0514259030993705,-0.29158085584640503,-0.10961297154426575,0.1844043880701065,-0.29158085584640503,-0.10961297154426575,0.1844043880701065,0.0
400,1.0954300070781802,0.9516794545032337,-1.2232378069780512,-0.02984341143946323,2.1753453078190805,0.22395554184913635,-0.3744354546070099,0.251743346452713,0.22395554184913635,-0.3744354546070099,0.251743346452713,0.0
401,-1.2524166174227709,-0.5070068415919273,-0.9503217923560734,0.023454107083880293,-2.172595413719232,0.04151246324181557,0.02806048095226288,0.5215924382209778,0.04151246324181557,0.02806048095226288,0.5215924382209778,0.0
402,0.05221436155642589,-0.3808909603476671,-0.1965946079822729,-1.6451253802592152,0.3786604358241923,0.07265782356262207,-0.004716144409030676,0.4405863881111145,0.07265782356262207,-0.004716144409030676,0.4405863881111145,0.0
403,0.346855415149383,1.0205167136588345,0.6475357032460831,0.6928159885769858,-1.400337951518533,0.05941898748278618,0.0006812563515268266,-0.09439623355865479,0.05941898748278618,0.0006812563515268266,-0.09439623355865479,0.0
404,-0.844977168955918,1.640141354386996,1.5658421151889388,-0.07226809744559448,0.48710475056119584,-0.06024353578686714,-0.11726783961057663,0.090163454413414,-0.06024353578686714,-0.11726783961057663,0.090163454413414,0.0
405,-0.13610311323437196,0.19107028398772985,0.8737509531120717,-0.7961253710628539,0.6842071138612411,0.3377925455570221,0.035854440182447433,0.058052483946084976,0.3377925455570221,0.035854440182447433,0.058052483946084976,0.0
406,-1.7138166014264054,-0.6275727707766499,0.9835534716959073,-0.06231776527843591,-1.6361217451388768,-0.006958104204386473,0.2639957070350647,0.13658562302589417,-0.006958104204386473,0.2639957070350647,0.13658562302589417,0.0
407,0.9585371444153288,0.5569741170515896,0.922371342609325,1.3524420653947489,-2.368954866010493,0.032349929213523865,0.018314629793167114,0.009449404664337635,0.032349929213523865,0.018314629793167114,0.009449404664337635,0.0
408,-0.042205391484133825,0.14242381377624125,-0.7714371243153676,1.3715154045292144,0.940114204241465,0.33303624391555786,0.005959392990916967,0.19643840193748474,0.33303624391555786,0.005959392990916967,0.19643840193748474,0.0
409,0.5077957197454417,0.1351846149991034,-1.6314787850629686,-1.6235406832359405,-2.0416491137580315,-0.028731444850564003,0.04536597058176994,0.35901379585266113,-0.028731444850564003,0.04536597058176994,0.35901379585266113,0.0
410,0.10063274353200491,-1.473837377594231,-1.6032111529158324,1.3492383366305838,2.591465697292814,-0.2057226151227951,0.020218806341290474,0.31510642170906067,-0.2057226151227951,0.020218806341290474,0.31510642170906067,0.0
411,-0.028747827856796082,-0.694373052791244,0.6551678398083451,0.27982711968267404,1.910411049284062,0.30864882469177246,7.386374636553228e-05,0.19596517086029053,0.30864882469177246,7.386374636553228e-05,0.19596517086029053,0.0
412,0.2663564211682372,-0.049362405024217626,-0.5802322075655726,-1.0189101685067445,0.41581236529936616,0.18626393377780914,-0.04355878382921219,0.4733620584011078,0.18626393377780914,-0.04355878382921219,0.4733620584011078,0.0
413,-0.6212079812427367,-1.4385611644061318,-0.45310621709245114,-1.2764138338997664,1.988640203322701,-0.18781538307666779,-0.17140647768974304,0.27830082178115845,-0.18781538307666779,-0.17140647768974304,0.27830082178115845,0.0
414,-0.7675058157021597,-1.6749848862500119,0.736869153494407,-0.21450552772565,1.4812419644414172,0.08511482179164886,0.03349057585000992,0.38975790143013,0.08511482179164886,0.03349057585000992,0.38975790143013,0.0
415,-1.326158589360023,0.1652587231180802,-0.9625064168877605,1.6297003649123225,-0.42176677887939906,0.10086293518543243,0.26172617077827454,0.2006087303161621,0.10086293518543243,0.26172617077827454,0.2006087303161621,0.0
416,0.1426897511510501,-1.5423980144312301,1.120491812220707,0.5811211731247712,2.4990048586667104,0.2339189201593399,-0.03312365338206291,0.18867339193820953,0.2339189201593399,-0.03312365338206291,0.18867339193820953,0.0
417,1.0756273049855722,0.40465154913668533,-0.29740716382177257,-0.08701472286480239,0.9053740832412527,0.22063373029232025,-0.3498677611351013,0.19155696034431458,0.22063373029232025,-0.3498677611351013,0.19155696034431458,0.0
418,-1.2000634949457845,-1.4952186327899826,-0.4421293468351475,0.1737185476655656,0.38981606905239374,-0.014940827153623104,-0.1467026323080063,0.4347825050354004,-0.014940827153623104,-0.1467026323080063,0.4347825050354004,0.0
419,1.6443864328651516,-1.2996171305621835,-1.4446584136094354,0.09521276588123584,-0.8531779208829153,0.0693223625421524,0.33352571725845337,0.3008938431739807,0.0693223625421524,0.33352571725845337,0.3008938431739807,0.0
420,-0.1500002188882532,0.013263652992064001,1.566319610626849,-1.450601159249169,0.8118340795913475,0.25831231474876404,0.027310635894536972,0.06785661727190018,0.25831231474876404,0.027310635894536972,0.06785661727190018,0.0
421,-0.8928306192201114,-1.684261801606324,0.029234262340359196,0.5329293321075996,-2.533876060886751,0.011727754957973957,-0.026970649138092995,0.4119795858860016,0.011727754957973957,-0.026970649138092995,0.4119795858860016,0.0
422,0.46593483788005674,0.9627079280095914,0.8863553463350318,-0.605939115963662,-0.2709610224332102,0.17451338469982147,-0.06587778776884079,-0.1263996660709381,0.17451338469982147,-0.06587778776884079,-0.1263996660709381,0.0
423,0.8644270558395895,-1.0365279719876734,-0.5210734848482872,0.9534273143997745,0.759436412898165,0.08574564754962921,-0.06344834715127945,0.4186212122440338,0.08574564754962921,-0.06344834715127945,0.4186212122440338,0.0
424,1.7898320398443204,-1.407970536241985,-0.2843337471153473,-0.042489637450396245,0.3279799719312839,0.06158403307199478,0.11399976164102554,0.4540739357471466,0.06158403307199478,0.11399976164102554,0.4540739357471466,0.0
425,-1.558623664045998,-1.0994725624218165,0.6879535534508943,0.9519712698067468,-2.213927122469983,0.03526517376303673,0.2034730762243271,0.17363952100276947,0.03526517376303673,0.2034730762243271,0.17363952100276947,0.0
426,-0.13475001238400974,0.8125966887049767,-1.6893653673733764,-0.3501744703820926,1.3940122206785759,0.306279718875885,0.02825970947742462,0.43007898330688477,0.306279718875885,0.02825970947742462,0.43007898330688477,0.0
427,-1.5653584488401426,-1.6113601690143247,0.16385273149833712,0.0782384985305058,-2.5644922253725904,0.03458908200263977,-0.04646899551153183,0.431875616312027,0.03458908200263977,-0.04646899551153183,0.431875616312027,0.0
428,-1.320903707338117,0.9876943146721806,0.5587306759242243,-1.0759291915831903,1.2226042177816012,0.11759299039840698,0.2780650556087494,-0.054246533662080765,0.11759299039840698,0.2780650556087494,-0.054246533662080765,0.0
429,1.4414184023053123,-1.2456308756188574,1.6289365479777662,-1.2539201455016258,-0.45373713944668426,0.0638795867562294,-0.16585755348205566,0.25070253014564514,0.0638795867562294,-0.16585755348205566,0.25070253014564514,0.0
430,1.6342764555501952,0.10466836021379256,-0.4246864170907043,-0.7369004290138496,-0.6598111800806179,0.025859743356704712,-0.27977943420410156,0.4086455702781677,0.025859743356704712,-0.27977943420410156,0.4086455702781677,0.0
431,-1.8905897706834094,-1.2331480178994718,0.17713202295026043,0.7306213662331913,-1.4817880021323,-0.01450421568006277,0.13654851913452148,0.35068202018737793,-0.01450421568006277,0.13654851913452148,0.35068202018737793,0.0
432,-0.6360741816124345,-1.4961210846508122,1.0575342530869811,1.4281724174903394,2.807687821516872,0.14818227291107178,0.07711391150951385,0.0859016701579094,0.14818227291107178,0.07711391150951385,0.0859016701579094,0.0
433,-1.216579813973092,-1.6507761498163596,0.9462011333719418,1.509728059556984,-1.3234243400740622,0.07493668049573898,0.11931436508893967,0.11083346605300903,0.07493668049573898,0.11931436508893967,0.11083346605300903,0.0
434,-1.8795353705122042,1.1235619313009346,0.906639046067113,-0.858232820956334,2.2870457032118994,-0.002418839605525136,0.1499035358428955,-0.1279451847076416,-0.002418839605525136,0.1499035358428955,-0.1279451847076416,0.0
435,0.06669089030070241,-0.9918699269224137,0.3554802691051857,-1.0114240565376091,-0.6610819166369724,0.08980098366737366,0.0014110648771747947,0.44520696997642517,0.08980098366737366,0.0014110648771747947,0.44520696997642517,0.0
436,1.6268477786835018,-1.1149983465664342,-1.0430913182833272,-1.3340402949545083,-2.465963182664467,0.05941645801067352,0.28411591053009033,0.2401398867368698,0.05941645801067352,0.28411591053009033,0.2401398867368698,0.0
437,0.8334332132506472,1.2447240816822762,-0.7452510383456399,-0.044350082277949454,1.7839552852264324,0.3090253174304962,-0.30927741527557373,-0.002549554454162717,0.3090253174304962,-0.30927741527557373,-0.002549554454162717,0.0
438,0.9897058166949932,1.4525427826417951,1.4279716493399972,0.22115365972295553,1.6133341911882448,-0.04619291052222252,0.11475372314453125,0.05570685490965843,-0.04619291052222252,0.11475372314453125,0.05570685490965843,0.0
439,0.8809363681106439,-0.9942757849312971,-0.11454167772086965,-1.3353496011333197,2.6298822727657916,-0.04055376350879669,0.08962888270616531,0.4215582311153412,-0.04055376350879669,0.08962888270616531,0.4215582311153412,0.0
